noah-padgett/Padgett-Dissertation/data/study_1/posterior_draws_m4.csv
"","chain","iter","deviance","icept[1]","icept[2]","icept[3]","icept[4]","icept[5]","lambda.std[1]","lambda.std[2]","lambda.std[3]","lambda.std[4]","lambda.std[5]","lambda[1]","lambda[2]","lambda[3]","lambda[4]","lambda[5]","prec.s","prec[1]","prec[2]","prec[3]","prec[4]","prec[5]","reli.omega","rho","sigma.ts","tau[1,1]","tau[1,2]","tau[2,1]","tau[2,2]","tau[3,1]","tau[3,2]","tau[4,1]","tau[4,2]","tau[5,1]","tau[5,2]","theta[1]","theta[2]","theta[3]","theta[4]","theta[5]"
"1",1,5001,7734.8949615714,1.58846677420215,1.8146524244963,1.72962856986215,1.75116637197774,1.64995686894467,0.407245266322009,0.655094881520313,0.588651262116136,0.593915914006644,0.518244854392261,0.445896056267322,0.867047596380772,0.728179936873756,0.738217393940508,0.605969699793228,11.367127883546,3.59793716519273,4.10321999255236,4.56964747081438,4.06139720980077,4.66079681055385,0.696239353689485,0.487044303380977,0.117036984451088,-0.952287028282148,0.722611526836113,-0.899604595308142,1.06253553908325,-0.848100614882726,0.919837383761869,-0.545856767688443,0.9437583059289,-0.955370248366643,0.920045412453704,1.19882329299475,1.75177153438967,1.53024602046547,1.54496492071632,1.3671992770675
"2",1,5006,7760.43486414122,1.57877055127481,1.69772665771798,1.73250195241415,1.73262125864079,1.60258097669135,0.47757251102325,0.590448637130192,0.630130921040921,0.644610003600596,0.518987634565106,0.543565531211637,0.731590593085861,0.811513101528042,0.843165790375235,0.607158068510802,14.426445621318,3.89638460804804,4.21586603893849,3.4417124988079,3.76825840549744,4.64955947850555,0.714454106105096,0.452042906925513,0.104189433892776,-1.01354805674942,0.870678417091381,-0.904131711898631,0.854358175665775,-0.87359799102232,0.868966283676802,-0.667740874501184,1.11823296430017,-0.720760066826554,1.03146589808289,1.29546348672139,1.53522479589172,1.65855351395166,1.71092855005909,1.36864092015777
"3",1,5011,7734.39135123456,1.53885562062656,1.63792766545722,1.78233160171387,1.72537044693097,1.61003191513092,0.463581873878539,0.505000819846481,0.657503967017226,0.655904672419363,0.532860360748178,0.523198166284539,0.585088382837112,0.872656476975613,0.868927758239014,0.629707342273787,13.688150809769,4.05951428772712,3.79023613010156,4.00297891680639,3.88246956477453,4.90497898504894,0.707729911471687,0.472517597750602,0.0962497442910222,-0.946381837473678,0.709371108547987,-0.878254058248687,0.878608461822647,-0.981740009992579,0.890402555629105,-0.487938840465349,1.20119674188153,-0.797347375691119,1.18691575188767,1.2737363212035,1.34232841573095,1.76152932680749,1.75503544903828,1.39653133691352
"4",1,5016,7815.98444153174,1.62247201531012,1.59726261832233,1.74238851764538,1.74075193230645,1.56348111180968,0.537164935859842,0.495013195415395,0.666454154429077,0.646574371809904,0.574705643304468,0.636845807997324,0.569710531764913,0.893914180054672,0.847576274715495,0.702264895663725,13.495406398453,4.4977462985334,3.76294488430369,4.17333755568561,3.99597410111687,5.05860607555725,0.727145360248664,0.417685667265635,0.125833414585408,-0.993522882600993,0.878472997605427,-0.929697253940306,0.882847675330464,-0.931681853025619,0.942924652157757,-0.341589088006726,1.23718115952205,-0.764758745932179,0.895669678836921,1.40557258316376,1.32457009000386,1.79908256130282,1.7183855414606,1.49317598368158
"5",1,5021,7804.01691305305,1.63652574272207,1.61778801274368,1.67714771543921,1.71054081221286,1.59726785640232,0.540076052388503,0.507928809433532,0.642925637092178,0.659372094521755,0.546451954511218,0.64171298167621,0.589655641041834,0.839406746820359,0.877038301617717,0.652487382468015,12.7186017619804,4.49076951323892,3.97473101573229,3.64557017766333,3.90444404457503,4.83447858253549,0.721637160392489,0.406496912768492,0.108855919862572,-1.0352651559205,1.02791282131539,-0.836658034819841,0.924746738289046,-1.12705561691383,1.21632585498434,-0.446459356846062,1.19644399872791,-0.758248253814239,0.992167888202079,1.41179555085177,1.34769377501246,1.70460368660754,1.76919618250449,1.42573978427996
"6",1,5026,7883.09700144353,1.5759618971715,1.56259400991057,1.63865315325872,1.62494882058232,1.61891717697473,0.600792504489025,0.44304464048244,0.598415550381202,0.638101603045207,0.629195548282857,0.751549588258158,0.494193934116519,0.746912244016984,0.828754860174682,0.809518101026724,10.2560605193375,3.93938988387136,4.17653521896724,3.88542992741827,3.98875865989142,4.76533255522348,0.725027604029893,0.325542543462049,0.122344781696613,-0.834777264599416,0.862361591552692,-0.839202661514536,0.912588581691097,-0.976169474500647,1.01635156241803,-0.616208907160603,1.29662569812384,-1.05768166930242,0.877631666680686,1.56482678361101,1.24422764451756,1.55787790026249,1.68683461826316,1.65531955588991
"7",1,5031,7803.17091782209,1.60088479403023,1.63962047538764,1.59178772970405,1.61575974624393,1.55822370594,0.646532350854433,0.594751374642468,0.574594218313203,0.628200996674049,0.656276557000305,0.847481625629283,0.739823609795748,0.702061619328287,0.807403266973263,0.869792957319588,10.6726361012244,4.43631198236563,4.12999859768834,3.84968892992766,4.05227941682842,4.61900321231228,0.758845808955828,0.31329599981288,0.148262886390448,-0.97509739918629,0.836109833599013,-0.901662585052495,0.906600126410471,-0.670632956798677,1.03594826222134,-0.422255317461598,1.14757608028639,-0.937112216214052,0.823824531871191,1.71822510577925,1.54733897361121,1.49289051733386,1.6519000355191,1.75653978860275
"8",1,5036,7847.05095801645,1.53978148576803,1.58599666383263,1.60117808688241,1.62615522829379,1.5047251237173,0.613808413846463,0.59796477774121,0.613918208301637,0.649091167725263,0.539434103983995,0.777509037337229,0.74603628439483,0.777732224230494,0.853269490180001,0.640636914845628,9.988997446664,4.04714941592222,4.13799928331363,4.19645550398489,3.78480713107073,4.37077931253137,0.742313484676992,0.248341902043383,0.124833709226936,-0.860969983860903,0.782983067295286,-0.89564892863097,1.00417810033377,-0.786157527703861,0.844879143011682,-0.558038608583132,1.22869700073603,-0.951377746077082,0.931792275062064,1.60452030314106,1.55657013763364,1.60486741260651,1.72806882287204,1.41041565666292
"9",1,5041,7874.44297225709,1.5751109780897,1.57009187800822,1.62041788216344,1.61998451565105,1.45095473405728,0.663019174478347,0.60246454450298,0.558738403675614,0.687890340952317,0.474389758412708,0.885675977077633,0.754830333710147,0.673711311306231,0.947749344541041,0.538886423507186,9.13676777418176,4.08838248802765,3.97146797970768,3.83685980677165,3.88071834125518,4.2314228715525,0.742884145076369,0.227980279225155,0.0664377302983351,-1.07317235123252,0.958724596287156,-1.13654755639607,0.889051064530502,-0.84126625237506,0.869247611326852,-0.318288991807949,1.39968260037881,-0.909185339882721,0.962167364483246,1.78442193637242,1.56976883268897,1.45388693098196,1.89822882007797,1.29039857744037
"10",1,5046,7925.78105239516,1.5640804636412,1.52821135614567,1.63590559369325,1.64016433564139,1.46723377844597,0.675409669389658,0.548923251576255,0.544931119968907,0.679330040961309,0.544031614964298,0.915880844527149,0.65670671495294,0.649902909215121,0.925728540760059,0.648378608866932,11.7079808943561,4.01375897658668,3.83229812953972,4.01504936536046,3.92447691745829,4.72166042323764,0.742455935237003,0.255282877871001,0.0552657089312451,-0.649882290672577,1.05732837293673,-0.758371105993814,1.05602630292666,-0.793623478512607,1.01236557721602,-0.481665571413847,1.20906303470111,-1.09045575642147,1.06314443722394,1.83883772137176,1.43126370946428,1.42237379140628,1.85697333117775,1.42039482043622
"11",1,5051,7811.61911602555,1.54974744967444,1.55510130578469,1.58668277128999,1.65026381991431,1.53466055318977,0.64524818085867,0.434675181249577,0.513439683402644,0.697468576507933,0.552608067135642,0.844595500814519,0.482657462241172,0.598326902795425,0.973281635091287,0.663043813078673,8.68604374775114,4.52444866319489,4.01762647861668,4.20034790360544,3.89841119153663,4.74049405261253,0.717309204867579,0.265248879145015,0.084367595207503,-0.800089592517818,1.16128039350022,-0.773217452126853,0.99877058681995,-0.765849490525308,0.920144433117362,-0.585200353829882,1.21322366129359,-1.0509649102199,1.03821030726444,1.71334155999613,1.23295822585709,1.35799508260877,1.94727714120597,1.43962709806191
"12",1,5056,7719.05498065356,1.52160732592953,1.57617551109636,1.612209704752,1.62440034315851,1.57516317023216,0.617622711201717,0.472974979806386,0.549834409567584,0.70283230365937,0.675247653584305,0.785305419957284,0.536815275585585,0.658268567680662,0.98801826984838,0.915476974668263,9.02213472491859,4.20032541216291,3.73685753887805,3.86816199175568,4.62421015788334,4.3274593513475,0.751052535806409,0.249584259137586,0.0580195527739178,-0.846273236731593,1.01844152232743,-0.854698701920284,0.952851791874001,-0.810203101342659,0.970658320331053,-0.541748227980887,1.09650014979589,-1.08835142073311,0.818272490926957,1.61670460261429,1.28817064010203,1.43331750719635,1.97618010155419,1.83809809114775
"13",1,5061,7873.8063405598,1.57111301113991,1.49738584547868,1.55163536193675,1.59955307741558,1.53116226012278,0.644382186381768,0.400858572304438,0.482361516171744,0.703971085520376,0.677525108994442,0.842656141893825,0.43755167866558,0.550658449400962,0.991189390398434,0.921176664458438,8.76218094301625,3.74954158759078,3.82452501068834,4.46300869385558,3.78014033160092,4.65333124314038,0.737005276014868,0.211002127253108,0.0743948639683803,-0.809691155321318,1.15488793417302,-0.710057644064081,1.00504424106448,-0.777773817049587,1.10645655393152,-0.712871902289814,1.40250063709721,-0.975137786858771,0.887688390187968,1.71006937347139,1.19145147150307,1.30322472789667,1.98245640763842,1.84856644714277
"14",1,5066,7903.36584881543,1.56306214259335,1.56007904735873,1.61563716597571,1.61890695796654,1.58676630582381,0.654214469926256,0.345531256472332,0.476441677312276,0.713938014740781,0.720295901933652,0.865009406335851,0.368210347502686,0.541899890220782,1.01960716195261,1.03838869618318,9.7740891993619,4.13066695256181,4.32146770766144,3.98686551681835,3.77532932123774,4.50870602903985,0.746099768121016,0.199831894766789,0.136089896425378,-0.772745480380322,1.01325614389794,-0.522649535202777,0.987849784496219,-0.638748409923861,0.927139218663172,-0.584979286029569,1.36208583593225,-0.93395114522608,1.19491322062812,1.7482412730495,1.13557886000805,1.2936554910213,2.03959876470506,2.07825108436101
"15",1,5071,7905.82563440352,1.56019717530461,1.57230075379324,1.5204931039923,1.64712638633059,1.55399017287462,0.662360268260468,0.442037086532664,0.462112659454337,0.685662312601596,0.645899165906804,0.884107194955871,0.492796740095339,0.521088856467139,0.941947642962772,0.846057025778012,11.0791876781263,3.83113736053622,3.826625889247,3.97852072886431,3.95943017869911,4.74768641569049,0.73098866319097,0.28040802919593,0.119059145595164,-0.884326379567662,0.947086373332031,-0.74928180261128,0.861989667621713,-0.715387751989377,0.982558528027753,-0.359558216695622,1.35889726988652,-0.784991304701207,1.17315335034384,1.78164553217274,1.24284862704859,1.27153359633423,1.88726536208312,1.71581249086834
"16",1,5076,7796.33718846243,1.52262737835517,1.5208885709598,1.51982340542516,1.57621757406003,1.54920893639897,0.663439182151793,0.388720813480684,0.44585329613484,0.716056220319907,0.672450314213833,0.88667788424029,0.42190096455601,0.498101087361014,1.02580588512515,0.908541971583191,11.2534252773606,4.01903633452094,3.67729479865728,3.85690072093029,3.76398692995436,4.25364971137864,0.736776839038743,0.21311518416859,0.120689189628088,-0.796699316871403,0.853116494505721,-0.745800502269211,0.972078725938287,-0.619108815367592,1.09375674345312,-0.597707238245863,1.53979134333071,-0.737016185624139,1.22464513661479,1.78619767040084,1.17800042389329,1.24810469323022,2.0522777139574,1.82544851412827
"17",1,5081,7803.21696787806,1.54357944595178,1.46613870956292,1.50327458570748,1.56334569870054,1.46479369966834,0.710267261474206,0.269550119305448,0.496957266271199,0.674524953974927,0.673603873038219,1.00899966076578,0.279910630070562,0.572679851416675,0.9136784052916,0.911393110065382,11.8199580081635,4.13082485008712,3.67763598479832,4.10993956254074,4.08164063232731,5.44028105381527,0.731059519422101,0.206006673796237,0.0521564116127398,-0.988065607622369,0.922877186125545,-0.736821122273173,0.919023055121032,-0.668908374714386,0.967399942262039,-0.487614276605908,1.09161084225256,-1.0392514853869,1.05610733622355,2.01808031542545,1.0783499608265,1.32796221221862,1.8348082282962,1.83063740107465
"18",1,5086,7836.08387232405,1.5663756847129,1.48927143625375,1.48666541367316,1.56752452499536,1.503010118726,0.753493479047842,0.399793569114139,0.448784923364356,0.676698174061828,0.644268738246591,1.14607546256637,0.436167683612303,0.502198898535224,0.919101511297703,0.842402490921996,10.5409398348419,3.84259312250142,3.68306144183174,3.92751325820507,3.42546745260635,4.55138860157739,0.747363753346498,0.193844129125997,0.119788735092652,-0.805379784376556,1.04534026352307,-0.82539285519695,0.929809835773635,-0.624633689371182,1.01175630435582,-0.579275844885782,1.11141583520066,-0.987957106409965,1.02682829028832,2.31348896589672,1.19024224822772,1.25220373368999,1.84474758806972,1.70964195671158
"19",1,5091,7878.50886470943,1.53812188355957,1.51811615432436,1.49697040853093,1.58741485073184,1.50450801632837,0.731772913863196,0.435090483533356,0.472721772769237,0.668521548968261,0.65786998276207,1.07369156951608,0.483226226023658,0.536445161682738,0.898921670986314,0.873512747323877,10.8206838036265,4.27370529508002,4.10697035224812,4.08188473158261,4.01393115871901,4.93918279637163,0.749302928628792,0.198982430256056,0.110511260833584,-1.21828927402923,0.885971048974222,-0.818585275515378,0.953492466305593,-0.741607277227278,0.914424749222287,-0.647305059238438,1.01002708714239,-0.960852887575322,0.985072911393188,2.1528135864499,1.23350758551707,1.28777341149282,1.80806017056883,1.76302451973731
"20",1,5096,7710.01716092468,1.52078397290049,1.46099030793663,1.46966381651632,1.55003668150321,1.49827718889551,0.756941082000693,0.35636105878107,0.374256009753981,0.726165160035923,0.678655540458901,1.1583177128008,0.381400649588036,0.403586487207782,1.05620904866945,0.924023883418613,8.72789852567042,3.99188075383544,4.09607072384037,3.8368990242935,4.30979153359778,4.89282077584807,0.754831639820266,0.193139315641369,0.0816020407111654,-1.30335921565661,0.742189638551638,-0.686242501221856,1.04524954689577,-0.794233535331498,0.813176188252597,-0.618814464589354,1.07397128444549,-1.07076984152705,0.851142897049373,2.34169992378807,1.14546645550618,1.16288205265672,2.11557755449124,1.85382013712801
"21",1,5101,7752.22005301007,1.62817464031972,1.53192961836927,1.5574296271193,1.6127816876996,1.55140989777652,0.769249974270646,0.417692859350005,0.423547439435018,0.717437326502979,0.696884489834907,1.20393215075485,0.459716315225266,0.467556718567001,1.02987881327758,0.971696367118284,11.4301592415515,4.20209095151451,4.00150343922579,4.02827817651414,4.6727673732739,4.43682746068792,0.773549427724673,0.249529760622056,0.0563971267999588,-1.23073414806491,1.20703288839937,-0.738449588477249,0.856092760089397,-0.748939254978635,0.73420222111286,-0.541703899341411,1.20557534715887,-1.15596698622879,0.883791023241901,2.4494526236212,1.2113390904843,1.21860928507714,2.06065037003803,1.94419382987087
"22",1,5106,7786.21336878822,1.58528558552231,1.51968288939666,1.52564233188651,1.61552193379147,1.52455157667471,0.772586836875865,0.352804026966891,0.485829947763965,0.728948079385797,0.639833583127433,1.21684635366838,0.377049341573223,0.555835575418226,1.06482778732539,0.832559988330199,9.04457722817612,4.25518119389495,3.87148856307427,4.17154652377289,4.41402296407574,4.61915421840577,0.766127525167398,0.232556943048812,0.112916045984639,-0.997919877080625,1.05273913037157,-0.769102462737861,0.725891341796651,-0.630331444245881,1.01089211093169,-0.506982946735799,1.31209162628674,-1.10695381986266,0.750742183812453,2.48071504843602,1.1421662059808,1.30895318690051,2.13385821666029,1.69315613416838
"23",1,5111,7779.27859799657,1.60713974621408,1.49047863857294,1.5924871951338,1.61722757393644,1.53481035366606,0.735713661558599,0.347102364533244,0.530456750091953,0.716059452166493,0.685296891311538,1.08625658621089,0.370113328428555,0.625751139063932,1.02581538697197,0.941000892678082,10.2176797750778,4.4121021886235,3.93495870010218,4.0806986557161,4.28530051639118,4.53702672917642,0.766288450808476,0.274122924264723,0.0921309994354717,-1.20589794592484,1.14090774449715,-0.75984782316851,1.03652839119345,-0.543369546066018,1.14884855240781,-0.422012274894284,1.32887735221026,-0.880703217012517,1.16250950394922,2.17995337108653,1.13698387588046,1.39156448803981,2.05229720814845,1.88548268002095
"24",1,5116,7691.43408483799,1.5778343173009,1.53754147866912,1.56200799694211,1.59080603022408,1.51180939015189,0.687116407171112,0.427403940404221,0.518436061026352,0.646692594938078,0.654327524281268,0.945728331258412,0.472760190095448,0.606275430432639,0.84784263467857,0.865270787084997,9.7257846201624,3.65959812813405,4.17614806545211,4.02150676138703,4.1170299495249,5.59690817358834,0.736449932493932,0.250173994351829,0.0842424944356285,-1.17065021371945,1.0656841080158,-0.747471042406147,1.11840124021051,-0.938564703707744,1.02515785417504,-0.397455766259666,1.11970862167603,-1.08779720167864,1.13846701407982,1.89440207654482,1.22350219733908,1.36756989754628,1.7188371331787,1.74869353498269
"25",1,5121,7699.77109722543,1.59854538151912,1.52841442468081,1.55822309262947,1.61058760742064,1.52741231612069,0.741091770056563,0.414105033505266,0.527496811947808,0.696040251457903,0.650427188613417,1.10379451401905,0.454945938139302,0.620908079959117,0.969411660888515,0.856311306978022,9.50327407133368,4.08112087803086,3.71463425167176,3.7249417977038,4.28662038107012,5.11294631657017,0.762391303647421,0.24304973412597,0.0905259869227652,-0.899713108159938,0.863515441469726,-0.632029514728987,1.26708790855307,-0.727655130776948,1.06750437409433,-0.365355799385669,1.33302618894366,-1.0257432592413,1.08334634589032,2.21836232917854,1.20697580662945,1.38552684375852,1.93975896826663,1.73326905445841
"26",1,5126,7654.27483786646,1.63859439424309,1.53678683696936,1.55038233960111,1.62693559081425,1.49785706415203,0.747687273336931,0.429072638293772,0.529103120461385,0.712901119147404,0.578705638907258,1.12594855557019,0.475021470916223,0.623532405851228,1.01659366762337,0.709601150430524,9.50928214944326,4.21041041235186,3.59183651429165,3.9878267945091,4.78669580559568,4.45097460137275,0.757375879581656,0.239645783579582,0.0844348354927739,-1.12084311843017,0.920237441536607,-0.550684127521434,1.11265533120003,-0.708460689721294,1.25826209371796,-0.419481061880907,1.29387035980082,-0.860423958040162,1.11091834475766,2.2677601497906,1.22564539783141,1.38879266114662,2.03346268505194,1.50353379269232
"27",1,5131,7759.45081693637,1.58856970267431,1.48803234856556,1.53221527715958,1.63769994584398,1.48077356400237,0.77941127377279,0.422576503874657,0.540853115154894,0.736375810052283,0.615078802609476,1.24404719971929,0.466251566640438,0.643017650193755,1.0883911979545,0.780095886049617,9.90777317350796,4.23480760800936,3.74676614507155,4.30579213385749,4.20158840369954,4.25432311940733,0.780928750608141,0.204975682993108,0.0640164741110888,-1.00204832728181,1.12374990131147,-0.82157123386153,1.03376045218406,-0.643574505421925,0.987546306696092,-0.364763725056824,1.37152299944233,-0.817636016384355,1.00231961697954,2.54765343512942,1.21739052339466,1.4134716984607,2.18459539978483,1.60854959143154
"28",1,5136,7809.94208293135,1.50788110610292,1.51948269764114,1.53426848807527,1.57743737233748,1.47665834715633,0.751078459505787,0.319498001113254,0.569037885744344,0.716835534466304,0.603781700824094,1.13763059682287,0.337170115319523,0.691998129339547,1.02810104987418,0.757425731191419,8.90800901290834,3.86609157714722,4.11240191780318,4.07713182073423,4.24102578328643,4.78524851629631,0.757527296265772,0.159130764882711,0.0939073856711335,-0.924121652838522,1.16751457782948,-0.698687484873801,0.901624350972598,-0.673354275075558,1.26785787470283,-0.204271686486219,1.69217220157283,-1.11186001968253,0.831941243624798,2.29420337482756,1.11368368666458,1.47886141100943,2.05699176875239,1.57369373827086
"29",1,5141,7756.93446026804,1.49170885907651,1.49281874471158,1.49989845059287,1.55252838958132,1.48380498286645,0.718164539595949,0.333763295260309,0.553961077075303,0.685465395310778,0.62259389519804,1.03203342715007,0.354066563690473,0.665384689438408,0.941437293851785,0.795601290029385,9.23038763582048,4.58969863245782,4.27067098752791,3.77965659582526,4.16459241719981,4.46680052813151,0.741640901467786,0.167187441698914,0.102896840663014,-1.12876548498925,1.09935988765063,-0.715818820896502,0.946626956625462,-0.858776975345472,1.32225672255628,-0.275682878542972,1.66931106384236,-1.18064414172491,1.01988237301604,2.06509299475513,1.12536313152358,1.44273678493905,1.88630417825497,1.63298141269642
"30",1,5146,7698.46664980607,1.55998925965864,1.46986372685387,1.55141786583618,1.55277174735192,1.49947333777147,0.706820548517442,0.353473093373945,0.605024270439991,0.67549124609017,0.6056799002455,0.999190902931921,0.37786637339654,0.759883106791584,0.91608428963544,0.761183242447447,9.25064468072999,3.83096040570114,4.15423359973814,3.85143848390552,4.9271618498598,4.01988944065264,0.744221739147765,0.191154282798907,0.0678438789340116,-0.940194276947882,1.23184436208728,-0.813896746835899,1.00188753828439,-0.951671457802718,1.04585720546216,-0.493162052838901,1.33015385720593,-0.932721806987442,0.913000489943769,1.99838246050191,1.14278299614385,1.57742233598723,1.83921042571687,1.57939992858281
"31",1,5151,7681.66739486665,1.53288206251167,1.4777945757879,1.52561233389404,1.52031754789404,1.48757403097582,0.75947633842179,0.43458179640674,0.53500073705218,0.655427681641932,0.669715427004488,1.16746435400026,0.482529622366533,0.633248185302177,0.867819652016523,0.901830519914481,8.31114103847554,3.84667722910049,3.80655193840336,4.21824176498339,4.08620126344663,5.57213396394477,0.766637969164264,0.195362088313267,0.0669660409758282,-1.03672863451621,1.09021235209157,-0.78701920203922,0.989791805247089,-0.75540703356595,1.21680596623557,-0.651088402213267,1.42295667331851,-0.759874121400432,0.995255081411535,2.36297301786124,1.23283483646119,1.4010032641885,1.75311094842608,1.81329828664922
"32",1,5156,7805.46910367503,1.57427624926488,1.54313656716756,1.4969996682922,1.53459978074142,1.48988898037502,0.777751042063572,0.448039629245347,0.6061859090517,0.654418642369088,0.645722512452259,1.23732920566634,0.501155217970565,0.762188348311193,0.865481525195653,0.845660109078857,9.04522030549341,3.95302030643688,4.05967636991647,4.06989291250077,3.80906755573425,4.78292559659382,0.780117141728259,0.173375768729055,0.0438813461400814,-1.02941826108756,1.15056003254685,-0.70630031268055,1.09213349487383,-0.785431544693988,1.28897436821484,-0.407519851818237,1.23551178394303,-1.01236480702291,1.13851549266491,2.5309835631949,1.25115655249912,1.58093107830134,1.74905827045499,1.71514102008726
"33",1,5161,7653.10558450007,1.55396309086288,1.52012619607085,1.55791933423723,1.51471884788549,1.52659424088995,0.773523559144344,0.485870957232041,0.658668807531347,0.588811124171363,0.706462057404068,1.22051620184858,0.555896992234301,0.875385340240717,0.728482615050461,0.998178935238854,9.99306568259461,4.20829111912686,4.01778407325957,3.69316415885913,4.08086400714848,4.09439587179412,0.793139793293606,0.212585365300997,0.025233485297961,-0.98353819558834,1.29313714067725,-0.719505544996761,1.00806263820378,-0.937804825752282,1.08071712939411,-0.312734747072923,1.28992856575865,-1.02188772454505,1.03783257592359,2.48965979897489,1.30902146597514,1.76629949390836,1.53068692043076,1.99636118675457
"34",1,5166,7657.7437945644,1.61467519927338,1.45393135378869,1.61099538285032,1.54908747067284,1.53631683083639,0.772598629722445,0.469795445461431,0.680519016151935,0.578988409613238,0.696183787407407,1.21689243220673,0.532180094649611,0.928744047484404,0.710122662722663,0.969799550918128,11.8185536489363,3.79832082016346,3.91835954203197,3.98294065797259,3.79850086482774,4.49128443397985,0.791578846192772,0.251694891140553,0.094077878570065,-0.996055697335823,1.42095695227536,-0.628047465421512,0.905852389811839,-0.797747493393677,1.0966676977942,-0.635482834976437,1.40646188650422,-1.02596815060515,1.38288142624676,2.48082719156201,1.28321565314127,1.86256550573771,1.50427419611233,1.940511168961
"35",1,5171,7795.63395557012,1.58427469000108,1.51562453433737,1.57663651210158,1.47930236626406,1.52581707606223,0.754249402043759,0.368908413893616,0.660383412325098,0.513184822440963,0.729942699144858,1.14874071564055,0.396903719715418,0.879422384860999,0.597923689457816,1.06793531611991,9.52869829614533,3.67328191112516,4.02528629833243,4.57501422410974,4.52999985777648,4.55571466075634,0.769963426291705,0.240391837811784,0.101262058381224,-0.700762106431592,1.1341756931242,-0.564523108910549,1.23824905341271,-0.785503327216032,1.10679165352529,-0.465540971680265,1.15482829117351,-0.902977979002199,1.32214902508811,2.31960523177037,1.15753256272394,1.77338373099461,1.35751273841485,2.14048583941614
"36",1,5176,7771.34751098605,1.57297949473389,1.49542202277999,1.55410182696235,1.51447859869599,1.49256706343148,0.736150524527799,0.350485494793837,0.683989217837112,0.522893615858193,0.689868445478696,1.08766416546142,0.374223158377589,0.937623863478963,0.613438377437936,0.952942847049995,8.76232649735424,3.87360759998502,3.94622879282462,4.36133380466239,3.9759466134432,4.42046998522852,0.758783915346329,0.19878772503803,0.0950723226971216,-0.768266748843901,1.11398241243513,-0.830187870011639,1.14134238481209,-0.728197943761652,1.05456671956552,-0.475888732547892,1.22356778909761,-0.855959989358276,1.33930682464875,2.18301333682889,1.1400429722661,1.87913850936522,1.37630664291369,1.90810006974375
"37",1,5181,7682.55014341504,1.57577598920471,1.50664612850168,1.59753082343725,1.53080422321492,1.55210462094557,0.731661651620862,0.265773586336218,0.671530266397393,0.594018083473897,0.718545757232464,1.07334021682309,0.275688595173714,0.906276648494704,0.738413621563833,1.03316569967677,9.81900124879753,3.97548179503485,4.09866385088211,4.34322945281757,4.0726283439143,4.58711447752846,0.764326598401199,0.233183754819802,0.106503248448856,-0.858058247386026,1.20044051411531,-0.368290381110076,1.26924689194793,-0.978171172674555,1.20051505613604,-0.656127638053114,1.18197278036993,-0.942555605364094,1.10261947357538,2.15205922104984,1.07600420150886,1.82133736360679,1.54525467651102,2.06743136298858
"38",1,5186,7800.69673647427,1.5911849205431,1.50405287377155,1.57471148103998,1.54813384877686,1.49922515038217,0.717723447358024,0.296300332159497,0.708023986485717,0.656399481121407,0.653970504107764,1.03072571240055,0.310231326025796,1.00259930907069,0.870079188162196,0.86444570465022,10.8096355200237,3.73463815541826,4.26974393143883,4.31319112958756,4.14728850521669,3.77162406069138,0.768847553352257,0.198050561851264,0.0867428507962975,-0.770087170391366,1.1534383985429,-0.701118469407509,0.958408837190622,-0.820069394368744,0.965718771217768,-0.558028318297669,1.37015075006109,-1.05113417903311,0.907166502379644,2.06239549420362,1.09624347564772,2.00520537454903,1.75703779367299,1.74726637628821
"39",1,5191,7820.32391906304,1.58677149841599,1.46978354005456,1.67968385544119,1.59498631744422,1.51686264366609,0.703092288618983,0.307203704813999,0.756201234400277,0.681054793747905,0.582049735741297,0.98874091209819,0.322813757957624,1.15567173538165,0.930107357644795,0.715793463304043,10.2334942133769,3.50320262931433,3.69489477308864,4.24183263876825,4.03569796307494,4.53174134293023,0.771875076617487,0.249228935802255,0.139364130955615,-0.579537299841568,1.1980355033902,-0.582353535046591,0.868063837281988,-0.769621141418018,1.12165211211788,-0.621537528811887,1.15030028748053,-1.092468975596,1.382902405688,1.97760859125676,1.10420872232672,2.33557715996004,1.86509969674498,1.5123602821088
"40",1,5196,7810.29491367316,1.57494581863202,1.51843758750625,1.6692117955229,1.50879639200464,1.49956376418915,0.694974224277399,0.302208805476755,0.761055368782183,0.596869752130064,0.563657366975441,0.966537877536433,0.317032699018929,1.17322446371629,0.743912969633946,0.682386719294432,10.9047865459193,4.39534719505828,3.93192296519179,3.94359335829017,4.37322947538626,4.4982138434341,0.750976479445061,0.211693092581509,0.116683828248141,-0.600559090821274,1.16824645201446,-0.820285516921391,0.801974238410204,-0.85333115652654,0.979633561643158,-0.473085814411385,1.38105194498436,-1.02173149268791,0.861538574412788,1.93419546871263,1.10050973224723,2.37645564226238,1.5534065063896,1.46565163466942
"41",1,5201,7747.50280967062,1.56365694416583,1.50549436423482,1.61621656206216,1.56891478253738,1.43674458335733,0.710690933645412,0.389674511610948,0.763045068405297,0.597482231569707,0.581961339724691,1.01021538063759,0.423121116566675,1.18055331977843,0.745099802198381,0.715629077274554,10.9528819010439,4.25485297017631,4.30934962150586,4.06128358045256,4.14522206916457,4.04866790572857,0.768545494985832,0.223225753194646,0.123724888273036,-0.745182487391962,1.0572119808512,-0.956237832084917,0.781424291270996,-0.876236062803742,0.904088888230841,-0.44868131455561,1.16927011548964,-0.773733736519983,1.11245597554374,2.02053511527675,1.17903147928463,2.39370614083986,1.55517371523607,1.51212497624083
"42",1,5206,7695.67332439034,1.53614076728413,1.51151786011202,1.57208686907289,1.52112049510662,1.48537643973647,0.697991601859973,0.490543184726193,0.765340145195835,0.603779389107243,0.573389469436896,0.974704381706718,0.562925959222172,1.18910689365179,0.757421167528774,0.699867469153588,10.0154037036675,3.78140697292792,4.25750973050859,4.17357543515263,3.94810919656761,4.0320407620316,0.77783773681921,0.190068240901903,0.124233544022665,-0.794265928230932,1.43045334839243,-0.760349690083437,0.941108755153507,-1.04768140684512,0.969874495633863,-0.59546445256208,1.29074980505939,-0.952812254564236,1.03186471363994,1.95004863171828,1.3168856355662,2.4139752045302,1.57368682502065,1.48981447437945
"43",1,5211,7727.78662944438,1.51979206621774,1.51739520120643,1.5708570652843,1.53234493373152,1.4764234815045,0.670144064179139,0.507684361540439,0.77947725361594,0.652774784515277,0.638888023835492,0.902877969290919,0.589273288344077,1.24431555315724,0.861689702116527,0.830479966361399,8.59460841698911,4.36959660500153,3.85422734292075,4.45688835128943,3.89068056893656,4.72645221816173,0.796853843503377,0.210013944104897,0.0880141886579189,-0.733142540574959,1.04852031156457,-0.82175269544121,0.825874053838081,-0.862665558498259,1.07312676591183,-0.653127258716293,1.36860404204128,-1.02211574503262,0.980493395200674,1.81518862743089,1.34724300835584,2.54832119582901,1.74250914273367,1.68969697452763
"44",1,5216,7677.63716860081,1.5324077877774,1.50626546248829,1.62066119424498,1.57736834758887,1.44953702378218,0.690705910613481,0.475435139910339,0.778586856131002,0.718925195098613,0.608631678889575,0.95515384131344,0.540420256419924,1.24070299120437,1.03429459785837,0.767067195804526,8.74518791890229,4.17936063703254,4.01888895688726,3.86845326829836,4.23800138952154,4.85361962447721,0.804612448503738,0.19286631932479,0.0959502640319116,-0.704779303412148,1.0193661537023,-0.695059898230638,0.897455454519367,-0.999915505564596,1.08241423359655,-0.409344878322072,1.37653631362012,-0.800698948811132,1.04911417021853,1.91231886057582,1.29205405354898,2.53934391238346,2.06976531515901,1.58839208287942
"45",1,5221,7654.12410557707,1.50743062625867,1.52456196175939,1.56581688604697,1.52300635432497,1.4513946853124,0.661833125215066,0.592590045449177,0.768759929621066,0.677979747554827,0.572841850477063,0.882854758999555,0.735675910176965,1.20205612698424,0.922320306422007,0.698872356512885,8.62892072256121,4.07144429701016,4.10926616963666,3.90393112636549,4.39583814320176,4.3041779807509,0.797811550748216,0.157796555725913,0.0807334676402613,-0.99475991937054,1.1856117091813,-0.848588040081097,1.0965196943663,-0.917712657274848,1.05428426722955,-0.322839071273179,1.32563499854412,-0.783111455739821,0.828142318398714,1.77943252548816,1.54121904481471,2.44493893242034,1.85067474763839,1.48842257069787
"46",1,5226,7598.5301248881,1.48329876079342,1.52859887686656,1.61591061784414,1.53605488364866,1.46220520225898,0.633612394933435,0.547250379034868,0.729544104544235,0.644597053345259,0.616385208572714,0.81899031872313,0.653847886801805,1.06668823543649,0.843136809143644,0.782766268385784,7.60354030435664,4.62811555334197,3.9875744335018,3.92841516345338,4.07958514359747,4.50196254551242,0.776294391590571,0.174462873693944,0.0737778850728995,-0.906206315983947,0.974311931955694,-0.908087538400501,0.841146371804486,-0.991179855799131,1.13020504885331,-0.463495429646031,1.5398828712188,-0.956727760741845,0.946396415232724,1.67074514216221,1.42751705907519,2.13782379161862,1.71087967893293,1.61272303092261
"47",1,5231,7739.6574093955,1.56590643277569,1.54639927841466,1.55640356733863,1.58643352340963,1.44434869362708,0.660263532295433,0.517154393475317,0.723457622249168,0.624085756541055,0.523920126769044,0.879139337258239,0.604228473511321,1.04792920936243,0.798721548470166,0.615097652045983,8.1872016298482,4.51245440639394,3.63851435139161,3.6726994527825,4.35558083219603,4.92237032597106,0.756855956831794,0.213265016081701,0.0498683017804151,-0.836924735691398,1.0908771287241,-0.867972589305823,0.990701202217106,-0.879433419968657,1.14849283685421,-0.433257011583671,1.40172791500947,-0.944375435269669,0.996675168491824,1.77288597431486,1.36509204820182,2.09815562783496,1.63795611199058,1.37834512155248
"48",1,5236,7679.87057625246,1.55766392040211,1.56370240373908,1.61222075580992,1.54128339984095,1.47263687759479,0.735224502962064,0.524402026636022,0.747918963738748,0.594956017430617,0.53997902402508,1.08468401650271,0.615877878391032,1.12674025395412,0.740217610829761,0.641550236460292,9.8633548019023,3.91396418122895,3.83821733550982,4.45580722832587,3.85161881035947,4.40009209978351,0.779893444264847,0.164851553349856,0.0331839252727423,-1.05470911355309,0.898276445925103,-0.72826874943355,0.971276574830399,-0.908910492540346,0.895885239128392,-0.480068412237245,1.33010433871947,-0.957975852252144,1.00461276499357,2.17653941565645,1.37930556109144,2.26954359988059,1.54792211138252,1.41158670590226
"49",1,5241,7785.09056861296,1.52325492416953,1.5188948347572,1.63959915661675,1.58477675540458,1.4868126538783,0.66612470112779,0.545169496219117,0.720863190925359,0.671135812517327,0.548432459670442,0.893119644548167,0.650307395683253,1.04009048303901,0.905307773516316,0.655866818294192,9.45224252617489,4.25150184420653,4.02940471140725,3.97625646760286,4.1381763020196,4.73748694873163,0.774556162584449,0.22054338796334,0.0774154275034999,-0.805557421739313,0.962416969545189,-0.720536829524318,1.08563033040416,-0.893344315730182,1.01141705230287,-0.293128614637399,1.39617006184489,-0.873881818563575,0.953237773568052,1.79766269947784,1.42289970888034,2.08178821290832,1.81958216478907,1.43016128333935
"50",1,5246,7633.4612516358,1.58933731840623,1.57001472089391,1.63690543150637,1.63472379107002,1.47682238172874,0.641315529295703,0.50263257722749,0.74929127066163,0.669118081507534,0.551120047996035,0.835832838694943,0.581414107282326,1.1314487336485,0.900373527264001,0.660478065721108,9.2547754747692,3.57989686557629,3.96568935249148,4.53278708047679,3.81338297005518,5.11884828578897,0.771568280642221,0.221945431289141,0.0494231625982092,-0.836043463604499,1.02125117703295,-0.831110404667777,0.904735644489265,-0.884215778599921,1.04985121335545,-0.440162857210263,1.46089321000649,-1.01957326086341,0.898459346795853,1.69861653424085,1.3380423641469,2.28017623687479,1.81067248859782,1.4362312752987
"51",1,5251,7764.64766815001,1.56976959154132,1.55645966822194,1.70528967421657,1.60104828812977,1.52831517490731,0.636459292741194,0.54393310929373,0.752869001802705,0.661705202193088,0.631169607696768,0.825166341223171,0.648211874443951,1.14388159949813,0.882551179196234,0.813735321487327,11.5443691156174,3.41287956989881,3.91255059814818,3.883759791026,4.98102831790167,5.0070207858757,0.788195560971154,0.244112996370452,0.0859889020248243,-0.729682154903941,1.14501266760762,-0.689663729823335,1.06031736514218,-0.826065988063564,0.987738254145001,-0.375170102469686,1.43204639400223,-0.773442103541533,1.0896305215565,1.68089949068763,1.42017863417014,2.30846511367039,1.77889658390066,1.66216517343608
"52",1,5256,7599.46693139545,1.6037105539916,1.57636917008134,1.74345231845029,1.66268141978886,1.58211819847697,0.644246253186536,0.571763864551855,0.764778243724832,0.639285448049673,0.692882699838149,0.84235222939607,0.696917546368203,1.18700270870374,0.831353434806005,0.960935291787928,10.4897290595333,3.60835004082833,3.64183187516383,4.74784106158246,4.2970166249471,4.62722943127038,0.803284328793313,0.270095283010057,0.0681256906685036,-0.922559444501671,1.0670096055381,-0.802419070114533,1.05840735607757,-0.759595383208671,1.09532779121132,-0.333540190482046,1.37899031370153,-1.01974191372913,1.01257493984778,1.70955727836853,1.48569406643588,2.40897543047002,1.69114853356374,1.92339663500355
"53",1,5261,7721.29854675695,1.62278412176308,1.59727749422749,1.64015384529601,1.55779032030448,1.59539874637293,0.672463574197947,0.619786700286054,0.758177049425712,0.556053499571494,0.746105228631342,0.908574676119054,0.789768278719965,1.16276131029108,0.669019840795615,1.12056743824233,11.8794661578263,3.35955016967767,4.00813327789542,3.92130495866762,4.08294972697873,4.56546517732255,0.812234301013987,0.240481648510133,0.0628324397283416,-0.781001422856129,0.863229320629593,-0.734947675120972,0.929165951986743,-0.682744869590739,1.29345594525808,-0.550822113624031,1.19298532895735,-0.981277610821062,1.0288623241884,1.82550794208484,1.6237339340723,2.35201386470982,1.44758754737819,2.25567138364898
"54",1,5266,7749.90675126007,1.57876776137232,1.61423021933843,1.71606237167821,1.61423831643662,1.66643659998284,0.635993888295172,0.627613058823841,0.749743734684968,0.61202277932718,0.741594651883396,0.824152852269158,0.806156142064427,1.13300843240731,0.773889377885132,1.10545813262664,10.8727523467099,3.72176633437086,4.34364649600674,4.43675027134658,4.56926874240234,4.66029127150671,0.811706846060396,0.278401975789525,0.0589792710410049,-0.838931483452682,0.94437834634408,-0.691992295657771,1.12004546428238,-0.906571251901697,1.11116669359027,-0.590087509719403,1.24902193638711,-1.04767546360891,1.07981688634666,1.67922792390339,1.6498877253882,2.28370810790608,1.59890476920344,2.22203768299037
"55",1,5271,7695.64161775771,1.61637236422625,1.66538299216085,1.778797126313,1.64460518889744,1.66978184332882,0.615812566059148,0.638114014055999,0.750126029696274,0.626061765145309,0.737160227859391,0.781594470390604,0.828782051139246,1.13432907792101,0.802876461373286,1.0909288218343,11.7400682611931,4.010982733828,3.78653660821341,3.64540193225212,4.39241881578134,4.58301902118583,0.811433063821796,0.353531963586607,0.0814093282009523,-0.955210622608596,0.888065171480108,-0.786857877757627,1.0812846817756,-0.597881637069217,1.12624353410945,-0.595563959820212,1.32702382070077,-0.901882605074359,1.16393002880168,1.61088991614517,1.68687968829058,2.28670245701713,1.64461061222729,2.19012569430877
"56",1,5276,7672.77461474379,1.61214955176931,1.68639866479502,1.8548491573163,1.67751753540554,1.69543190419708,0.589677130594126,0.620015166069473,0.773106299043073,0.567983339333652,0.736676008428795,0.730124564363529,0.790241150390976,1.21887903148886,0.690104130843402,1.08936121561324,12.4005497188266,3.56016912649701,3.96971241875497,5.00838736501111,4.37569457901402,4.72019851479302,0.803294741493967,0.409411233402454,0.106642532412581,-0.742145448214163,1.01975964506762,-0.645252378060427,0.882583717632011,-0.700417236851104,1.2143868431754,-0.38892634286951,1.21307229945883,-0.976667273322188,1.38650946735651,1.53308187948703,1.62448107577125,2.48566609340322,1.47624371140713,2.18670785808236
"57",1,5281,7785.73422432556,1.60916292735014,1.73523725129232,1.74229830639632,1.64097381642778,1.61433677119086,0.599851143570837,0.684850719356504,0.760110080104933,0.638071093277298,0.703131611888968,0.749709325627023,0.939846746522423,1.16977026371566,0.828688021740125,0.988850281479749,13.6353847218223,3.68899731139743,4.14096852776178,3.76403687878858,3.49119331558594,4.80409784351519,0.813940077188943,0.364095828216123,0.0913426331461993,-1.0258135538017,1.03420692981726,-0.860135765817452,1.01570445688227,-0.781057307403514,0.884811559944857,-0.503563055223079,1.12448564654384,-1.06778470286476,1.02795898878673,1.56206407293213,1.88331190694878,2.36836246987341,1.68672383737556,1.97782487918258
"58",1,5286,7735.97527165596,1.59242221658538,1.721650286266,1.71888060719433,1.58565911803903,1.63609969493391,0.596866357226983,0.688546848313024,0.722175572695584,0.558476788718984,0.710572456411782,0.743906396794715,0.949468525172006,1.04404415931462,0.673252831595193,1.00987518894637,12.0328385086766,3.7136281663729,3.15261089269224,4.35708882537872,4.54771396769812,4.44315464867555,0.796261286042283,0.365603356759699,0.0866679782644997,-0.874845036630899,0.776349383036858,-1.02008300986387,1.19186966109618,-0.925027373708633,0.96313712368881,-0.49826154283385,1.00343133646629,-1.12369592865016,1.03060494656208,1.5533967271921,1.9014904802923,2.09002820659897,1.45326937525095,2.01984789724946
"59",1,5291,7746.99931809809,1.60005863263249,1.68285181887968,1.74599441998772,1.61320255897847,1.67825616032973,0.602726861742503,0.674760838949148,0.718041634347552,0.574032295498669,0.74550117987152,0.755346443452625,0.91426491681459,1.03166878981632,0.701037372007184,1.11852417517866,12.8725491523906,4.13393894684533,3.33690266948965,3.95805874286446,3.83826963414743,4.16983674268502,0.803443741532971,0.344051691985063,0.0622408814715043,-1.04089554225234,0.856103307844705,-0.910944710859284,0.980253891129832,-0.783749769611072,1.04138860246013,-0.45148552720724,1.03362696950352,-0.960937424974199,1.03928842806634,1.57054824963653,1.83588033811799,2.06434049188108,1.49145339695074,2.25109633045911
"60",1,5296,7705.6575617674,1.60785435376499,1.65986207037073,1.75323811367606,1.5790418154787,1.63967465469548,0.629400840037277,0.660843333314399,0.740175270418861,0.535807642417347,0.733493013851208,0.809955455533049,0.880509407136595,1.10077316270483,0.634587478726999,1.07914706746111,11.849977424926,4.14044851690808,4.14522979117315,3.65889010176387,3.72670935661589,5.44127379870502,0.802330740930322,0.338144197256029,0.0752264427415744,-1.08776471900276,0.96757221934633,-0.794361997942158,0.966569581049023,-0.867114564324982,0.907632341392173,-0.653841006550603,1.03850260005049,-1.07930642446894,1.21845147832541,1.65602783994775,1.77529681605604,2.21170155573119,1.40270126815709,2.16455839320991
"61",1,5301,7650.39651938074,1.65963070135061,1.72289872332884,1.81043381941229,1.59247841947534,1.74050736932559,0.637935598679263,0.658220508158986,0.748046195695007,0.52561247798483,0.739792996762982,0.828391270203129,0.874333801870271,1.1271754097042,0.617841280828296,1.09951696849666,14.5613575108977,3.88108333475383,3.56892025008271,4.45373423151333,4.13819069823721,4.79401412631885,0.805277463401266,0.396612662051688,0.102594737300521,-0.91799238214513,0.907152186759411,-0.817386382823755,1.02985460225455,-0.769737121006877,1.18444762013805,-0.607724298745608,1.1076488410218,-1.11334954875294,1.19037741672065,1.68623209654875,1.76445959709292,2.27052440424183,1.38172784829555,2.20893756401209
"62",1,5306,7613.0541287857,1.61250422253407,1.70054778973166,1.80425077657031,1.62467262191019,1.69933801397825,0.616398793233103,0.635896969832365,0.746815076357687,0.559307860261577,0.722130325561796,0.782794090957146,0.823941987720944,1.12297655743309,0.674710294431757,1.04390745733351,14.8415017145905,3.85905525168175,3.78884618383952,4.36027596297483,3.7527376714745,5.43064767549189,0.798286591764764,0.461356323130953,0.111284953709571,-0.924510913269438,0.893721887958174,-0.72946325929994,1.10168507727004,-0.742914993068596,1.08217393576033,-0.584550344872015,1.00183748297023,-1.07120471082508,1.26266385795573,1.61276658883742,1.67888039912954,2.26107634854428,1.45523398141219,2.08974277947652
"63",1,5311,7709.85997015994,1.59764950356468,1.68365419368562,1.85717120036571,1.66176769881423,1.6934976677289,0.586388430691848,0.561910486385743,0.76375083824213,0.543225138547097,0.738850052349147,0.723909518613564,0.679293779682971,1.18317216822727,0.64701465479004,1.09642838551343,13.3497216825562,4.2535320406725,4.00870838928641,3.69355711420153,4.088672065915,4.64794432253794,0.789449998905122,0.46495680383262,0.0512119136663683,-0.755356179065102,0.857436019777603,-0.792734092188743,0.96833473180017,-0.835186589561195,0.948012651231843,-0.607700159740712,1.06159653130045,-1.04422105729339,1.1553469949014,1.52404499113932,1.46144003911598,2.39989637966762,1.41862796351308,2.20215520455959
"64",1,5316,7740.5368108028,1.63777884711224,1.68771794750734,1.75755861456307,1.66851606071918,1.67292559109285,0.573046203275778,0.583230511945678,0.726150687872875,0.595578881352762,0.669534038968384,0.699243535598741,0.717992987284446,1.05616451767542,0.741418190104048,0.901387759219875,13.8340659071416,4.02263416305477,3.76823588591492,4.45194993977874,4.16207477139945,4.22822613850701,0.772138561458489,0.413783472249112,0.0840182793301524,-0.932102338114509,0.942309336934792,-0.843668967419721,0.930563023622394,-0.753804264205011,0.842841523281011,-0.416741589216354,1.0950135386628,-1.01181379501736,1.22830501914689,1.48894152207663,1.51551392978964,2.11548348839656,1.54970093261716,1.81249989247143
"65",1,5321,7821.13860809316,1.65513471171591,1.71133851818202,1.77619157684055,1.6478858359285,1.67194889237755,0.619774095312525,0.588651519155863,0.714965130914698,0.534985897662201,0.698027627546994,0.789742198816775,0.728180423440351,1.02260572236365,0.633223577800504,0.974802491504511,13.4395112756725,3.69198419306661,3.69695465425374,4.72962818228549,3.43753473967482,5.08637339459226,0.774881287617813,0.455456513024167,0.0718343560169524,-0.917278885376099,0.836625512972601,-0.86485881140186,0.826820219204746,-0.975820767591151,1.02502106004808,-0.552740942099847,1.07707363335636,-0.993680313606815,1.00414276560519,1.62369274059195,1.53024672908177,2.04572246341088,1.40097209948247,1.9502398974434
"66",1,5326,7802.04307168388,1.70689504306979,1.73766066902105,1.74783448681744,1.61437993486115,1.70854499755681,0.630010672830414,0.620404745500145,0.662355075120319,0.481596441135594,0.703459562780471,0.811256303903636,0.791048243733815,0.884094845210436,0.54952103166839,0.989763107148517,12.9544264493226,4.30117535074613,4.24163623962894,4.35346805527621,3.86126951151299,5.18829105736216,0.764219096279254,0.491059249827775,0.069491827310272,-0.832178311605639,0.94937197374037,-0.766957206020839,0.956372446203813,-0.69960178619024,0.882916054157254,-0.472120732535038,0.970431304599374,-1.02869821059542,1.0103574378636,1.65813679062339,1.62575732391435,1.78162369532766,1.30197336424589,1.97963100827229
"67",1,5331,7778.27215868081,1.67662574831839,1.73798883402998,1.75292674846477,1.64350549873703,1.59012675419379,0.644264099713353,0.660393116089001,0.700481703660945,0.509224630974733,0.630833667410496,0.842392121964464,0.879445301541214,0.981519960555024,0.591685710237011,0.81301579981778,12.9959216278287,3.93156608469848,3.89559109343692,4.48968866492757,4.09310846355377,4.72791292692346,0.771440564948014,0.451910374870609,0.0304849423842084,-0.931979238205128,0.894543788871295,-0.828365084433536,0.914234313815912,-0.734028896992003,0.995569455674112,-0.561950664645243,0.947284038199389,-1.17150688584636,0.932940033627299,1.70962448714779,1.77342403840292,1.96338143296794,1.35009197969868,1.66099469075334
"68",1,5336,7703.43583675728,1.6600407707719,1.65402523981553,1.76405110171132,1.59677642275234,1.66699904534564,0.654327285729818,0.649055174192638,0.695238356355093,0.555040542966531,0.65554543381266,0.865270235449201,0.853187730397739,0.967248768656318,0.667257752551089,0.868093034813401,13.6558495929953,3.77805129081024,3.78456676731582,4.34225038658512,4.22621276158728,4.24496559422505,0.780868281064928,0.445478228765131,0.0736675800790662,-1.17112740478568,0.832884461107596,-1.08160848208154,0.815385722483444,-0.950188192822869,0.962158058784569,-0.629409829272008,0.997952215886307,-1.10342807960946,0.875286732814959,1.74869258035431,1.72792930330125,1.93557018046716,1.44523290833953,1.75358551709154
"69",1,5341,7812.22442070881,1.68818122332099,1.68626237734751,1.75019286235577,1.61642593157906,1.61721202758786,0.645597354964358,0.564039002176206,0.64905901240964,0.497703575879023,0.622806241785658,0.845379037904854,0.683064204868683,0.853196448486448,0.573822779126555,0.796044549304301,13.5447448352899,3.90499754365844,3.96988651835347,3.85462349064998,3.54593615415077,4.17422814274811,0.737860378603616,0.436304225570508,0.0303110883304045,-1.06192587242468,0.960192383853915,-0.881722360525697,1.00326489906486,-0.938174400707538,1.08732163722399,-0.539049520257204,0.958268745172594,-1.11742785670486,1.05481924612494,1.71466571772894,1.46657670797289,1.72794417970989,1.32927258184452,1.63368692447709
"70",1,5346,7713.13789454032,1.63547313396114,1.6723462499965,1.75522622146184,1.58736658278518,1.61499766407418,0.624801344267965,0.600857951811953,0.700359833597997,0.464251800579553,0.572650731975764,0.800223283465018,0.751677712520986,0.981184767593734,0.524161783392297,0.698525391267552,12.3786186065901,3.76804036402987,4.24503324957415,4.07378012591643,4.40717035013458,4.43942968160783,0.738299780494098,0.420464042531208,0.0604920629413607,-1.008868641994,0.98885306481087,-1.0061319015417,1.13276033778075,-0.728339398554349,1.02997351465035,-0.310386972214391,1.12991956822038,-1.02176069495593,0.889436797295175,1.64035730339953,1.56501938350078,1.96272354815797,1.27474557516899,1.48793772224549
"71",1,5351,7791.03735794174,1.59256929279313,1.59037226776539,1.70821456020006,1.58335204911366,1.55940880155572,0.625111138626718,0.574396519886703,0.728521032720874,0.492770170662516,0.605287608030942,0.800874444076081,0.701701094892593,1.06349797211712,0.566298672295151,0.760405020400997,12.6446712499395,4.45342713088032,4.15249574707522,4.28797902476698,3.93875151935835,4.47580509525049,0.751906774547258,0.353719446341529,0.0690613644920229,-0.972009717179436,0.775685530707996,-0.670554719300974,1.17627762665538,-0.64960812929257,0.83664830371846,-0.399763394695322,1.20905769167575,-0.996247303021589,0.96534920688982,1.64139987517417,1.49238442657346,2.13102793669723,1.32069418624325,1.57821579505104
"72",1,5356,7791.08111739006,1.55589034562876,1.63212830397462,1.66921660045772,1.57319991173055,1.57231207078577,0.572435608799802,0.59499447915102,0.687017750637884,0.552688840869835,0.666426159513734,0.698135049559549,0.740291686474213,0.945471143408036,0.663183349328235,0.893846628720024,13.9523617903695,3.43228154918487,4.22226554454373,4.20824347446808,4.27684292681243,4.82468867371375,0.75646479279839,0.353740981054876,0.0862749635930905,-1.03318218628865,0.900495722357607,-0.938562843162022,1.0294045145745,-0.784783986082568,0.870619233622239,-0.397055983062411,1.15771968322001,-0.951407140130495,0.944816463745343,1.48739254742351,1.54803178106283,1.8939156830173,1.43981215482622,1.79896179567415
"73",1,5361,7767.2891650594,1.67924020516646,1.69148169440266,1.69815652391394,1.62170575178638,1.69999260304732,0.629620800469449,0.587656986862986,0.653413532483652,0.533476222095986,0.692256612673112,0.81042437192733,0.726300334964492,0.863160543727534,0.630724428494328,0.959267295391739,13.2209942768814,3.70953843953679,4.23226374361174,3.61753868250339,4.41374447651726,4.31833385105688,0.760984189913641,0.413336810821553,0.0529027775101043,-0.987075327161677,0.837746819084063,-0.939746216906932,1.05046143903757,-0.542585046155693,0.947059654689974,-0.434635610883127,1.23349243743521,-1.02369721670748,1.09599191697967,1.65678766261381,1.52751217656953,1.74504612424801,1.3978133046995,1.92019374400818
"74",1,5366,7806.9689241843,1.70025452297537,1.68023774026459,1.68612571102839,1.63148159163465,1.67392216367151,0.657836868723791,0.626318073719617,0.616596094028147,0.518776132279016,0.684383006194437,0.873435234304125,0.803417252739607,0.78319830734896,0.606819496146446,0.938639015300127,12.9799171762372,3.7503785829583,4.05615449360141,3.73329898377561,4.33941873152595,4.91277531409813,0.762403768289616,0.396944730429434,0.0827875846153978,-1.04292004750365,0.974947916639097,-0.782467057153092,1.21713779339512,-0.758134997764499,1.03762105998215,-0.306758433491599,1.15310583279567,-0.915081869688012,1.11770874859061,1.7628891085239,1.64547928199966,1.61339958863428,1.36822990090343,1.88104320104359
"75",1,5371,7706.84603183085,1.66930393108207,1.68074227576029,1.70191302581723,1.6259726657546,1.68063835013655,0.672320579093961,0.636559529324271,0.665907126409459,0.542408506398933,0.705014460583446,0.908222076019108,0.825384819740754,0.892595439650918,0.645636113685709,0.994108135991236,12.3214244733493,3.83225973786648,4.01621210001993,3.65978619884304,4.46533113774757,3.88400565152678,0.784466967730777,0.398611822578352,0.0679133418677277,-1.03073508212296,0.822141185176663,-0.867617991591543,1.27184855682395,-0.785186757687837,1.04047788431764,-0.322637067338516,1.13305143017703,-1.0337901662499,1.13642922329152,1.82486733936846,1.68126010065848,1.79672661888562,1.41684599129519,1.98825098604397
"76",1,5376,7654.87059402409,1.73197470303445,1.68115682128467,1.7867571228322,1.63823993067822,1.67329124535019,0.670281236624221,0.612216457889683,0.688646961507302,0.574494309692726,0.656042560444531,0.903213520066996,0.774281064698245,0.949731078757597,0.70187940224985,0.869248428596091,11.2146366120531,3.75107714362535,4.11573404753368,4.28911974920813,4.1425138721578,4.06391912724163,0.779016972648837,0.399587039081012,0.0574873876604499,-1.21273915793724,0.833519624868243,-0.762224272644686,1.06910412380026,-0.815108753872331,1.05558365653603,-0.526271182572553,1.23065125455718,-1.06813658961269,1.03853780984777,1.81579466283181,1.59951116715025,1.90198912195807,1.49263469530261,1.75559283061677
"77",1,5381,7759.6351866309,1.67707846285183,1.62978249745165,1.7477063024144,1.60717519362523,1.6408052805073,0.66198048487581,0.561136211047569,0.70470197264994,0.519568185677732,0.677312617991607,0.883204634860236,0.677927142755555,0.993232638575851,0.608088198355011,0.920642813736343,12.0619441981035,4.19432147503806,3.767471738665,4.08203037211897,4.28965507747992,5.00001070078477,0.769284028519863,0.398361844688643,0.0669360484098198,-1.05398589859881,0.996974262712847,-0.662891619849633,1.13919028999528,-0.70904937275912,1.08719596159825,-0.424006724726124,1.15604973595452,-1.07580211478385,1.03334937767785,1.7800504270386,1.45958521088471,1.98651107433235,1.36977125697864,1.84758319048437
"78",1,5386,7728.55338408315,1.63869135555176,1.68098871156773,1.7582545733068,1.61452210006478,1.62770472149863,0.691546386283457,0.615458566282229,0.72043400014928,0.571464892214722,0.680277460512543,0.957380172821072,0.780871079337085,1.03880257175655,0.696376343969949,0.928130306480688,11.2972770770635,3.94472413229458,4.07594640773031,4.76949294239907,4.51313384711609,4.55982451486704,0.794861145404769,0.319848905804709,0.0775757334824537,-0.923518195987337,0.972355149725349,-0.744375770352925,1.20856826205436,-0.6510537920345,1.15939505808523,-0.28160594654123,1.12041189716294,-0.8420348224096,1.20452076816007,1.91657679531091,1.60975964254506,2.07911078308802,1.48494001244095,1.86142586580794
"79",1,5391,7771.93069038158,1.72928794716801,1.65654757819713,1.736961498901,1.61796987666779,1.65479283598954,0.735413992410177,0.637569415461839,0.694371329434212,0.582725786422679,0.70359558118745,1.08529275734898,0.82758992803175,0.9649180651573,0.717051954520861,0.990142070733407,14.8530711543034,3.92452655400782,3.62758662611005,3.77449938292825,4.56973349993104,4.66581136053848,0.807856199658842,0.357289195328898,0.0797603445259343,-1.04074792578305,1.08748496063208,-0.708642841389028,1.06282875345576,-0.811223615823101,1.14802479363981,-0.585067347085103,1.06436477814346,-0.777342900617334,1.30216201496467,2.17786036915416,1.6849050889796,1.93106687246691,1.51416350548219,1.98038132023624
"80",1,5396,7679.17051247673,1.69229724644983,1.70145716370742,1.7617847340909,1.70397514773693,1.64742967597354,0.719984520261137,0.61412425876933,0.68073053824917,0.621401944489051,0.706149995681442,1.03745643716956,0.778151273061015,0.929281942839764,0.79311848798138,0.997299279733443,10.9170419022905,4.08097512231561,4.38861895307683,3.69090112905506,4.52930053172001,4.83678092548244,0.80445080451173,0.388625354521179,0.077911064169126,-1.02275005735081,0.965384264171336,-0.540398624566944,1.08850753232528,-0.5877042575307,1.07970795504816,-0.317771475677354,1.268015645313,-0.974136648672634,1.29407408655772,2.07631585902456,1.60551940376648,1.86356492928805,1.62903693597787,1.99460585335684
"81",1,5401,7697.37302877939,1.72045918135637,1.645507498548,1.73953508482743,1.70448015323695,1.65008389677098,0.729311171814518,0.58075785412812,0.722255410734157,0.669157516726266,0.680203401777067,1.06596053637212,0.71339481757889,1.0442854366863,0.900469616609435,0.927942251939823,11.0863238879276,4.49075299219794,3.87436682755478,3.93195856784589,4.32871570773915,4.85568225858226,0.812323541506601,0.382263184184975,0.0309771406132517,-0.975821755227627,0.960035449830155,-0.685624065181682,1.05430419415584,-0.602949341208555,1.08322862275073,-0.483013359858549,1.17914786406551,-0.906421890131198,1.27889631760596,2.13627186510275,1.50893216574842,2.0905320732751,1.81084553043674,1.86107682293515
"82",1,5406,7685.27689419591,1.71323700810904,1.62358798261446,1.71700495651992,1.65032248859994,1.57791320834662,0.73375491531805,0.573183334838112,0.680147425437911,0.611960264993085,0.681405387106834,1.0799816377257,0.699492725318714,0.927800148436245,0.773762999250701,0.931000965630627,10.8108962872441,4.55955510397937,4.31336026236157,4.32640926047599,3.76922192151214,4.19696531350681,0.795635456057095,0.39323859778392,0.0050208839954165,-0.902906353949377,1.07648011686432,-0.653278796821056,1.0814415810079,-0.687469744183622,1.0496277071193,-0.508339612341286,1.13573917076289,-0.925843746733046,1.29031991414467,2.16636033782469,1.4892900727738,1.86081311543832,1.59870917900944,1.86676279800516
"83",1,5411,7807.60884871377,1.67573483376721,1.66061695696093,1.71129953514767,1.63007459009599,1.63972950386042,0.719645856323566,0.593937842508434,0.678376050129298,0.559841605100725,0.686557997044885,1.03644397342164,0.738259505371866,0.923318802082525,0.675647891276457,0.944273915880765,14.0306866249214,4.74908004330572,3.93328211732038,3.36178369909251,4.05761817836301,4.63388965753374,0.788535593801822,0.345610609691437,0.00157327455994213,-1.21723442101775,0.881029343253502,-0.677513169555495,1.01675006874921,-0.572308097852981,1.12582890736083,-0.430739841862935,1.05722845113319,-0.856072889489979,1.29080674766488,2.07421611004204,1.54502709727191,1.85251761027911,1.45650007298632,1.89165322821279
"84",1,5416,7727.97177483843,1.68229716262481,1.67761635940584,1.71146287407479,1.63948035872484,1.64958634866904,0.734417692796073,0.605544272683423,0.687784694964769,0.570307095310904,0.704650539904186,1.08209829709984,0.760914087961279,0.947473104899904,0.694284367880447,0.993088649582447,10.9886000685017,3.69670571745208,4.02404367288988,4.02139380948722,4.36256943190903,4.56954554158834,0.800408896804431,0.391979253817916,0.0427812013266951,-1.09060805829779,0.855959556572186,-0.842517949752441,1.02680884275121,-0.703033738449002,1.06821851344926,-0.505102862401293,0.977341320761184,-0.881671425826368,1.12608413957528,2.17093672458637,1.57899024925795,1.89770528450866,1.48203078348315,1.98622506592949
"85",1,5421,7771.37480755652,1.67216696308853,1.6880871314288,1.70171235471879,1.60423498410492,1.64397805087394,0.712699894107327,0.664547149639941,0.682249606619989,0.550532774291052,0.696848445934147,1.01601042887165,0.88932808108435,0.933157665105333,0.659467942068978,0.97159866379979,10.781594136787,4.20475422567902,3.61124231221944,4.20285373515952,4.17925288569912,4.29510389980171,0.79981576205951,0.415449658163167,0.0905759737073401,-0.872887913140057,0.928228750773021,-0.859907867774868,1.05677075286558,-0.73342973239669,0.954285483888291,-0.558589032265359,1.18847477141632,-0.744098459343943,1.16453216823373,2.03227719157596,1.79090443580517,1.87078322794484,1.43489796661669,1.94400396349754
"86",1,5426,7788.49884478283,1.71017497743403,1.64445013608127,1.64633893010958,1.61037793158529,1.60719579666424,0.74414463400874,0.621157792631199,0.676276828895592,0.571151457651551,0.660980833568644,1.1139580633514,0.792611035380139,0.918046636217329,0.695809404028068,0.88083473036406,12.2467381469836,4.13354797983016,4.10180271295537,3.61227165702486,4.48828755408718,4.66123247651402,0.794838871771016,0.368913890171477,0.0841208549730735,-0.914158275477727,0.978980424170687,-0.883450693569799,1.02845477464296,-0.633717459699592,0.741969590331495,-0.482504596692275,1.17273609961507,-0.86221157172217,1.33382018640909,2.24090256690561,1.62823225340638,1.84280962626995,1.48415072673389,1.77586982221553
"87",1,5431,7776.27719332965,1.6304746922086,1.58189701157138,1.67448583449183,1.59495999073293,1.56939951053595,0.689291616679462,0.57677644193021,0.593012451838262,0.558462133862568,0.64198478068178,0.951424208230622,0.706053378103329,0.736484593517186,0.673227157626803,0.837316066013368,11.8718602535613,4.39230458159565,4.26334169604795,4.0692452787299,3.76076197392065,5.03412328925989,0.753027420087985,0.377872068964267,0.089474911960177,-0.986980188502546,0.83137627600312,-1.04872751811633,0.924262999073398,-0.6148799559311,1.03187982022243,-0.48382768165537,1.06997077425741,-0.849368391073497,0.784176002994769,1.90520802400727,1.49851137273112,1.54240955648817,1.45323480576626,1.7010981944041
"88",1,5436,7877.77621591358,1.62745781112427,1.62348809043311,1.57690520814713,1.60679310281891,1.55237558492697,0.636207309416537,0.543671251731571,0.563255293595089,0.590983665190133,0.645747609073497,0.824617421453563,0.647768829429285,0.681673644330419,0.73260906885512,0.845716483632247,12.7019413004149,3.57442348028529,3.55353346789468,4.14585168257028,3.88636499675977,4.78092476452519,0.735878773553634,0.38185663204331,0.0840435076067926,-0.949132549357896,0.98742975723672,-1.04630218557615,0.880784492418187,-0.563312265828407,0.816802635188382,-0.482690998356804,0.996378955618092,-1.14021802429276,1.00808101365574,1.67999389176472,1.41960445638019,1.46467895737471,1.53671604776877,1.71523637068729
"89",1,5441,7792.34448853258,1.64989708709724,1.62952103292944,1.64416767047826,1.61976412039384,1.61138929006988,0.647351271409955,0.559285646057972,0.58805581228159,0.565320152703889,0.62147428157786,0.849328576077907,0.674671298597924,0.727053678734462,0.685343228941627,0.793268907824442,12.4001133433115,4.16191939599941,4.14310928492983,4.15652513932573,3.92982545856874,4.56332679516457,0.735595314158317,0.382942958938105,0.0780056162568146,-0.751858619337707,0.856088479250448,-0.881888255570109,0.92041388769054,-0.722335128971395,1.08772974332915,-0.412576322423124,1.07828301383758,-0.985249939424156,1.14684772045224,1.72135903014253,1.45518136115181,1.52860705176131,1.46969534145614,1.62927556012098
"90",1,5446,7681.59518488737,1.58587405113418,1.61811611356242,1.61389647189381,1.58499132364992,1.56885255651292,0.628597686319852,0.567237917955217,0.62902742872868,0.563767827012891,0.640222921294924,0.808246009355577,0.688768359321414,0.809160147241293,0.682582743984836,0.833418304755095,11.3891632772281,3.98676373210822,3.75524147309117,4.17086829914769,4.50631995949522,4.98036798083017,0.745015382814129,0.34849314072541,0.0671958818826821,-0.974478365396833,0.964289036498739,-0.893702702043251,0.910236342304641,-0.695679699871473,1.151193818768,-0.392929382570656,1.15265026009022,-0.880977789905624,1.02356899664232,1.65326161163922,1.47440185280231,1.65474014388355,1.46591920238587,1.69458607070086
"91",1,5451,7748.02232276959,1.59629208621023,1.63057741572232,1.63883310788152,1.62310137161769,1.58548166874866,0.622655589813464,0.541869799802075,0.568901948399252,0.590385524072564,0.572345266583468,0.795730043809429,0.644728153601601,0.691753698786258,0.731470549234791,0.697971187262234,11.9839668847841,4.4952571979302,4.18826487486388,4.22326013017507,3.83198772491422,4.34192484762682,0.717280546900977,0.313270475532247,0.0945304149404324,-0.868566553215858,0.834365504880638,-1.03683470932081,1.05456035671142,-0.75910472361015,0.769442511616037,-0.466883106830048,0.977003052743287,-0.96778476676723,1.16636420566719,1.63318630262096,1.41567439204653,1.47852317978447,1.53504916439785,1.48716377824825
"92",1,5456,7772.57288247988,1.62387803808687,1.64258847197824,1.65419489354251,1.63702680248248,1.59796931439032,0.591858719705575,0.543437929087888,0.608100709779966,0.590493836611541,0.653966944394441,0.734278021005701,0.647374289787958,0.766005080448959,0.731676577177643,0.864437483150359,9.75041506894983,4.35250674833671,3.92969527833027,3.66260058191488,4.45805239411221,4.44070878114473,0.737061101281642,0.338791989304034,0.0573829351885191,-0.920307798262509,1.11774286167476,-0.995529407727428,1.11037969499251,-0.583991358183957,1.07525440273524,-0.626980953002982,1.19275349374119,-0.903574476328133,1.11414162009396,1.53916421213205,1.41909347107846,1.58676378327362,1.53535061359039,1.74725216227533
"93",1,5461,7856.66628530751,1.63406235783656,1.61058941945228,1.62823571327705,1.69254440190828,1.60802298978676,0.671041894986665,0.552006709756003,0.558651355349424,0.619590042376847,0.614917548187606,0.905077295520266,0.662005815698109,0.673558726843201,0.789361503182059,0.779766989432807,10.7342480352562,3.68499202294258,4.05318161561781,3.87979526748437,4.07994801088804,4.41997103993407,0.743778296123342,0.350672207808138,0.0760192387905983,-0.973620418040052,1.07709871082139,-0.841445078629992,0.91178887881693,-0.716463292930769,1.01815401807565,-0.377872089766934,1.15982480851573,-0.90451623989789,1.21715161571792,1.81916491086628,1.43825170001812,1.45368135850663,1.62309158270584,1.6080365578091
"94",1,5466,7706.24582152341,1.63899614057469,1.55227925019552,1.63498491096265,1.60622361107086,1.53362934763752,0.697214290526847,0.553370506935025,0.618677056631129,0.620262440255698,0.584806375888383,0.972591015042593,0.664361997324845,0.787476199945543,0.790753319132877,0.720939226384213,9.95422035616384,4.42602532710633,3.94289559293587,4.52719210848755,3.91999799875044,4.46539905418809,0.756014897543026,0.289972813949665,0.0495435305524673,-0.957480117133473,1.1145716926347,-0.98242496606103,1.02043841529447,-0.644512513084065,1.09595670685903,-0.602377769491497,0.83776848276069,-0.808623341236827,1.1442724353671,1.94593328254158,1.44137686348946,1.62011876548067,1.62529081171966,1.51975336813947
"95",1,5471,7727.58694462297,1.59851349992288,1.55866783689612,1.62420912763762,1.59492715642315,1.5529933565534,0.722372886140639,0.595533059222007,0.64834140451066,0.641416119763892,0.629022679788929,1.04464061609834,0.74132979675829,0.851568434780872,0.836055564862875,0.809150038708039,9.88609668627955,3.9807055474503,3.67017650775902,4.14346007516205,4.53446634863582,4.3989159706874,0.785792930625159,0.273511954257627,0.0481487903526398,-1.03588049211356,0.858305880797439,-0.803639633205879,1.00297913467686,-0.952058546685644,1.00209215700402,-0.584686023403233,0.994452560831718,-0.869371139896745,0.860467349809981,2.09127401680231,1.54956986756169,1.72516879911514,1.69898890753818,1.65472378514122
"96",1,5476,7741.52793731961,1.56128404971881,1.55782691410427,1.58261217240577,1.58349368379538,1.52696139346175,0.697096531488356,0.574158623918295,0.610885859901935,0.63179148882352,0.626724311993741,0.972271433188478,0.701267508803714,0.771594603426458,0.815069285313289,0.804275262773765,10.7457156873469,3.77912968341498,3.95282512401213,3.6031750290297,4.21888605912301,4.87341970417673,0.76765780009014,0.228465659171794,0.0911386564275506,-0.944678143568922,0.993805368662164,-0.901616266710492,1.11747353370058,-0.725807887871693,1.05070256572042,-0.470154186457354,1.23236105356189,-1.13336754586882,1.02966226694049,1.94531173979438,1.49177611890377,1.59535823203683,1.66433793986111,1.64685869830981
"97",1,5481,7673.34672248426,1.54404198016566,1.52550259722852,1.58938707845934,1.56391175020331,1.5017118144146,0.695849939411282,0.568607093339768,0.702822186127691,0.717504720573536,0.673158141734545,0.968897711209475,0.69122380443549,0.987990163449739,1.03007819854697,0.910290000040298,10.6239314403271,3.9087029507376,3.39117571991648,4.14049941767796,4.48135752798908,4.31747293937942,0.808091975255274,0.210292548350336,0.0795944158827099,-0.821829257309912,1.06167852317494,-0.960800067205053,1.10321932705568,-0.988966010485036,0.893039742690432,-0.52959003110857,1.12141639067277,-0.988721097565698,0.918250017251699,1.93876277478696,1.47779034781827,1.97612456307344,2.06106109512178,1.82862788417337
"98",1,5486,7599.60005380619,1.58237005339265,1.58033803867552,1.57997964418316,1.55565741143654,1.47601092429378,0.728854823373911,0.534523802190945,0.697132494720059,0.698927665144317,0.657542163907406,1.06453716384564,0.63245771591343,0.972369016217478,0.977258286564906,0.872745785238996,9.15792666524024,4.01491163177645,3.77808867071852,4.33010094435395,3.92057939339726,4.16260313187132,0.803340743829568,0.217370574023072,0.114847497833415,-1.0094129730705,0.998897215073292,-0.746189793169794,1.14282585653296,-0.812925591655133,0.992724395207768,-0.493784983266107,1.08516717540919,-0.971610257140622,0.998705152286762,2.13323937320852,1.40000276241843,1.94550150369975,1.95503375865978,1.76168520565243
"99",1,5491,7723.18631380465,1.53992331067627,1.5119162706824,1.59835653851391,1.5526897806218,1.47058204485935,0.71553125742568,0.486537280118536,0.69771773243748,0.69274500720722,0.659793462428296,1.02426425311534,0.556895568391379,0.973959016721627,0.960568098728559,0.878030608204131,9.08720648274631,4.01696880059848,4.16939083123993,3.97756203709541,3.77260408027412,4.75481585828144,0.794278928828834,0.194904633178804,0.0519302862028036,-0.896400596300043,1.01250471196195,-0.851240915728318,1.22503652545258,-1.065628413768,0.850346766320637,-0.433472007622367,1.24922685197918,-0.846935744144981,1.06764749633129,2.04911726020993,1.31013267409396,1.94859616625336,1.922691072295,1.77093774894332
"100",1,5496,7728.78698210872,1.56100211687269,1.54421815150488,1.59626849336698,1.57959401277938,1.46903011224346,0.719043534828667,0.459950205024269,0.663224377197478,0.723374980979876,0.525748225945267,1.03464707176244,0.517994194443991,0.886165291084514,1.04767809484565,0.618061792364407,11.9725754771813,3.4314782312421,3.82550249999885,3.97318871829634,4.10231897855615,4.77498106702489,0.77113878359064,0.221766843630476,0.0721199700876527,-0.872362779452346,1.13541087111802,-0.782871894028256,1.06395824345137,-0.857223101732397,1.00222243158894,-0.533329941672241,1.09201889657978,-0.771740346241551,0.986354549836573,2.07049456310659,1.26831798547768,1.7852889231229,2.0976293904194,1.3820003791807
"101",1,5501,7771.9574258588,1.56200349304855,1.52408931846798,1.56591399935544,1.56146665551399,1.41665373557412,0.740401069848555,0.490379981525142,0.620430910590104,0.74435714876431,0.495933965419959,1.10151627343719,0.562679365453601,0.791102484148813,1.1146713342514,0.571115470337417,10.2773631357698,4.41069922037386,4.25878290784767,4.19142302767532,4.05192448551942,5.24471641473983,0.774251937970151,0.23128955978447,0.0957834608959988,-1.06386885511266,1.1694666254971,-0.872133415751786,1.27294836378182,-0.86207391407777,0.992984532302392,-0.414580215060291,1.30048414121419,-0.688112212759972,1.04632771561461,2.21333810064696,1.31660806830727,1.62584314042642,2.24249218340179,1.32617288045873
"102",1,5506,7693.8653594753,1.5616470929114,1.53255434766369,1.57366667099007,1.62937353227487,1.43782921677062,0.71688302301542,0.548928983538566,0.62695718697223,0.791794170751058,0.458033913209686,1.0282411644614,0.656716529850006,0.804767601465018,1.29634858560549,0.515261586148972,10.4912964879896,4.24851581375425,4.07466276331531,4.53562869955976,4.16687828168751,4.401693393764,0.787247503034655,0.198139163330291,0.098098388709069,-0.905250154037688,1.27290372217894,-0.65493693977697,1.2141174927407,-0.874526371778741,1.15065785284075,-0.56702264458323,1.5453408068482,-0.955779876946591,1.01421383493339,2.05727989229294,1.43127660057823,1.64765089236776,2.68051965540136,1.26549450216075
"103",1,5511,7754.73594437703,1.54776080603843,1.52954955108825,1.58503548263043,1.61535042339617,1.44510699798037,0.718199597202644,0.520739574375544,0.673895306467552,0.80242060312676,0.494108507351028,1.03213747319049,0.609968454476338,0.912115342661376,1.34463116230744,0.568332607665128,11.1761078581656,3.56404803584652,3.90491743369396,3.9389075627901,3.7192201571964,4.59547323789283,0.799645309561333,0.19416609819113,0.114495499769046,-0.723411719546879,1.17153175931168,-0.641865071637337,1.20237934833882,-0.754467093991049,1.07689034026123,-0.446328767287369,1.59093919342422,-0.904402167493117,1.04791841762195,2.06530776356404,1.37206151545625,1.83195439831828,2.80803296264827,1.32300195293544
"104",1,5516,7700.27067710486,1.54825545926983,1.482206270739,1.57657000097866,1.63290863600265,1.45884422446341,0.733922930392357,0.536121009333541,0.626321558090027,0.751578834450212,0.56536025835878,1.08051758038966,0.63510825887255,0.803424607445055,1.13937162449899,0.68541468981128,10.1288192417972,4.30874033912013,4.33348272694557,3.98770408680073,4.22695879293321,4.41994251829303,0.790522551522374,0.181703466627046,0.131771728505325,-1.08717617549677,1.11574594992314,-0.610043320604332,0.98208163887771,-0.724285038334912,1.25784990780831,-0.299168105643546,1.53498145133725,-0.878972363765932,0.983718540227717,2.16751824153113,1.40336250048812,1.64549109984824,2.29816769871346,1.46979329700909
"105",1,5521,7684.71654731352,1.60799018315664,1.54076072876679,1.57249425057787,1.6292792162066,1.51265201373968,0.777531359713129,0.50251802154802,0.613608849265286,0.705704881935194,0.610572890573114,1.23644521519679,0.581236822589404,0.777103553740803,0.996046575495676,0.770964240743327,9.59817920221864,4.12327928169311,3.88946575802484,3.92261057148084,4.64142838303204,3.97585276590824,0.79188577541659,0.217865805225724,0.10045023482686,-0.800229240230026,1.10256435361098,-0.734902357565272,1.02143174576788,-0.863774386170639,1.09271908175218,-0.419828070802163,1.43370611025339,-1.00228184919393,1.09595140856797,2.52879677018305,1.33783624393383,1.60388993323659,1.99210878055666,1.59438586050493
"106",1,5526,7727.99034155377,1.63720635112015,1.55096515209433,1.59983899821218,1.62761464600679,1.5036918831977,0.767311574040853,0.54394471085813,0.615986170596173,0.706805172811098,0.588198352589858,1.19654158653356,0.648231509712951,0.78194950613787,0.9991474680303,0.727323120532419,11.3046866596691,4.21266529660909,4.00704566226345,3.98060440857983,4.22559606287983,4.10692102540815,0.791234268976979,0.253516660302122,0.113792341273785,-1.11026416921844,1.17904613650093,-0.641372729342319,0.98715104544046,-0.761261831130301,1.06710555293588,-0.382183064221896,1.53049714547546,-0.92347570785482,1.13158368239811,2.43171176830424,1.42020409018473,1.61144503014926,1.99829566287136,1.52899892166102
"107",1,5531,7855.44689466342,1.64575265121753,1.53836321398151,1.61802476485811,1.66343302794275,1.51978287751923,0.763358929706334,0.519940888111914,0.651449563739932,0.761004913311299,0.619785463082029,1.18171668940472,0.608685931281266,0.858648320816792,1.17303964608853,0.789765718880007,11.8369244101759,3.59816752205256,3.85512385393451,3.99801106391657,4.56923989258807,3.78200691367898,0.809663162131119,0.251016942983204,0.110117445219623,-0.989412464506613,1.05439471561082,-0.70166273632864,0.932743988211703,-0.765132108083298,1.03535492247412,-0.527218606765699,1.30144962846869,-0.97519620386499,1.11214996067382,2.39645433401765,1.37049856293974,1.7372769388415,2.3760220112955,1.62372989071805
"108",1,5536,7708.30256244807,1.55729054867085,1.52198197791292,1.56234109337362,1.60751074582341,1.48662161237881,0.751136735582012,0.587558591558409,0.67049963807619,0.743048822185206,0.601565798988254,1.13783313346136,0.726114599915308,0.903748119936131,1.11029214644075,0.753064957424167,11.8247576717986,3.83011808739908,3.9753962895099,4.05320031983154,4.3168042558134,4.23911747350059,0.810940148643105,0.216375909829602,0.0394137166743961,-0.900152830796112,1.08625409310666,-0.828679746176226,1.04740022504204,-0.640408331004351,1.1373048313955,-0.567320386827476,1.45358323086063,-0.935911572832222,1.11850055974524,2.2946642396025,1.52724241221017,1.81676066428809,2.232748650448,1.56710683010026
"109",1,5541,7718.73719225808,1.53497563224232,1.55564205047673,1.52982371351958,1.67269472738639,1.46307855335606,0.762782906251827,0.51684408016159,0.665318534101957,0.742883143314193,0.546314228409206,1.17958311260254,0.603733706585449,0.891179387475789,1.1097396266004,0.652252955931949,11.5107323220603,4.18365832940126,4.13078477884643,4.05539496314451,4.1335922747992,4.35555508379269,0.797426775340903,0.190646526371078,0.10394680768246,-0.907866954539734,0.941814710203929,-0.776904334210335,0.971636949314106,-0.716351399791037,0.952080719332772,-0.435751719993931,1.64322037259242,-1.05081858378408,0.867320912720609,2.3914163195371,1.36449438846741,1.79420070066172,2.23152203884721,1.42543391852196
"110",1,5546,7667.18397396052,1.57800822234017,1.5033571327798,1.50417294826068,1.59480642658677,1.47988567540346,0.734367456001406,0.54491808176019,0.516421608944459,0.783763537978608,0.5076201979133,1.08193762498992,0.649880791922806,0.603060635750658,1.26197848508484,0.589172958710269,9.34530027680957,3.84429734633089,3.54590611707917,4.32223189880505,4.05320576376447,4.17601372034186,0.77800324081686,0.199249544085013,0.0821826592626767,-0.873100076157125,0.996744257998318,-0.817796906407486,1.13507075663374,-0.661350457541274,1.0930772217383,-0.463911702430867,1.39735890437046,-0.921455716895031,0.986672606047881,2.17058902436883,1.42234504371021,1.36368213039199,2.59258969681702,1.34712477527541
"111",1,5551,7787.35231584077,1.55888314906526,1.56062264247324,1.51602984300413,1.59967675151603,1.39071834195761,0.745954312575247,0.576950651178892,0.52589946200889,0.746966620210136,0.446767018509658,1.12005636424637,0.706373016824019,0.61830753991992,1.12349199719426,0.499376123216111,9.30448488634559,3.81217927527346,4.11320683740512,3.3931492520014,4.32304396896612,4.82756256341308,0.767932017972676,0.195148708644633,0.0980600837615384,-0.901862142579581,1.19394083140943,-0.773290532565208,1.23376195635638,-0.680434321561687,0.99841623911843,-0.51108808986839,1.56179598465593,-0.946798964682486,1.00068967715345,2.25452625908879,1.49896283889707,1.38230421392182,2.26223426775955,1.24937651243835
"112",1,5556,7517.28627421366,1.58726991656374,1.60010449565102,1.59096448752001,1.67212261671818,1.46110137625649,0.74419701815258,0.572655130530045,0.59785374410386,0.794010970943,0.459652895410405,1.11413381168789,0.698533374697679,0.74582068859565,1.30614655898366,0.517569635263795,8.748259351884,4.65036597313552,4.16803820736333,4.52371281224052,4.14536236188602,4.58458349252669,0.793420121020756,0.245778469247189,0.103574875827159,-0.917978269481809,1.23453530751986,-0.754898279168441,1.19779814212607,-0.692465949530707,1.06191438418612,-0.486880328289363,1.52763877730058,-0.831047530206984,1.08788812454506,2.24129415034618,1.48794887556653,1.55624849953729,2.70601883354485,1.2678783273471
"113",1,5561,7655.2413072694,1.62274201144713,1.55258438061481,1.58417606341024,1.72516381117877,1.48176413185791,0.73427154014844,0.535216318635097,0.601372092073527,0.791696604135191,0.398247717979749,1.08163096493008,0.63360576732028,0.752685053218484,1.29592053524405,0.434162553987064,9.19908949653724,3.95903131507154,3.71406196991299,4.54777648684673,4.10356008801832,4.31568390567754,0.778988380494849,0.212340923563377,0.0894149389166198,-0.946756663888616,0.98217308535961,-0.781993859353508,0.966334234269739,-0.497174796339391,1.06614314688423,-0.554360106671846,1.73100186222619,-0.967452274865325,1.1581848965129,2.16992554429557,1.40145626838152,1.56653478933851,2.67941003366723,1.18849712328457
"114",1,5566,7810.93168897382,1.55927498007813,1.54992142789706,1.55805132704892,1.64951108366864,1.38996426746077,0.721823224621767,0.581740750319149,0.605608344517337,0.797390072958117,0.464728569465908,1.04298037423134,0.715219024492953,0.761041226214261,1.32135433910671,0.524848262133309,9.04857875565982,4.48630833926553,3.67032640573096,4.19507830801772,4.03884685190421,4.47404105544342,0.792161102940995,0.200003479478302,0.0869619111695999,-1.01516042845272,0.943550181633425,-0.769704695698642,1.20653583591131,-0.717272866983527,1.04768082419284,-0.445166292651249,1.5576257775055,-0.736616504835181,1.06494819492559,2.08780806103174,1.51153825299665,1.57918374799771,2.74597728947612,1.27546569826435
"115",1,5571,7650.03857966336,1.54280780141788,1.59919181236717,1.5518767471403,1.66831380781388,1.45973362274807,0.726390223960048,0.592916930826994,0.612775258550392,0.78558804429745,0.485855388243308,1.05690195518904,0.736301639662632,0.775412408455257,1.26963747187119,0.555873675157326,8.75644799956899,4.05996543769757,4.26384791547127,3.94613677378762,4.60924751492508,4.57927149580103,0.794309391714651,0.228781358170485,0.121207930778751,-0.900955709882982,1.13952920032689,-0.758119892894562,1.21516611343327,-0.674719169578892,1.05710243806446,-0.349007552434495,1.59420506266481,-0.844298964459225,1.25351990715386,2.11704174288241,1.54214010456988,1.60126440318638,2.61197930997945,1.30899554273291
"116",1,5576,7671.86166671322,1.58383531430848,1.62326079159451,1.62153732843519,1.67447405051058,1.45414832237212,0.718308933186337,0.626780634706707,0.646928550060028,0.732233891539794,0.509011002408267,1.03246207127588,0.804394306344645,0.848374562151291,1.07514925232419,0.591350660939717,9.01603772261388,4.04663850302582,3.58903573568019,4.09340403619108,4.29975581568081,4.44587265840332,0.791123251326922,0.234654745662271,0.0906381583809194,-0.874403721110005,1.12338496301142,-0.987900582879061,1.2394583021622,-0.698739398494472,1.25619165952203,-0.245454568267822,1.6016502947938,-0.943300331996559,1.02278327319298,2.06597792862327,1.64705020007968,1.7197393977054,2.15594591477326,1.34969560419384
"117",1,5581,7749.3662434909,1.58156430296371,1.57535318422266,1.56481126285547,1.60645601792847,1.50622739532242,0.726630783499291,0.625867583477433,0.556677575420116,0.701241177858278,0.471496349131387,1.05764336411936,0.802467037982311,0.670107598462637,0.983612633609656,0.534656368139708,7.73423657321104,4.31406857257718,3.90458252733049,3.98119065412144,3.98920070389703,4.84922219057152,0.766248608622765,0.213739252537742,0.0656657026640324,-1.21267214453278,1.11236680839761,-0.964424690469747,1.23458543571765,-0.682012084242302,1.24135355808152,-0.354180967273422,1.42769225093936,-0.899559029238213,1.02104756166677,2.11860948566572,1.6439533470481,1.44904419351736,1.96749381299652,1.28585743199234
"118",1,5586,7673.48173040955,1.55049943984311,1.58490728565981,1.57177357051622,1.60882345972141,1.50015988875682,0.677436552738574,0.660041702087745,0.614413884534589,0.739792612049508,0.519998433751998,0.920954128804052,0.878615890164794,0.778740722611678,1.09951570547107,0.608778264296194,8.51080302350033,4.17859557354402,4.2283333703079,3.94597906682122,3.62445263778282,4.39849987235625,0.786096073219886,0.223868990644965,0.0861009682747698,-0.919152039745974,0.810878628539656,-0.879001769760241,1.03534624858558,-0.830694712817866,0.81335889585519,-0.484407228202895,1.38563349439679,-1.01496417494896,0.957082171578366,1.84815650736123,1.77196588245007,1.60643711305376,2.20893478657756,1.37061097507949
"119",1,5591,7691.87644472396,1.53736683222917,1.62070185089294,1.59988239810513,1.60731214505949,1.52565858949948,0.668455156929154,0.652392891859936,0.672907745680797,0.674369016814831,0.626184003662928,0.898760278595996,0.860811850542428,0.909671108171315,0.913290960391725,0.803134321809161,8.5128208302114,4.69685115359555,3.80784818906656,4.32686589373999,4.10101919310056,4.51066715745848,0.793679055506441,0.245277199954524,0.074825156770386,-0.846512280482082,1.13747679934144,-0.626242283137095,1.11740337979033,-0.91182075545688,0.939815082392688,-0.333148147891041,1.59040489504182,-0.911010227650345,1.02732204046692,1.80777003838195,1.74099704203428,1.82750152504163,1.83410037833324,1.64502473886786
"120",1,5596,7662.06627746283,1.60284116162248,1.55729995027655,1.66358268666173,1.62031781942869,1.50028216880607,0.67595811502961,0.505725601174893,0.668163645123766,0.732083348418227,0.53959456972436,0.917249811035112,0.586216399542701,0.898052102033232,1.07467286199685,0.640905747830304,11.1533614995457,4.21278789752011,3.91617587730382,3.96083427668427,4.4198597850253,4.81252265334216,0.772214621737562,0.246012000995637,0.0869027246601593,-0.807311719312123,1.14861308948655,-0.712906724768807,1.05317720745344,-0.758442188068164,1.25583646919575,-0.285971165492109,1.32917020170564,-1.02541315373841,1.03256661420453,1.84134721584395,1.34364966709281,1.80649757796631,2.1549217603125,1.41076017760192
"121",1,5601,7566.96948523077,1.58547092731116,1.61376254577629,1.61882505049709,1.70491664534699,1.48996014152993,0.679762655017387,0.468359974009963,0.651950694084737,0.753774625853082,0.557600161595424,0.926824173240176,0.530096173353716,0.85979680240658,1.14706550487236,0.671718669885302,11.6026998372317,4.01441351879748,3.8010734589866,4.59222974257206,4.18103540743883,4.78217173032192,0.773779928179368,0.258163364545533,0.116407295869587,-0.963822084806922,1.06976454262608,-0.645762188415539,1.08444144755215,-0.888306053191828,1.18690729306897,-0.221449073970621,1.35709803114483,-1.09363301743813,1.052774035266,1.85900304810234,1.28100195300425,1.73925054142858,2.31575927246809,1.45120597147248
"122",1,5606,7667.03715018599,1.58370474167378,1.58587962223131,1.62402269117816,1.71563859657109,1.5134453677968,0.678903829922881,0.568463548619398,0.68793255757533,0.784200739592959,0.532311187356668,0.924650877239393,0.690965977728516,0.947859763144007,1.26380600346247,0.628801569044815,10.7729974942137,3.87207717316434,3.85654699930389,4.43031064077993,3.73794492285017,5.09792812614441,0.798846880197112,0.259998990408497,0.116790008912658,-1.00741446984405,1.11258120430849,-0.613024561090759,1.12227346734389,-0.882965876276659,0.974942926664732,-0.503826777156057,1.53891227879464,-1.13128057340359,1.16492608121446,1.85497924477958,1.47743398237832,1.89843813058741,2.59720561438778,1.39539141323322
"123",1,5611,7706.47272545676,1.57371825380099,1.57488987290411,1.59142709062497,1.63017125098072,1.51582051167612,0.684493912775779,0.579609013866849,0.589029218838411,0.77634040265874,0.570980061785141,0.938925201376729,0.711268591627884,0.728895760232818,1.23167271930169,0.695499574551884,9.55489747544654,4.40106938955317,3.72710863498201,4.05242328901006,4.7317285168046,4.23710647803563,0.787630686037674,0.245368699221506,0.0904433179873248,-0.754814668376231,1.01131959402279,-0.934524082251594,1.26974987573493,-0.915915754158089,0.949616553464838,-0.60661443602885,1.51680415960379,-0.980871637279163,1.23874154027225,1.88158053378033,1.50590300943631,1.53128902928538,2.51701768747203,1.48371965820185
"124",1,5616,7651.71030231063,1.57447838933982,1.6217960826713,1.65201518033166,1.62942152575557,1.52366536020014,0.753009877816716,0.682709940031878,0.693736728591639,0.793006331740257,0.596514617817012,1.14437588921148,0.934336602495631,0.963217305721389,1.30168893407382,0.743225733604394,9.0289557406489,4.17092553788824,3.73241797978235,3.87142409735799,3.47319418183603,4.33476995014816,0.838061854903562,0.197201897425828,0.125963068144866,-0.777928655105535,1.04204068190113,-0.952373208629872,1.00604027680377,-0.753810425119361,1.03436147278733,-0.689083692212485,1.44133429030895,-0.667787778564599,1.30018575655134,2.30959617580856,1.87298488676308,1.92778757804117,2.69439408109025,1.55238449109179
"125",1,5621,7582.57259821035,1.60571013170988,1.52628584891761,1.57301024699889,1.60511250571425,1.4611963827326,0.735187607798213,0.5781654337206,0.651672924627873,0.756281342099521,0.551199373180216,1.08456555403135,0.708605922474326,0.859159973720755,1.15595772994106,0.660614614734368,10.5293180912466,4.01213708262215,4.20170991885687,3.82542847663976,4.12927683169111,4.43788119727202,0.799768541469088,0.222490723080389,0.0991344122538654,-0.929743672753254,1.04715093741097,-1.04575628339085,1.01201136954905,-0.904779187747929,1.01890675679294,-0.560770350075411,1.58615748423302,-0.853801643300353,1.05499596118932,2.17628244099132,1.50212235336569,1.73815586044385,2.33623827341049,1.43641166920064
"126",1,5626,7731.31028514767,1.55515733136658,1.53602494600847,1.5402635698674,1.63057814221026,1.44749017218571,0.759341055069867,0.635267366686254,0.677253398994684,0.757049234439512,0.502898609984393,1.16697313587301,0.822573757849751,0.920494111061988,1.15870537913835,0.581825973817068,10.911796527931,3.98275693842187,3.62901295516641,3.7687943296703,3.92029639758399,3.99369690259424,0.81222648384747,0.214665249935163,0.0993245105517971,-0.966020831322116,0.975335109972489,-0.936130441179729,0.762243656260789,-0.797095769129964,1.03595170586281,-0.432302658348896,1.43533883689009,-1.01211217034004,0.960471856781386,2.36182629984928,1.67662758710306,1.8473094084998,2.34259815564414,1.33852146380818
"127",1,5631,7621.4351911692,1.55297226204894,1.55141838213384,1.58407997845314,1.6212417284034,1.46244523226245,0.781241372046659,0.575320005593156,0.649965553916372,0.730458471382086,0.458209665268435,1.25152996368725,0.703386745623932,0.85525871845659,1.06955247236514,0.515511826415549,9.38910061097907,3.78079332459629,3.85735574599749,4.00186640018055,4.18245713286094,4.24410641240532,0.794392104302642,0.219666146901949,0.0813009671667268,-0.885527248045837,1.06502424057844,-0.70897828111278,0.933953859329812,-0.726883051746166,0.988168585288467,-0.499812757757986,1.4976977186543,-1.10136430616829,1.13211739435585,2.566327250007,1.49475291391943,1.73146747549601,2.14394249114239,1.2657524431743
"128",1,5636,7754.33845563054,1.62973749518388,1.58441712348468,1.60892477560199,1.69596586589475,1.46314808107313,0.762205560153252,0.489572183999276,0.643085105726852,0.750770997382641,0.582863121521507,1.17745137481693,0.561459960711989,0.839761743498485,1.13656303120984,0.717307883615681,11.7920333400388,3.90425229724603,4.55520524315268,4.12469516379771,4.4614531700894,5.11261499619901,0.797139227010571,0.246135981925142,0.104147662009506,-0.983955955754487,1.07008283820127,-0.960662406700978,0.772610474460066,-0.724287329738253,1.14296775243041,-0.342264784448729,1.30037069711372,-0.942068557156535,1.12184349402831,2.38639174005828,1.31523728748271,1.70519978584361,2.29177552391289,1.51453059989721
"129",1,5641,7685.12619204365,1.62544970855494,1.55463444523134,1.54813484549986,1.70285759067694,1.46143319641767,0.725878198319061,0.489742751369097,0.567070643569632,0.756185842798301,0.484058116458336,1.05532661848461,0.561717280795966,0.688468952196626,1.1556167993297,0.553186610707284,10.744374972396,4.19172548690883,3.88098351827998,4.47208746757595,4.35058684119545,4.129471797472,0.763198544108555,0.288140415119874,0.0537509965600399,-0.915258154308188,0.996846813103086,-0.865649357103564,0.700226699808537,-0.63758228122091,0.98206889188202,-0.431894294243835,1.4747870589151,-0.729992073789068,1.05992629003324,2.11371427168216,1.31552630354481,1.47398949813872,2.33545018689302,1.30601542626581
"130",1,5646,7742.07286424161,1.56956211375892,1.54733386875768,1.56546248418812,1.64324136438161,1.52012520075179,0.730032443239717,0.540818717551691,0.481459103288648,0.743563822398912,0.575270353213909,1.06821641931397,0.642959848345122,0.549317028320243,1.11201252619839,0.703296012395744,9.85530304305142,4.30983099394677,4.06650484572053,4.01963963939248,4.61795745221462,4.64286227761211,0.768648767063887,0.255322816063259,0.105677609916936,-0.886874124441005,1.1066347094657,-0.52827181530531,1.02068507022279,-0.657787644110716,1.21871805615822,-0.597210785612701,1.32347892590735,-0.660162260680265,1.0864494375325,2.14108631849195,1.41339736658398,1.30174919760258,2.23657185842213,1.49462528105175
"131",1,5651,7724.5302859153,1.62301699925942,1.54102008600129,1.54258345566693,1.65966356029671,1.43638099896112,0.753589318751799,0.471457402442828,0.555413190279665,0.731392323367811,0.527478191738865,1.14641279295636,0.534599581733423,0.667905490863842,1.07249047475353,0.620877713223979,9.67602595410878,3.96895159111262,3.38985213616097,4.10130342210219,4.63500232414765,4.46518874552274,0.765699059656019,0.284607948958875,0.0749632819417847,-0.956578093971653,1.1157762421764,-0.512091440031111,0.929025128033049,-0.975703504937474,1.07587071890774,-0.41306729708356,1.31649622658378,-0.822957341289331,1.32438398019554,2.31426229185399,1.28579671278955,1.44609774472607,2.15023581843705,1.38548913477824
"132",1,5656,7827.37362927476,1.65600987547844,1.53321738639873,1.61408376288595,1.60800315853559,1.54440875007291,0.758053695187095,0.455162302063093,0.59809866920715,0.670342997450665,0.605313510777361,1.1623165042961,0.511183695187429,0.746296352526605,0.903364654066224,0.760456378804176,10.9070091183711,4.31566125753382,3.83121907650636,3.67392179954314,4.52314219384853,4.73978007672119,0.769329417239549,0.271462719323011,0.107260703097873,-0.805096079450607,1.10048853964568,-0.711812238726668,1.07359259760724,-0.71104376196446,0.993500233272236,-0.383439010704691,1.36741178246013,-0.881554477879817,1.02191335544125,2.3509796561591,1.26130877022547,1.55695824579451,1.81606769821619,1.57829390406396
"133",1,5661,7780.25086875165,1.66005138840846,1.59900858412361,1.60519173186855,1.61752812089641,1.56008387771896,0.727949196192099,0.496403958935906,0.603058701511534,0.57571764687463,0.643438387505386,1.06172142022962,0.571833584628228,0.75599989002875,0.704113802629571,0.8405488557092,10.1504357182383,4.38403332773342,3.69975055304954,4.22368992391483,4.1929848047728,4.11098430255751,0.755836338684396,0.29997600959009,0.108855823771495,-0.73583476017474,1.24028051606104,-0.818256212140969,1.04327294936505,-0.743999265265327,1.0944419026223,-0.313097813879573,1.28290814682405,-0.946879520568873,1.07595779213825,2.12725237417441,1.32699364850877,1.57153583372348,1.49577624705347,1.70652237883404
"134",1,5666,7796.1256264109,1.62946289600879,1.56771045501117,1.61483090412435,1.62450247392245,1.57097261620873,0.721652813415991,0.538506233615049,0.622676022432147,0.647119243134,0.637942644331672,1.04246648826549,0.639084353880111,0.795772691071967,0.84880475890409,0.82840669793842,12.9645964160015,4.1438156008376,3.77156982679643,4.32609985077744,3.56614532472992,4.75834150878453,0.775383475273329,0.284923023685713,0.103915528490834,-0.779766016355296,1.1290550564936,-0.864252229657303,0.727234234605682,-0.755470748647531,0.950720899919804,-0.396064660632063,1.09063256228587,-1.01454612793258,1.07447555738392,2.08673637915659,1.40842881137436,1.63325417585592,1.72046951873823,1.68625765718924
"135",1,5671,7748.93455065042,1.61107912223054,1.57510164098508,1.63694300761259,1.58218197148917,1.55320365230652,0.679726130892499,0.555163724036675,0.651328928015517,0.627070698034566,0.656700136643728,0.926731603316315,0.667471802493897,0.858372141853956,0.805007712646335,0.870779782841715,13.6914717147794,4.47839076024294,3.80892886949011,4.35571445026236,3.66626408112952,4.63075971757865,0.773174545881784,0.30527950415926,0.135452828925425,-0.983056888735795,0.739199860294304,-0.772298040437551,1.03145796010545,-0.690896447752662,1.05389755949826,-0.520747459666946,1.1161604721443,-0.959526068924528,1.12318785372784,1.85883146458523,1.44551860712445,1.73680273391095,1.64803741742008,1.75825743020587
"136",1,5676,7731.20218312564,1.65028984170855,1.55668220525869,1.65889358784228,1.58286095719805,1.58910049298852,0.688402856535986,0.47313968127027,0.652041050571024,0.557384717889827,0.652789033097621,0.949091078028988,0.537056112435744,0.860004088090211,0.671342127509226,0.861722477275969,9.96817389313353,4.07969840768992,4.14659182143464,4.58983573170348,3.91827068879573,4.58454939577173,0.750602492871132,0.292338382543895,0.0833516411109172,-0.929470726323351,0.899366506107349,-0.794582089312169,0.830557919942863,-0.983156138629675,1.08917785788624,-0.260518545194694,1.12594898912658,-0.809959804972066,1.05218270162836,1.90077387439423,1.28842926790459,1.73960703153188,1.45070025216861,1.74256562784263
"137",1,5681,7722.78336881357,1.67332100034034,1.59766939406268,1.67359182961825,1.57428269449624,1.5513456043956,0.723801273014485,0.51013977520733,0.697754452269727,0.525218701439105,0.618496053310805,1.04897444424543,0.593122671059706,0.974058905333579,0.617201991571702,0.787103045462555,9.50201626358726,4.61225760541642,4.413675300736,4.2993893582622,3.60291483815724,5.28194293441357,0.763750959464883,0.302921059969638,0.0778242922798898,-0.935989907883207,0.911817720232554,-0.800743065335437,0.9151208283225,-0.738963409590663,1.27605575521967,-0.574104943105455,1.29770569019426,-0.87071665520534,1.21441772395009,2.10034738468,1.351794502925,1.94879075105965,1.38093829840008,1.61953120417643
"138",1,5686,7619.35492064483,1.6119235249713,1.56716329683457,1.60675610948752,1.52124194189695,1.5548619582751,0.711982283699878,0.523836815239311,0.655664470359911,0.489806633978554,0.654879659224716,1.01393462215689,0.614962848014428,0.868369512384544,0.561813676741107,0.866548777808409,10.7859155276806,4.59368191726112,3.72825381597793,3.46567625947219,4.17146635675813,4.79458364258366,0.75502884716504,0.297874674329577,0.0774094095454535,-0.884284153188589,0.917324480635625,-0.919464668236652,0.976761144773539,-0.607787124470731,1.17263920165005,-0.642760613002767,1.17638207919056,-0.963006738220122,1.35489041811653,2.02806341800843,1.37817930443802,1.75406561003897,1.31563460737336,1.75090678432125
"139",1,5691,7721.64552962701,1.62400660482859,1.51098708137104,1.61044799753749,1.50283259102808,1.51112209541481,0.758817554128139,0.536141625233362,0.654036263127914,0.500109419813735,0.642936653078445,1.16507565044165,0.635142533062639,0.864597599471499,0.577518750450155,0.839431263767219,11.348107892468,4.4148800708052,3.70496728450386,4.31853734632811,4.35730555324591,4.20254444006873,0.769168395226389,0.290649270157712,0.0686161472437389,-0.991326334742582,0.917646467768928,-0.732824529083629,0.916725441757848,-0.631535482801594,1.19995338590701,-0.763290763412084,1.09998309895364,-0.952093311869147,1.15563298966519,2.35740127125204,1.40340603730523,1.74752900901188,1.33352790712151,1.70464484658983
