noah-padgett/Padgett-Dissertation/data/study_1/posterior_draws_m2.csv
"","chain","iter","deviance","icept[1]","icept[2]","icept[3]","icept[4]","icept[5]","lambda.std[1]","lambda.std[2]","lambda.std[3]","lambda.std[4]","lambda.std[5]","lambda[1]","lambda[2]","lambda[3]","lambda[4]","lambda[5]","prec.s","prec[1]","prec[2]","prec[3]","prec[4]","prec[5]","reli.omega","rho","sigma.ts","tau[1,1]","tau[1,2]","tau[2,1]","tau[2,2]","tau[3,1]","tau[3,2]","tau[4,1]","tau[4,2]","tau[5,1]","tau[5,2]","theta[1]","theta[2]","theta[3]","theta[4]","theta[5]"
"1",1,5001,7464.49303389219,1.51558854354856,1.55938405240558,1.77396331842124,1.53048687003616,1.63858163777977,0.285203683550361,0.30103186998487,0.609184110381156,0.276109073136897,0.595876217847466,0.297562361475423,0.315674732946448,0.768173980598128,0.287276574232032,0.741992040796869,11.2545649058636,4.00843324955609,3.74032231026561,4.41253385771439,3.60905548688681,5.09283620533287,0.53752420253378,0.54174867887681,0.0315813920863431,-0.608512486195445,0.761887715943009,-0.60299512151214,0.841563254201424,-0.639236777808253,1.03163574337814,-0.477470119466695,1.11684994111128,-0.728936500211762,1.02516509110261,1.08854335896683,1.09965053702081,1.59009126446797,1.08252783010249,1.5505521886059
"2",1,5006,7472.21108352289,1.61351592618131,1.52048343018055,1.75258806314238,1.53400207220382,1.71072010355454,0.382028559818363,0.165300550345541,0.54231781804572,0.247041909680068,0.577292020137989,0.413383482966356,0.16760626960414,0.645483184601563,0.254943949374417,0.706999778941941,13.3398662172056,4.11435932255152,3.2639431584619,4.27333543893066,3.66128537227964,5.03562141332801,0.489231336670148,0.629321167589638,0.10281778610026,-0.826566898510823,0.783860961272248,-0.69719638505382,0.97158350092558,-0.508801513375196,0.890697792159375,-0.324998054623215,1.057959156339,-0.860098223712024,1.01058156212488,1.1708859039894,1.02809186161062,1.41664854160338,1.06499641732263,1.49984868742395
"3",1,5011,7442.3487384891,1.5679833734613,1.56301429177831,1.70692713449362,1.54957065822542,1.66229946885617,0.394038915151345,0.3383692717371,0.569953303390616,0.366454243956748,0.560571328277948,0.42872548348761,0.359579649445861,0.693646340905235,0.393852145620872,0.676931734253018,10.659590147914,4.0690378478833,4.29524980647406,4.4234063121399,4.63742158070336,5.37509243173595,0.565838724643495,0.58883638524525,0.0527670104626864,-0.856155104665507,0.748789862449114,-0.784488103525507,0.963783904937196,-0.55947021279008,0.734277437792122,-0.408995027015739,1.08857464438836,-0.677455881355712,0.951167004631801,1.18380554019169,1.12929752429561,1.48114524625122,1.15511951261016,1.4582365728388
"4",1,5016,7528.99730549831,1.6220509415641,1.62127547343849,1.72829031452393,1.60963512146167,1.65771939484446,0.430233538450449,0.426380101328967,0.442127908794314,0.363478957890848,0.489462563380172,0.476598139519984,0.471375697934504,0.492922589792879,0.390165326590228,0.561294630415716,14.0691297317261,4.02898791134749,3.60932621169186,3.69953980589222,4.46518087618131,5.27047254239511,0.533728628782815,0.649486207101121,0.0484537177851707,-1.00179014441957,0.728415173369362,-0.784514990278126,0.934132709731255,-0.695684296993537,0.888723966128808,-0.47879770396987,0.923655506983374,-0.810208556093075,0.914093060515598,1.22714578659391,1.22219504860324,1.24297267952812,1.15222898207326,1.31505166213352
"5",1,5021,7596.78609551421,1.62712242185145,1.70179486854269,1.71221716704206,1.74058502124455,1.78489332468118,0.377881447211315,0.354492065489746,0.41485922556958,0.422425998515947,0.505105551241231,0.408143671745557,0.37911196723484,0.455946572944565,0.466049429364256,0.585251279174027,11.3433095101545,3.58011463453198,3.32159658563482,4.02362224682824,4.19256242631357,4.49144519700496,0.512895775140103,0.751788759625458,0.0484596381638511,-0.749293432272682,0.769513627915754,-0.783243455423105,0.874817792802914,-0.611825924591666,0.776856156010381,-0.514499902488469,0.965056963028691,-0.749207377921766,0.848195246474975,1.16658125678595,1.14372588370067,1.20788727737989,1.21720207061075,1.34251905977484
"6",1,5026,7534.76539847309,1.66844801068623,1.64280700549683,1.70630515147652,1.7189870432739,1.81163768314673,0.416090558133439,0.327775836984664,0.416840146188191,0.412498666801255,0.565148497575836,0.457582701998107,0.346942493116082,0.458580204118271,0.45281843324707,0.685037451901929,13.6907552299251,3.77913798603824,3.57663918535724,3.83896871530486,3.96841932496154,5.71130720805057,0.535515208057601,0.75146819623355,0.0571782650287363,-0.749268873927394,0.810617952539226,-0.737530389501168,0.833609489291992,-0.568647215463575,0.693803777737612,-0.343458677981254,0.905532385205441,-0.750787694280806,1.03667770115198,1.20938192916789,1.1203690935296,1.21029580360915,1.20504453348833,1.46927631050829
"7",1,5031,7312.84603748276,1.6880197907216,1.65760320199257,1.71044289150808,1.68705932063092,1.75143643148152,0.478619981616187,0.291132600974274,0.447736698319172,0.423401644564353,0.569270878178941,0.54511150572194,0.30431468841884,0.500731379363738,0.467360612984412,0.692417270974324,11.754392139979,4.33280028999441,3.62796882676366,3.55886174198825,4.63929286839626,5.04949147403146,0.557513352501795,0.740615741143564,0.0325005460749863,-0.792519312955363,0.873682892289766,-0.707963598079749,1.01460290123797,-0.69401824940131,0.863724902329519,-0.453262971309993,1.18565754557601,-0.832781151744809,0.93309731797689,1.29714655367044,1.09260742958746,1.25073191427951,1.21842594256917,1.47944167714353
"8",1,5036,7563.06137089764,1.567506260826,1.59342827736119,1.73331706621066,1.66071887539317,1.68984717859383,0.373877991295635,0.314754848024077,0.502747235860941,0.44034200162341,0.557209169789414,0.403112562462008,0.331609567196139,0.581591592341334,0.490451358861499,0.671035458270465,12.5994373307717,3.43234911755998,3.69007555264328,4.74567350457866,3.65471784548195,4.60912523064055,0.551146639025133,0.622065498956473,0.024301704172157,-0.743718848769548,0.873366190899729,-0.769241253545164,0.951522047159942,-0.70527577445917,0.822801453282782,-0.49527855788629,1.02213901175634,-0.853552690243178,0.839314655436918,1.16249973801469,1.10996490505601,1.33824878028213,1.24054253540909,1.45028858625625
"9",1,5041,7415.9923360114,1.55309587691463,1.61738916521609,1.74862625602792,1.6064731471908,1.72319319223823,0.373110452228525,0.316418385229751,0.535299548389088,0.42937580984457,0.612217347933126,0.402151010671418,0.333556611650741,0.633743865708534,0.475432942270407,0.77428286519643,13.0468447960906,4.05570593518314,4.13510662904474,3.91093535083228,3.60866965944401,4.66824653215875,0.578416166464514,0.62216000155813,0.0794546505311867,-0.672223244390008,0.818898363248234,-0.773957581884666,0.851328703370451,-0.714257387580625,0.672606924920227,-0.550741683970607,1.05394957640905,-0.815191294299024,0.980434515767764,1.16172543538404,1.11126001317592,1.4016312873232,1.2260364825959,1.59951395533679
"10",1,5046,7468.51614302689,1.54406499782722,1.55564479764463,1.68858838897416,1.70024546911022,1.72114106065578,0.31976826025989,0.249384705507223,0.487852258674025,0.461597782252953,0.633081687917204,0.3374877923807,0.257521218078594,0.558869983845314,0.520350954847987,0.817845189640742,12.3252522174586,3.67848519653065,3.95980295698077,4.17177711992814,4.13745871207457,5.88283190852747,0.553987116457284,0.637556145874679,0.088191459874573,-0.715750798278651,0.813947800315804,-0.714267501971126,0.751833175048376,-0.748158109073617,0.74113014194788,-0.464124609283312,1.06306807167828,-0.842331315885748,0.829741793034814,1.113898010006,1.06631717776068,1.31233565884326,1.27076511621121,1.6688707542185
"11",1,5051,7395.60239056308,1.58221073570527,1.53020168705417,1.78164206585055,1.69342111928962,1.76797779400017,0.3676359390432,0.276011143717949,0.527120396285337,0.493544604359151,0.613447562797182,0.395320301496628,0.287166280021202,0.620294443756421,0.567474967404652,0.776776019737371,12.0369572922845,3.89217625534449,4.38632550591442,3.45719404940991,3.81040591261851,4.76812145842859,0.583568564164637,0.670379988481314,0.115915620440172,-0.674658513615719,0.752276879677032,-0.666281177697762,0.749583815728173,-0.767959192961205,0.923827957713019,-0.480586838149961,0.830030906243702,-0.92652942686147,1.0371117207374,1.15627814077538,1.08246447238122,1.38476519695509,1.32202783863091,1.60338098483903
"12",1,5056,7320.73717374749,1.51217301098994,1.57872402552094,1.70598322897925,1.58597664113687,1.67361471526872,0.369046146408424,0.373563650646526,0.529808776364272,0.389984020704699,0.588594064854646,0.397075263356603,0.402718648952523,0.624688217850169,0.423517444047167,0.72807167299983,11.2182382433302,3.64865324859239,4.55873936524334,4.16906228221936,4.24690881035335,4.86404808089877,0.570304355177843,0.583575006906906,0.0667026413720699,-0.667654105729014,0.753217550007387,-0.906778136219007,0.823348021760691,-0.603857599649256,0.868589528476732,-0.560791733135864,1.1297717025238,-0.997647567453638,0.910084216644776,1.15766876476972,1.16218231021415,1.39023536952082,1.17936702541225,1.53008836102477
"13",1,5061,7482.84807105304,1.58574079038855,1.58435001369129,1.73755135690748,1.62405117950072,1.71739021649327,0.323610252916821,0.305539844204233,0.495193948105556,0.347812577285388,0.58633152945342,0.342013858112405,0.320884781739365,0.569986128716655,0.370974724101299,0.723802468957485,10.2910447014187,3.78714744312595,3.53875878571208,4.17572555516344,4.69978954910715,5.18219367845162,0.52006190238233,0.593270632350273,0.0929952347333701,-0.617960222413411,0.92629581838644,-0.761238411203386,0.797624538199601,-0.597472263021378,0.845844304410276,-0.40811274541478,1.1446786113152,-0.841833717953218,0.94685362440686,1.11697347914093,1.10296704315192,1.3248841869294,1.13762224592204,1.52389001406895
"14",1,5066,7515.18309178124,1.51742736302621,1.54115910522026,1.66971518193856,1.59409043111943,1.64976879167402,0.370505305673267,0.25906414078198,0.472094128164244,0.40454647718252,0.549244344145178,0.398894486818751,0.268221179733398,0.535528467927341,0.44236059319612,0.657256729469426,11.6096453172269,3.37105661036254,3.85148404696932,3.76945244036036,4.1071596124228,5.59063780074623,0.514582326369552,0.567163952951242,0.0344914382087951,-0.789604559957683,0.813084805583822,-0.746385970267176,0.889897359065854,-0.690187993663372,0.996161933800323,-0.522279792677077,1.03369870695965,-0.885002699940767,0.883225632775679,1.15911681161439,1.07194260125758,1.2867907399606,1.19568289441282,1.43198640843285
"15",1,5071,7470.80228225681,1.46123990571819,1.52065080285401,1.66294566080117,1.57779489338871,1.63233220947369,0.267106171513071,0.288867924107341,0.506830334267139,0.413734956212862,0.538228828312959,0.277176806771873,0.301731032311368,0.587938966683675,0.454455346836853,0.638620821479186,10.6946438667752,3.62389220391543,4.03401941160209,4.01150249155242,4.39531668748956,4.70545098192362,0.505305687955169,0.516636455016458,0.0702058908477315,-0.838373488235051,0.845021917615809,-0.782165273200483,0.736368139447326,-0.665399193789483,0.98948157884141,-0.444605138782164,0.977840885444358,-0.753843897866675,0.753544831330652,1.07682698221225,1.09104161585968,1.34567222854507,1.2065296622686,1.40783655362675
"16",1,5076,7519.58827410902,1.50822175853361,1.56612652929282,1.64086752665021,1.58871951879877,1.58365163166729,0.367630629023573,0.319820136225897,0.46318241509938,0.419556700839235,0.521789670800564,0.395313699304946,0.337548780659518,0.522624132187346,0.462204733366372,0.611658035347122,11.8177944163792,3.50058744571702,3.59582281391315,3.82635829897124,4.57018120863893,4.43866174676736,0.520423647995357,0.501442578269103,0.0218680526435873,-0.71649093706335,0.953622155967523,-0.669078404416056,0.904821419972168,-0.621619059207922,0.855185541631773,-0.517899993482811,1.04071164732155,-0.81434791207587,0.924130758586281,1.15627292085816,1.11393917932473,1.27313598354458,1.21363321554628,1.3741255522047
"17",1,5081,7442.11588197339,1.42988330601333,1.58197048283894,1.63474084380355,1.5669993323777,1.56252947456183,0.285659423389452,0.311210241935094,0.502606190396108,0.50488307566389,0.526532063400578,0.298080061070643,0.327472152429448,0.581373267776576,0.584905288190184,0.619336350488714,10.197089744594,3.60339008809249,4.30536054524642,4.27515477195835,4.40321629542248,5.12540904553155,0.537624719458797,0.424702410615446,0.0774068351021486,-0.695400772581986,0.828479952202459,-0.750855612925264,0.66534262904823,-0.781370517486177,0.810216840246212,-0.551845035285144,0.907715838899295,-0.860022215838181,0.869608008507147,1.08885172280788,1.10723801061678,1.33799487648521,1.34211419615284,1.38357751503668
"18",1,5086,7367.9115701204,1.53295460018686,1.53491448859678,1.61586375738844,1.57472463283838,1.56773084950651,0.369608378885575,0.284099361626066,0.493572445091058,0.354273809813145,0.471934761494559,0.397775829258655,0.296308812493339,0.567517288157334,0.378845041256519,0.535295875092311,11.0318986615171,3.9342820694013,4.05794493161381,3.63859267588308,4.3891322777066,4.69541304159643,0.486329002532749,0.433116482126942,0.0773268020194433,-0.696735578521406,0.808763849294642,-0.954690014650775,0.709216082174568,-0.731016166697068,0.715800987780915,-0.399086844484335,1.0249453415252,-0.881473515357122,0.817313560570651,1.15822561034241,1.08779891236121,1.32207587235745,1.14352356528465,1.28654167389084
"19",1,5091,7407.96140378676,1.53919185401995,1.51819579777388,1.6295841326157,1.64263931398444,1.59118192798492,0.382859279045892,0.270883072099114,0.488061238052422,0.429117603487645,0.484257943057198,0.41443658016331,0.281404137081985,0.559184221344376,0.475082486270022,0.553484914017543,9.63299064963498,4.18518508509002,3.73568967483724,4.29587767575285,3.96851664266254,4.64265374449337,0.51051386698576,0.476149230144964,0.0377089649602061,-0.812158271318974,0.736544506928676,-0.792131748411392,0.938292089561443,-0.73352665827777,0.978478867017003,-0.504476242270123,1.00479483258011,-0.847249161994535,0.873783004821423,1.17175767897746,1.07918828836686,1.31268699340052,1.22570336876051,1.30634555004501
"20",1,5096,7610.23516695958,1.57279200978267,1.52240893492418,1.66985848727767,1.57610470260211,1.63969991313609,0.367511199975343,0.25382228923394,0.476108012572207,0.367700239685053,0.519167854990264,0.395165219483391,0.262416191197325,0.541409090446934,0.39540025299163,0.607446685374145,10.0500584875914,3.72298157526985,3.56465682716469,4.0967449934677,4.17262829985465,4.45369236704572,0.492287239495173,0.499901322400721,0.0246717588717408,-0.826847348326113,0.56821360753056,-0.639003868701295,0.976831920700682,-0.559414327893673,0.910104087133548,-0.509816639124076,1.18951680030884,-0.867756183715586,0.902777177386762,1.15615555068936,1.06886225740251,1.29312380321858,1.15634136006585,1.36899147557204
"21",1,5101,7392.83809398242,1.52290046667698,1.54991261821526,1.67176105822018,1.6146190156938,1.61641747196536,0.33038875357419,0.319261808681639,0.55377976954758,0.434132480196529,0.57092687047171,0.350045584220081,0.336892557137817,0.665070564714866,0.481914795691651,0.695403448935602,11.1542028356199,4.0481512202938,4.0523342756045,4.56387489042617,4.4963325252311,5.02002274699276,0.561307104989924,0.528642736537569,0.0628304486153456,-0.842121074085091,0.802757369282809,-0.780934551998856,0.773419529569237,-0.729524249465469,0.686544203335735,-0.436951674098323,1.09159616144088,-0.852712665499346,0.888714272537625,1.12253191103198,1.11349659505486,1.44231885605015,1.23224187030653,1.48358595679153
"22",1,5106,7568.32249318762,1.50199558325454,1.6156524430158,1.68812633185582,1.60856086522209,1.68905139736757,0.302573511348438,0.401301575578206,0.53627119139907,0.398677800427079,0.586330878967483,0.317453825589909,0.438127992947467,0.635357974945775,0.434719972776644,0.723801245277186,12.7761068724825,4.056416786853,3.62183835347082,4.2410146581253,4.17362643967319,4.62309719991684,0.565207994101138,0.586970079913463,0.0763731442377833,-0.746479780879048,0.869641018129224,-0.835781136443069,0.791210867730248,-0.750755916902257,0.85075736014835,-0.613418892782984,1.04030243947806,-0.749276190726019,0.93846760652543,1.10077693138167,1.19195613820418,1.4036797563272,1.18898145473093,1.52388824266481
"23",1,5111,7560.91933395621,1.58365707998149,1.62170304621761,1.71292920312049,1.57467228213122,1.69763146992719,0.397045790662407,0.346381564151019,0.550253485846301,0.422756141699454,0.621183191590291,0.432606569102151,0.369239831601197,0.658988053034827,0.466492891953374,0.792663807821216,11.5592381342619,3.41042480398669,3.73857385511896,4.08185441411689,4.15758686058568,5.53405203346315,0.596720592354998,0.585746563317862,0.0706541548833563,-0.792000492052769,0.900432275790548,-0.810409406578002,0.802254656504471,-0.672091126052976,0.882594235016201,-0.462701441062175,0.989478241878673,-0.656436436832723,0.908346586106359,1.18714844363033,1.13633805324088,1.43426525404263,1.21761561824302,1.62831591222963
"24",1,5116,7568.42413968486,1.55024796965098,1.6383947944893,1.56626299016604,1.59662690892836,1.69420346425397,0.375830829190831,0.412607006608953,0.447140021508774,0.370814019109238,0.640591770835309,0.405563373386925,0.452961760175232,0.499897183564192,0.399279816746579,0.834232456818582,13.2659421191269,3.96083070036994,3.36339993746544,3.7115170435804,3.96362973174991,5.34736360534608,0.573310573739296,0.536857466324233,0.0720848669316416,-0.791310443983775,0.70944007931877,-0.754953573161559,0.785334908700418,-0.618541860107849,0.786687214399085,-0.595575247750176,0.98172970082407,-0.856240919713886,0.995083422582807,1.16448164983298,1.20517435618104,1.24989719413541,1.15942437206118,1.69594379200957
"25",1,5121,7485.66037425873,1.57637011776579,1.59687476664574,1.65060424607199,1.59862026787613,1.70819305921448,0.384707485457426,0.359018419022604,0.493143005186575,0.353658730307301,0.635055739260126,0.416783772089181,0.384663770010797,0.566864752099121,0.378093181674629,0.82211447516829,11.3223938636716,4.03320844179633,4.16998066906023,3.89920068809979,4.34123146427716,5.05281079791161,0.568864971308484,0.535199141594967,0.0874889010232091,-0.624106831586584,0.830027435708809,-0.618769533294132,1.04798393849952,-0.656119658589411,0.846882667694647,-0.455125514721722,1.06787169099849,-0.777669146427999,0.914249087514479,1.17370871267689,1.14796621595892,1.3213356471724,1.14295445402884,1.67587221028123
"26",1,5126,7348.16727017322,1.49768217774107,1.59125012897835,1.59734470638541,1.5940252331759,1.64610176374135,0.355346802446837,0.445699270973273,0.465170182061663,0.407588009291183,0.611353637527793,0.380157990670718,0.497886347645829,0.525484640262966,0.446346054044181,0.772537847219497,9.85161822154351,3.67963460665345,3.81008893267447,3.78245977965454,4.22396381546557,4.55640128810217,0.579020018482743,0.516907809239714,0.103604270681618,-0.681016113271982,0.909472888378742,-0.779005486681989,0.958365916330859,-0.683723284571967,0.864541567072711,-0.449453038675052,1.15576170833156,-0.756222069466223,1.00591424653121,1.1445200978708,1.2478908151721,1.2761341071523,1.19922479996081,1.59681472538654
"27",1,5131,7539.04547016304,1.57010045487665,1.62194850865432,1.65888333000451,1.59603644072856,1.5938846855356,0.39674843261349,0.448851261919064,0.506975465067146,0.420992551199252,0.555328252194273,0.43222202516552,0.502291859962933,0.5881655526549,0.464126574598493,0.667757799703121,9.88308458834812,3.76967412448718,4.0267265109867,3.86462347917073,3.70663025937919,4.41796818788711,0.584948886327423,0.463530173994972,0.0612073583763571,-0.797766722013443,0.785691550415633,-0.791436843676883,0.672912750836758,-0.669534767741043,0.896552986537771,-0.438217604929379,0.928217282785493,-0.889907791652314,0.925485591652875,1.18681587903818,1.25229711258502,1.34593871732984,1.21541347724853,1.44590047906435
"28",1,5136,7552.04752286992,1.54398081466881,1.62931293593168,1.68222494293283,1.56621746877845,1.59329147164223,0.398560183282081,0.392908562594605,0.498216559936731,0.381213612965826,0.537289936215406,0.434567498374212,0.42727072305222,0.574609365051987,0.412351520438327,0.637054138401478,11.2813569248958,4.4027165378594,3.58046306963525,4.10179284596385,4.00018226416847,4.02700608706079,0.552751460560248,0.500161689474387,0.0584816772492189,-0.811480945067981,0.801935457689416,-0.805435495526609,0.951382370300926,-0.712537905236645,0.793764809880522,-0.503251353496901,0.941038893024538,-0.89682464627555,0.928021884902845,1.18884891064322,1.18256027077757,1.33017592240545,1.1700337764078,1.40583797525445
"29",1,5141,7438.71746207073,1.62629221212843,1.6008680225312,1.69999861215623,1.62160179122535,1.63844555140407,0.489055968334041,0.332642634959942,0.532161589893523,0.374452574274956,0.542735298500243,0.560681707438536,0.352729539651917,0.628555024200494,0.403833014143644,0.646187453296072,11.0963505879421,3.89427088136157,4.06214054223283,3.77282266370013,3.96534489880485,4.78428096301233,0.57332041702574,0.555416428401139,0.076782990531546,-0.82452367442084,0.727311155026243,-0.805334975561457,0.753900485082981,-0.824858176900156,0.898955584320924,-0.451543316446284,1.02124398090417,-0.917551154954469,0.83268730715592,1.31436397705619,1.12441812814305,1.39508141844768,1.16308110331234,1.41755822479726
"30",1,5146,7437.59421648076,1.6076934946897,1.57766898527117,1.64536954811567,1.62482572103117,1.6229243353989,0.489023326009664,0.345041832808003,0.507945445857119,0.441457358641086,0.527448558122114,0.560632521509408,0.367618260003737,0.589681669846367,0.491993871960014,0.620829387848307,11.7695788043125,4.42194806494028,3.7865583766361,4.00407718026883,4.1238218622064,5.07106836099552,0.580567723143339,0.528753529189797,0.112367927385392,-0.812776786935784,0.777574998894524,-0.780766727359317,0.756501587745962,-0.61787146509455,0.793030735245907,-0.435782583805756,0.958849096615216,-0.845305246526507,0.958902283057488,1.314308824174,1.13514318508818,1.3477244717528,1.24205797004621,1.3854291288161
"31",1,5151,7557.50693501057,1.62625086310051,1.62582146104374,1.70319492384668,1.66639466803885,1.65471340501632,0.475972686161925,0.401666578712148,0.513780826409632,0.490465132641692,0.487139461428639,0.541210120055366,0.438603110193736,0.598866958788956,0.562808015792137,0.557799114738651,11.6561007250477,3.60322526570949,3.82171969882133,3.72973360869594,4.29255294067125,3.81449639057575,0.593037756139424,0.496694914320719,0.132919018648405,-0.833517127447413,0.830079875011599,-0.682969656449581,0.939395747660689,-0.622896964802805,0.854463329126919,-0.534900174667721,1.11032482112719,-0.904488532788841,0.94043737454941,1.29290839405034,1.19237268827162,1.35864163432913,1.31675286263988,1.31113985240322
"32",1,5156,7463.12122962318,1.61265996064139,1.62545440789937,1.74074173267178,1.65502436105119,1.66788875085773,0.507047601820581,0.400075251805024,0.574127769933391,0.527604254361998,0.525704995656018,0.588278201460416,0.436533531501166,0.701211294152097,0.621083326452527,0.617991561191137,12.9242658975835,4.21383760825202,3.67176544011251,4.26447728898655,4.4226495387157,4.68113838532678,0.637465888874416,0.536504826970974,0.101021543349258,-0.879033090482542,0.743213551499735,-0.853160333599865,0.8073916941629,-0.721639257467196,0.775161847848632,-0.483276793655674,1.0672676483331,-0.914276541679688,0.87133227429692,1.3460712423135,1.19056152412488,1.49169727904646,1.38574449839734,1.38191356970346
"33",1,5161,7498.63298433637,1.67466382887115,1.6197496328842,1.6891093810179,1.74436652746668,1.63592789832715,0.485526368948901,0.440501437865846,0.493506709334189,0.575190774508693,0.518834465141428,0.555381077478976,0.490671682598046,0.567417366806748,0.703150616955797,0.606912860023616,12.7424342815331,3.84779679523175,4.27177858167049,3.81190788699706,4.09588457986606,4.14000289503465,0.630915921351137,0.611635846946593,0.0919383796315862,-0.758525737698626,0.774408646131685,-0.963075300225483,0.63382927143622,-0.695194103357787,0.83050182502935,-0.553378178450141,1.00311722625979,-0.729895371442875,0.81168385240122,1.30844814122171,1.2407587001036,1.3219624681539,1.49442079012532,1.36834321966204
"34",1,5166,7461.97807376795,1.63694762768164,1.5535153594376,1.71756379228064,1.76024258864976,1.64895329275188,0.469383066202573,0.303254017648967,0.494740373809517,0.552599487152663,0.533099762784832,0.531580877242457,0.318240018137736,0.569294741147187,0.663028992778538,0.630102545026614,12.8614902809418,3.89222782449144,3.91424836495138,4.57665621437099,4.62886708567373,4.40222989172203,0.595347622091553,0.663150276813175,0.128957544956473,-0.788535654828898,0.716133313989734,-0.873593091440533,0.751141661184249,-0.630940092162727,0.83427492800321,-0.586117527293681,1.03500921845508,-0.706871815070676,0.926550921341913,1.28257822904986,1.10127670914431,1.32409650229784,1.43960744526492,1.39702921724902
"35",1,5171,7414.6694369339,1.62927888993004,1.57232262014633,1.687278924045,1.80072533761058,1.66548456849299,0.483395337906362,0.310177550897309,0.467631878061403,0.592643539696554,0.539672388301576,0.552198016227732,0.326269610010732,0.529041230364217,0.735778271398969,0.641036155059878,12.3223648978766,4.33014741687208,3.89800795116537,4.42413342940273,4.35124166967639,4.52661372967908,0.60791866732921,0.631438598636742,0.0790995522158461,-0.802143360133828,0.760084358764268,-0.699625318412284,0.817597825442733,-0.722637783784358,0.914230357192155,-0.531146823339763,1.074755061335,-0.682472733887892,0.912260315969096,1.30492264912584,1.10645185841656,1.27988462342528,1.54136966466286,1.41092735209395
"36",1,5176,7423.59322795466,1.57365655554349,1.59616080976139,1.62939664972372,1.70915626202962,1.65699893506037,0.415162192121447,0.326542978378583,0.506617021442944,0.534643945113581,0.549974705906265,0.456348857382529,0.345481458494705,0.587606053379614,0.63265676038055,0.658509354098782,12.0743196581013,3.81356925684308,3.59792289954305,4.23816512655496,3.84096407951365,4.47825061158524,0.589680621106961,0.592811948842989,0.138916724638275,-0.941542850111198,0.740159553103956,-0.823631214938481,0.833220918078335,-0.631044956529294,0.88881669291689,-0.58335087615189,1.08728236107855,-0.718543631920047,0.84404507939118,1.20825427963434,1.11935743816363,1.34528087396837,1.40025457645521,1.43363456943559
"37",1,5181,7467.81413494633,1.59774983209452,1.58534070591352,1.70075069302459,1.64587210335954,1.66981494949853,0.428449110192545,0.256008884217029,0.516641671866362,0.487824871346387,0.540176170491192,0.474175822491676,0.264834650222089,0.603411159610963,0.558828811497798,0.641880947165865,13.7053173109963,4.45199924643442,3.96279997221824,3.99915772558918,3.82092474009599,4.60497618538874,0.563985832200813,0.545431010366206,0.0701825513023396,-0.855181188752278,0.954888517102463,-0.600626679697825,1.02586107073521,-0.608056816506817,1.00712079690506,-0.584576123140309,1.05558834646747,-0.767235567780177,0.839059921272801,1.22484271063566,1.07013739195826,1.36410502754305,1.31228964056004,1.41201115033455
"38",1,5186,7397.2215754207,1.63387075905875,1.61014082965818,1.77583624882107,1.65595594723256,1.70807681283157,0.416738112895482,0.274090126771183,0.55166741053245,0.438028294486402,0.591700142913869,0.458444358490829,0.285004662543627,0.661420810392247,0.487260519696696,0.733975278795695,12.9763177719101,4.37195387644677,3.39635493399169,4.19689827067049,4.29465572848283,5.24809428362943,0.579705872065505,0.62006860056136,0.0883199437168074,-0.633244929845619,0.832292926200927,-0.805594805067769,0.825695001499005,-0.630350459150728,0.967473632001848,-0.502277008684876,1.07095551145365,-0.742604413937913,0.935218461222117,1.21017122983207,1.08122765767161,1.43747748841994,1.23742281405509,1.53871970988322
"39",1,5191,7368.09149994283,1.6033184998839,1.57336456171595,1.71953367969934,1.64502976347069,1.68492820227851,0.408679028900081,0.277544529008116,0.481821838537307,0.438252276172551,0.57183216381549,0.447779995228991,0.28889438807897,0.549855954033361,0.487568887337163,0.697041240160171,12.1243495911777,4.19941063497718,4.2629622133661,4.52903157659203,3.89911718192092,4.1971191086924,0.549814599122937,0.610209802018602,0.072456948591388,-0.762413108950522,0.791764436335749,-0.621494963446919,0.96100068891193,-0.774239794831743,0.8895569402011,-0.569094660245975,1.04265979555535,-0.856444377855779,1.08510939987916,1.20050692412727,1.08345996746352,1.30234157018594,1.2377234198992,1.48586649048403
"40",1,5196,7465.76201239807,1.63829791132277,1.53602754883554,1.72513715788313,1.69313227611893,1.66749395668072,0.46795291512792,0.228095866865235,0.474244917924149,0.466796263552497,0.544104784026765,0.52950621289064,0.23427157526973,0.538674139124425,0.52783220129375,0.648502482235204,12.5443844583747,4.00097716776988,4.5624327701912,3.75972781295522,4.03598424776419,4.89502937422158,0.551343490958095,0.566716837317276,0.0949109637379514,-0.810276349773829,0.8346309601298,-0.684351591055926,0.863836133603858,-0.576711936696464,0.941600896271134,-0.516426449403053,1.09896581162908,-0.655772461924944,0.937815612530115,1.28037682948979,1.05488317097936,1.29016982816144,1.27860683272261,1.42055546946522
"41",1,5201,7421.44189246009,1.69629213041962,1.56498063580586,1.80405848491422,1.65564221419387,1.7218655574602,0.48700479153321,0.246556708211434,0.508915251691973,0.377530438589411,0.529364666216356,0.557596958091513,0.25441078486718,0.591200535969579,0.407701501494023,0.623960588472614,12.8878528985029,4.46074236972689,3.82095797980081,4.43904008213865,4.03887001492524,4.16906596481989,0.542484593062986,0.728995052274862,0.0957227981990738,-0.628521852707728,0.895765743657598,-0.629980970200743,0.9107783635694,-0.588311889327464,0.974943380023346,-0.501923257843175,1.02944638746134,-0.82255416759522,1.01966152497263,1.31091436767291,1.06472484745673,1.34951807373072,1.16622051432048,1.38932681596709
"42",1,5206,7327.39588670745,1.65859933811995,1.60498339416252,1.75006868775741,1.64029898652543,1.68296060390008,0.468617624152417,0.287749303388973,0.523946885100456,0.446590513113679,0.529694189184462,0.530469815457642,0.300456897045487,0.615140954107933,0.499129670376944,0.624500410079608,11.3871952742998,3.47130203135808,3.74132333652364,4.1850370926061,4.46673890869126,5.37646241319356,0.569089831529426,0.653447993910685,0.121860308883704,-0.587952303407238,0.897844536421494,-0.696620014935394,0.808232930704146,-0.736381481705165,0.947861839274363,-0.503192747728395,1.01832382971094,-0.771784026309639,0.826700414754504,1.28139822511167,1.0902743469822,1.37839839342082,1.2491304278506,1.3900007621896
"43",1,5211,7484.83310706518,1.63526831605252,1.56999852872735,1.75779159920865,1.65626475541748,1.71888041152839,0.449389257563998,0.215509635382424,0.52155089245248,0.477760819095613,0.600130376454013,0.503046147550988,0.2206956038443,0.611273511684002,0.543843235518428,0.750254688211096,14.3647408672691,4.12437224895779,3.82002848617894,3.83941640370185,4.14714250714016,4.77778304371978,0.580263525887378,0.573437263014435,0.115772964330761,-0.742857517221371,0.893644167242683,-0.636748335847886,0.91422579530048,-0.525122783574217,0.987006281278102,-0.571776073403632,0.969344175843967,-0.838590337806671,1.05866818237833,1.25305542656589,1.0487065495562,1.37365530608649,1.29576546481915,1.56288209718273
"44",1,5216,7477.16893971974,1.69851091140545,1.55169575548918,1.71912760267221,1.6332701285574,1.70373032531768,0.52887268886871,0.243405087092106,0.51687879986823,0.39566977856944,0.575362076543335,0.623155365467312,0.250952555316283,0.6037890479202,0.430828461601355,0.703463633878818,10.7651514076918,3.30180081304575,3.93273893987119,3.98636082002764,4.02496996726112,5.05805278700125,0.577114509954593,0.548366254402486,0.0445423896442555,-0.734597139718758,0.908607391662544,-0.778055286099647,0.844754811595491,-0.509489078071966,0.947271647927601,-0.448498261533123,1.07742876659446,-0.882754292763676,1.05238349177944,1.3883226095107,1.06297718501977,1.36456121438838,1.18561316332579,1.49486108418999
"45",1,5221,7453.65526684161,1.60442510801062,1.57660375912976,1.67011447526454,1.59222082557308,1.69921137999841,0.438336743618989,0.261028332317889,0.507994041297307,0.357732851706653,0.565560830509207,0.487685207400244,0.27040289235421,0.589757705776808,0.383083817964856,0.685772179589452,14.3893655860851,4.4719251412101,3.53400805019451,4.12507791113832,3.96023281571565,4.72585050689709,0.538764432782578,0.563010332788966,0.0730907729062798,-0.787071275065885,0.942109177947164,-0.730722971449066,0.738322302373403,-0.477074991083436,1.05146953852298,-0.33170124308307,1.05999952663776,-0.657381050547438,1.13198681777973,1.23783686151702,1.07311772419352,1.34781415152312,1.14675321158653,1.47028348229887
"46",1,5226,7400.83557150794,1.58216226174814,1.60151352970749,1.69458761498181,1.62624203255034,1.71741080309827,0.441707103670948,0.315378998037055,0.506921447415774,0.417297425413029,0.599779284329817,0.492339651178952,0.332339688514013,0.588081209543715,0.45918927681951,0.749569048445014,11.3393627035453,4.23150756633786,4.227973427175,4.1589317755209,3.81406668098649,4.88572309313333,0.578853783857627,0.540465361765866,0.0334013440501402,-0.809511455688299,0.70702807207025,-0.715227931444765,0.90482945889579,-0.576560744007856,0.950069789867615,-0.480095803818491,1.06792190199302,-0.694120629893491,0.980842141276441,1.24239833212301,1.11044966856159,1.3458395090184,1.21085479194602,1.56185375838676
"47",1,5231,7402.30424597227,1.48546632668698,1.47447602596717,1.62279094852203,1.55230716953737,1.60903836385642,0.414825409749512,0.269547715238173,0.492705777801635,0.457292274207158,0.651803507490814,0.455901683059241,0.279907938004261,0.566200945462798,0.51420646294824,0.859459279868524,10.2358190452227,3.38834578758039,4.36901483786933,4.34255098828049,4.2002206754364,5.48331269089909,0.588790214402123,0.461372766950978,0.024739476444105,-0.678485399651888,0.933242168407464,-0.771819768304243,0.90864102464125,-0.56603275723927,0.923792689786029,-0.3514923439333,0.961010647131983,-0.832582281360334,1.06849630218373,1.20784634461625,1.0783484537578,1.32058351064297,1.26440828653774,1.73867025375212
"48",1,5236,7383.89510092235,1.56142628203955,1.4960652471606,1.56339132768343,1.52111074986492,1.56086107893686,0.422950665873799,0.226227054940493,0.392379350841664,0.350696888765518,0.58072489843358,0.466754291085953,0.232248182783389,0.426590417005818,0.374480511517436,0.713333735159463,10.3259089894853,3.94364863199558,3.98533284204107,3.90864221999785,4.35408119494301,4.7097173470689,0.494907207793517,0.414011307652004,0.0689313812477571,-0.778787234853972,0.862881315400151,-0.676416672806441,0.929526985302326,-0.692478676355563,0.730995819277243,-0.567486877355805,1.01226972761595,-0.813326777947707,1.00603340440374,1.21785956824715,1.05393921840619,1.1819793838812,1.14023565350636,1.50884501771655
"49",1,5241,7469.50718321818,1.54251434159815,1.51897646853747,1.59287066705139,1.57872918537714,1.62884375241856,0.492792010988749,0.279375169665182,0.359312754701858,0.450313375099176,0.607603289186223,0.566331821398064,0.290960633905732,0.385025859256728,0.504343392609035,0.765011553314471,10.8623376363084,3.81974450877704,3.57739264420631,3.58709229003057,3.52184362319719,5.55433161280703,0.557854811440689,0.430689923410552,0.0860474776456449,-0.731708380468202,0.867193035612526,-0.698412439558923,0.860332995235517,-0.602067469733964,0.952535269624828,-0.568320587911188,1.15873283212873,-0.754855170735089,0.881067083986956,1.32073173192805,1.08465809048283,1.14824491229638,1.25436225766839,1.58524267670462
"50",1,5246,7432.13817088707,1.56430086283731,1.54309929021993,1.58592428091245,1.53107791034039,1.5927544408402,0.509720314027554,0.261323886934086,0.452677484824699,0.43267133321988,0.59170903637774,0.592463695280649,0.270731488719694,0.507671325912431,0.479918478339529,0.733992254018968,10.2678443775582,4.50243792973714,3.58328911247575,3.75093536208681,3.7322732852449,4.7920012460323,0.57195714536351,0.37283038861922,0.0586526268529335,-0.747173257576782,0.888004871782817,-0.677650809160235,0.751028197969563,-0.850738944261021,0.742731652742393,-0.505860799540041,0.795504295660922,-0.939089918436528,0.925065173714466,1.3510132302256,1.07329553898438,1.25773017515369,1.23032174585173,1.53874462895985
"51",1,5251,7454.7041910493,1.58512460939566,1.54653171895205,1.59943714606811,1.59397412599608,1.56269928448477,0.464012977194116,0.293311206170672,0.432632885220575,0.466048332863795,0.576569172256352,0.523818130443055,0.306805423992053,0.479866011069985,0.526751572950659,0.705673268221729,10.1667982764833,4.22947919290318,3.59812025900435,4.18326017317764,4.10087681817048,5.09992803344531,0.563943867745045,0.435708801601576,0.0751075839521732,-0.938396342609432,0.829443004081845,-0.807432040210566,0.754337410662993,-0.648142408400952,0.885969308093911,-0.558872559053353,0.951402409251991,-0.924949524231507,0.803770386427003,1.27438543378086,1.09412956819094,1.23027138858022,1.27746721960599,1.49797476148274
"52",1,5256,7427.92512730336,1.57700156558724,1.56877795943788,1.66676284487457,1.62797277840383,1.65453665522484,0.406245816056228,0.338346627940403,0.476096484851549,0.467051626621126,0.536292801843411,0.444585135390573,0.359552475282958,0.541392139304239,0.528201487376008,0.635393914803135,9.68849634704454,4.16352801031152,4.34863563199839,3.85432899789527,4.19133851776581,4.8844400138655,0.557354037087824,0.516986687937235,0.0870203349837389,-0.80518561766616,0.748488232506545,-0.725454534779338,0.769356542864271,-0.754162061927449,0.879807531247192,-0.505970604519421,0.928851339372445,-0.779737727072289,0.959294475197687,1.19765594261025,1.1292779824821,1.29310544850042,1.27899681126623,1.40372542696885
"53",1,5261,7466.10124322658,1.54525214793191,1.56715554740469,1.56985656401569,1.60295690061518,1.58272698794353,0.431908074181473,0.403510900834927,0.42499009855426,0.524589502682814,0.536585344561484,0.478877514656412,0.441007647840872,0.469499600475519,0.616181634399474,0.635880608882859,9.24830149805738,3.63597585784958,3.92890380604455,3.59192082401839,3.94475006189182,5.157946069393,0.582541633520446,0.436422097338691,0.102708047295779,-0.734318118619779,0.860606284198664,-0.775322155518596,0.828199659578582,-0.663082258486065,0.753761905043146,-0.459173343266237,1.05877291922341,-0.86125630150013,1.00869940857093,1.2293236740435,1.19448774545414,1.22042987484667,1.37967980657121,1.40434414875324
"54",1,5266,7569.85743668916,1.55830642786245,1.53730579242109,1.53401678893813,1.6158600374372,1.51124989678815,0.495980574611864,0.364141464254056,0.341879851849507,0.495473345497822,0.461911276109647,0.571186655873189,0.390985072303596,0.363801175208671,0.570412324038848,0.520800162144958,11.3821791412434,4.16406905979685,4.23353391789343,4.21603594621347,3.85238261471997,4.78597993773281,0.538863870832768,0.43901707958057,0.112358691227168,-0.694920022082536,0.812610732072447,-0.749195066652365,0.897529317503055,-0.600331316806344,0.731835770675547,-0.459209342936058,1.08635965442767,-0.744079657158917,0.753102594848688,1.3262541958476,1.15286932676425,1.13235129508321,1.3253702194154,1.27123280889021
"55",1,5271,7642.9426785937,1.54180675854279,1.48758329358868,1.5778795812284,1.57844393396295,1.51863503109413,0.508450964930618,0.239160242627347,0.371188212954491,0.508751486337764,0.489603289969522,0.590473012918014,0.246308075330244,0.399747083768373,0.590943841310259,0.561506881248548,9.42574666434597,4.51276209984007,3.94038066107961,4.02988268906219,4.09786936776519,4.59460708972793,0.533025386059259,0.383968952718729,0.087400451936356,-0.787056922543805,0.847550676335421,-0.757093849430152,0.90388931777539,-0.698932375422073,0.713585534597414,-0.50978365983905,1.1875193203326,-0.851129949295381,0.826291126503035,1.34865837898448,1.06066766797289,1.15979773098132,1.34921462358252,1.31528997768947
"56",1,5276,7441.27243589752,1.61377744047485,1.59351905692908,1.59925010274487,1.64001484662901,1.56901716988304,0.529929973494533,0.358791831639159,0.380459928985621,0.499288695211259,0.516938887913589,0.624886911047908,0.384385113902391,0.411398135907713,0.576255921810322,0.603884834622547,10.2338489652286,4.56369812025426,3.83576896123953,4.12652139003323,3.91337179342134,5.32055069681652,0.574982353835772,0.38063235734502,0.0750212641468302,-0.842442878742565,0.718497334334777,-0.823704453945412,0.697438891994715,-0.624241293041385,0.795578411159241,-0.467960981853703,1.01637363500628,-0.792945225775875,0.977188552762709,1.390483651599,1.14775191578975,1.16924842622834,1.33207088742146,1.3646768934871
"57",1,5281,7470.77243837445,1.61440525465295,1.54440782720702,1.58007960812575,1.58554431360261,1.56784987368356,0.552177236043288,0.266939853797526,0.408002900224785,0.489671999574625,0.539095382313658,0.662300008400889,0.276990972312136,0.446891079798144,0.561610533453628,0.640069767563026,10.9958236863927,4.35485385396712,3.66409055967565,3.89280179043644,4.64456310382826,4.36711005867281,0.572541122394308,0.409223506902618,0.128017684153086,-0.845455944622068,0.781036365153018,-0.685232096666445,0.970836939393958,-0.712605429428188,0.596263415706943,-0.468995218789546,1.11471542061184,-0.901785276442593,0.799999141349069,1.43864130112782,1.07672399874242,1.19971163720315,1.31540639128607,1.40968930734819
"58",1,5286,7412.84959759224,1.55844840081537,1.51303575829999,1.61187510537065,1.59865251932741,1.54333274656143,0.580236020067629,0.248758008516366,0.441850580017907,0.428186561556876,0.501544972371012,0.712428234229856,0.256831329809485,0.492538362633146,0.473819994161899,0.579732594814742,9.32890713974149,4.04227347194841,3.81070757992218,3.96362647173467,4.06481699331778,4.60629854795317,0.55857639255925,0.371541420620949,0.0903251305530844,-1.04985517158404,0.73363164993592,-0.659446130875217,0.920998293646201,-0.721905262573978,0.935055370111365,-0.449023798247193,1.09844507278467,-0.833888856738729,0.816309450955691,1.50755398892787,1.06596233197171,1.24259403866534,1.22450538686758,1.33608988149063
"59",1,5291,7423.92030431764,1.5960400548197,1.53763879569286,1.6279956171015,1.58208056626299,1.58806184491051,0.438620181016029,0.222660555558819,0.457014339485235,0.364508692493546,0.516690545905638,0.488075645768526,0.228394154665096,0.513811397404242,0.391439753165916,0.603489030007745,11.7147588635232,3.71300302868233,3.51830014253578,4.43795727931113,4.40980647318169,4.94433416919845,0.497566183440728,0.491824424944935,0.0903998799996678,-0.946055990615639,0.615650975765435,-0.76216786636218,1.01416609607553,-0.665526070348847,0.871600793794872,-0.313770524560818,1.1387670147457,-0.883563554943464,0.768782961844114,1.23821783599236,1.05216388988518,1.2640021521025,1.15322508035859,1.36419900933969
"60",1,5296,7339.85422580063,1.5336752541453,1.5132463774889,1.61423189069646,1.56429024524529,1.50792211915465,0.47984499307117,0.220734332094008,0.468129995330908,0.42238667743004,0.387004842948364,0.546923346097168,0.226316665570959,0.52976280651024,0.465996626636746,0.41970958686856,9.21238865516751,4.46127877890113,4.20551027030445,4.53293122426381,4.18101865105024,4.24353854620311,0.489298099984482,0.408888508109244,0.121123686650796,-0.856128099323584,0.929699135690999,-0.665056044315841,0.934191494346191,-0.661672206899116,0.8504364631807,-0.480896336395044,1.16469547227721,-0.946343417271298,0.790391523798072,1.29912514650612,1.05121923311516,1.28064863116161,1.21715285603683,1.17615613730938
"61",1,5301,7585.94964659374,1.54315899934481,1.57492026058554,1.55944969061114,1.55159856774978,1.49560892688426,0.461142994039292,0.289363494453573,0.37572833112738,0.381576216966219,0.385951762374868,0.519699726283365,0.302295929099597,0.405434582416559,0.412810544655457,0.418367294168205,8.96807851292618,4.32010397778647,3.76750245532091,3.46710482754452,3.61912215617192,4.34926285045101,0.458749526850858,0.457643556159093,0.0736618021377939,-0.835040655376954,0.75811933448356,-0.603210593773881,0.945422322194369,-0.743960828041737,0.905865853430129,-0.576452138762437,0.952521951140439,-0.907297933535132,0.859570021139049,1.270087805499,1.09138282875019,1.16437720061929,1.17041254577874,1.17503119282963
"62",1,5306,7572.91960691324,1.59345073482839,1.52789346350032,1.56601903751817,1.53333116239795,1.55550498095528,0.479149756824712,0.258720910922748,0.334572549440138,0.345230470031751,0.413771811569809,0.545894555925841,0.267840306634868,0.355033108967739,0.367846426308267,0.454504191780441,11.591980903345,4.18174262125864,3.39985297646571,3.75678649438713,4.28430598878047,5.01061154121182,0.44224772085121,0.470440946735644,0.122723781465942,-0.74269688983529,0.806858267401758,-0.880604001438088,0.810947232356075,-0.707039522615592,0.866483408556187,-0.644346715979201,0.871511383433984,-0.838379140768957,0.949138073749939,1.29800086618947,1.07173842985826,1.1260485084633,1.13531099334776,1.20657406034599
"63",1,5311,7390.09557789142,1.58321233084046,1.58827764748394,1.57606345401977,1.55111059185806,1.57850419112665,0.515520307084965,0.283816825522033,0.302934686600071,0.351530390668052,0.473570058912235,0.601626708944715,0.295988303644092,0.317871026616679,0.375495861775114,0.537685780374028,9.62336377228746,4.17886458324111,3.5951807109802,3.66797960872664,3.87452869191712,4.42705768178284,0.47540852050125,0.461305112021296,0.0715179284129269,-0.831114143836525,0.909618548300542,-0.864371873937679,0.813037189111088,-0.503912166992491,1.03740786472191,-0.720145848301761,0.917360705033156,-0.722107056642017,0.932671998134195,1.36195469691565,1.08760907589411,1.10104198956234,1.14099714221024,1.28910599841643
"64",1,5316,7454.69337083161,1.5848933723415,1.55168206653658,1.60126310436548,1.60478095065464,1.64643713452045,0.480191276892453,0.275703077416278,0.412964071970857,0.420147178800399,0.568734897811537,0.547436265787076,0.286819379670112,0.453434299835602,0.462994558382406,0.691453437943174,12.605228801124,4.05439937764777,4.0730057924033,4.28979640272447,4.1542342624395,4.8243035437123,0.543963626813113,0.475517527547613,0.123917073404895,-0.765170156619373,0.665946539065617,-0.861071538319341,0.929231608376833,-0.71584995729669,0.895796924358542,-0.534123935072528,0.886392314691932,-0.87233712617759,0.858708710536628,1.2996864650989,1.08226535655435,1.2056026642674,1.21436396109172,1.47810785684343
"65",1,5321,7451.62490531223,1.51294563433241,1.44895389287369,1.5912988278866,1.54745095988599,1.60033669538089,0.418323688488412,0.132014761664114,0.444683960221644,0.363985527408843,0.624315602868957,0.460557746085666,0.133180389674374,0.496472194422257,0.390792063893412,0.799203545178297,9.28890010754425,3.78614821287237,4.32522484160755,4.16105807603555,4.71519057712965,4.93999892823205,0.509772158909426,0.473191704650712,0.0992314599976759,-0.650940901536228,0.817643520786328,-0.834626826278504,0.766917820036636,-0.662051960484073,0.802924538173875,-0.25774884130532,0.999790459182863,-0.908788595198873,0.883295559685938,1.21211343747951,1.01773701619382,1.24648463983445,1.15271843720207,1.63872630662556
"66",1,5326,7508.98301940404,1.55974262709949,1.48342434590621,1.51946844058684,1.51325126342422,1.5946118109509,0.476934352098841,0.223664078331628,0.373000162827744,0.342437717289249,0.581303725715313,0.54262513770691,0.22947759684468,0.402012922052372,0.364473597376275,0.714407345301432,11.7981971017284,4.03047836100392,4.17672034307818,3.93919262177343,3.80663580772305,4.72783685224467,0.503771026402734,0.439980279340829,0.0830223867509248,-0.71343394714597,0.921550368525724,-0.700648708462142,0.958105296613647,-0.712047741782501,0.905036664556719,-0.554259486846688,1.10523415427955,-0.899260806395315,0.858196050414402,1.29444204007144,1.05265996745361,1.16161438949709,1.1328410031844,1.51037785502064
"67",1,5331,7445.07552921311,1.56646442872818,1.48014502237528,1.5528970995613,1.51051243492181,1.55893316869141,0.469664165225532,0.263019353641036,0.409403290784354,0.299866424124277,0.54853075100694,0.53198928634467,0.272618084442291,0.448733173928975,0.314331586930999,0.65603494743544,9.08625333291546,4.24804284966304,3.67867010035529,3.96005089900707,4.26356049956801,5.21475811511057,0.497228379614459,0.448258620089032,0.11273193921944,-0.889701420673175,0.721811412783086,-0.721555256029472,0.792654682840548,-0.667346232133935,0.824176437777093,-0.481986067291697,1.02933355787516,-0.708146628127959,0.900795168982784,1.28301260078551,1.07432061996498,1.20136146138437,1.09880434654256,1.43038185225662
"68",1,5336,7379.43481222361,1.57278743720089,1.53522792438771,1.59424345495132,1.55209929971223,1.56883740748836,0.441054961713181,0.241281947582601,0.425996780148315,0.426754668450989,0.536456116302225,0.491437040462221,0.248627636401322,0.470857920009967,0.471881950983404,0.635665576240673,9.2611302081033,4.02883385309848,4.02554336243654,4.09692392928128,4.32836424257609,4.35222130908546,0.518086396629636,0.405949945868055,0.0585162361257619,-0.74794757739965,0.944996398419514,-0.749193872203897,0.991357927222377,-0.656451002829356,0.854304696787289,-0.463660294651823,0.941224992582871,-0.851642601257924,0.980585290713921,1.24151036473827,1.06181570158251,1.22170718083611,1.2226725756639,1.40407072481739
"69",1,5341,7611.38357464832,1.54506148374635,1.53130828620377,1.62207939228034,1.56450858614922,1.51413044883665,0.509784852185925,0.301479060611878,0.496797175095604,0.436466623069478,0.512850653679571,0.59256504788813,0.31619052093503,0.57243490157768,0.4851135965549,0.597395329217946,10.9917194968766,3.85346382842425,3.64792986279046,3.94779666789797,3.84370237472378,4.88319497979223,0.567943278261336,0.37842368122739,0.0727382894004978,-0.73450553073028,0.799624310430986,-0.590274724662899,0.821520325396083,-0.678751199381947,0.854082801263248,-0.46596239639081,1.0253873752715,-0.711430019527922,1.01467661845266,1.35113333597866,1.09997644552917,1.32768171654425,1.23533520156243,1.35688117937142
"70",1,5346,7391.51558868494,1.56313270384942,1.52728415808292,1.68744818330677,1.50521631079328,1.59742831703401,0.375147123625367,0.241268377250935,0.587048756184292,0.322906838066696,0.493249752385292,0.404704610367056,0.248612788608051,0.725153000685155,0.341183796463941,0.56702690380916,8.56574648672036,4.00991950964241,4.31251573353008,4.28018137962098,3.98313041983997,4.51037353626457,0.511189385900331,0.428229741426885,0.0758544552962736,-0.839689301764357,0.809265180094801,-0.847476553624898,0.852067246445796,-0.603626875308519,1.07008456305414,-0.372321024013278,1.11490452138867,-0.625083515304683,0.969459841884181,1.16378582165235,1.06180831865947,1.52584687440268,1.11640638296955,1.3215195096434
"71",1,5351,7422.26602247356,1.50360566206221,1.5407998288115,1.74388575655538,1.56028163207747,1.54516627646802,0.368576888997744,0.307401643216448,0.616823477159198,0.360931952216026,0.450280733861324,0.396490934828221,0.323043452445555,0.783664449700644,0.387020146623857,0.50429753735785,9.0521491700355,4.13031461457116,4.03404268024313,4.1600663997564,4.35211357869253,4.2438875509724,0.534177810480031,0.41283786095731,0.0639652615233366,-0.708933345141223,0.800265582691895,-0.6603626675992,0.828153636844097,-0.688248915513058,1.02946116748448,-0.490554954166048,0.939914021024246,-0.889488194233198,0.87463723707763,1.15720506140096,1.10435707216794,1.61412996972461,1.14978459389275,1.25431600618519
"72",1,5356,7393.63413732554,1.5640838351929,1.51125806417267,1.68691078301559,1.51154803909231,1.55213280187153,0.382689729955739,0.197231236745196,0.664096846607344,0.30918791439695,0.516651684911764,0.414221548390073,0.201183076763128,0.888249718981418,0.325118402704756,0.603427112615798,10.9840708137369,3.93816058648948,4.15947153513765,4.31508960986205,4.26723757550957,4.22557645346486,0.541939814519544,0.379689553609469,0.087540716900006,-0.677661060888017,0.836380476438397,-0.666326178050193,0.824339249444702,-0.588792831604694,0.848986068089062,-0.538209548634826,0.9359062018188,-0.891535466383612,0.925307338428708,1.17157949115067,1.04047463037588,1.78898756327057,1.10570197577729,1.36412428023984
"73",1,5361,7375.86984347733,1.5425927148454,1.49533884941033,1.74094186824843,1.57282576917127,1.58428581636289,0.417174750259858,0.157987634383912,0.681764561041513,0.338619599226167,0.550928696998363,0.459025838332953,0.159997022495612,0.931917684824214,0.359880107217365,0.660148783215788,9.93086367524423,3.73419428078299,4.38285887929078,4.32048101187905,4.456303338233,4.88723344768649,0.569332469785908,0.424357412075365,0.0895725284524383,-0.596426118859016,0.829599156252558,-0.65282093141327,0.905930853285549,-0.719184247589567,0.928417452142334,-0.36243231370882,1.00353707472283,-0.86571826737743,0.936539255239216,1.21070472025727,1.02559904720746,1.86847057128812,1.12951369157078,1.43579641598129
"74",1,5366,7453.45007344179,1.49725208705292,1.44695521028878,1.74103637824663,1.52356463783305,1.56020706035567,0.358618858433558,0.0970912190451658,0.66917628333539,0.391812436731645,0.576358386498329,0.384172444759328,0.0975521052265843,0.900515348876517,0.425862199756905,0.705286919530139,9.50955315809204,3.91077417065967,3.77703113085685,4.64004697885236,3.63998339689694,4.90946700015523,0.558191653420842,0.388023443377752,0.0874690504695453,-0.697897990973068,0.984000804240671,-0.818421330483348,0.766449446962401,-0.671882811022674,0.894320299612629,-0.456579127755644,0.988933346910516,-0.841423221430726,0.897149021700236,1.14758846731236,1.00951641323414,1.8109278935622,1.18135861318179,1.49742963886031
"75",1,5371,7424.64387861333,1.45952216614708,1.45723609904578,1.76056174757282,1.50459934076154,1.54206182905643,0.411165002070578,0.16333614868826,0.700004555742832,0.325375586449567,0.533088251664523,0.451055969576426,0.165559534563955,0.980208567399589,0.344099826638901,0.630083537734826,11.0377158306741,4.28606348683487,3.94008912023802,4.54306051770007,3.5230544896893,4.71769903245513,0.569339717794394,0.383364061734053,0.06602473726922,-0.737294734478298,0.91881836409307,-0.620456967913931,0.909956558722845,-0.748024899399284,1.01483110306082,-0.560162790246694,0.770390703978469,-1.01577690912049,1.02911795092027,1.20345148769053,1.02740995948503,1.96080883560355,1.11840469069292,1.39700526452443
"76",1,5376,7437.58063806553,1.50875157819543,1.46798000811156,1.72771915651959,1.51404852121393,1.57388382174881,0.428697597881164,0.214847847160211,0.685656348876159,0.377754224817959,0.496726676751585,0.474512729724936,0.219985040692354,0.941932181091,0.407983384294005,0.572327059166752,12.218917744585,3.79991991711577,3.69877444530993,4.48631821186793,3.72269502924828,4.23826226923358,0.577963990566507,0.382832328518991,0.0699650070286246,-0.818666871807065,0.947529538080059,-0.618123658915056,0.851528750903629,-0.713133123189206,1.01575768553693,-0.615310689604808,0.992785681125532,-0.850498448128814,0.873578326105307,1.22516233067101,1.04839341812842,1.88723623377485,1.16645044185999,1.32755826265446
"77",1,5381,7378.94421019405,1.45759982982268,1.49081461065285,1.72276048837838,1.51593220925296,1.5468465779036,0.304362545239457,0.161610841390539,0.663394947420268,0.365246201881939,0.484438425816749,0.319521854937846,0.163763584658989,0.886572294060899,0.392353531433666,0.553754437880952,10.2433004160045,4.28890027081837,3.77743053649171,4.53685895261191,4.08229003674033,4.65645746397941,0.517546688817916,0.416408317045318,0.0793683368466104,-0.742049097076848,0.862505521801637,-0.609913649998833,0.867254260845097,-0.760436797034086,0.915764769061569,-0.617259721720596,1.01850806170877,-0.73471297049463,1.01312534117961,1.10209421578292,1.02681851166036,1.7860104325964,1.15394129362847,1.30664397747285
"78",1,5386,7342.76863857967,1.55168716296062,1.57062331512078,1.68765300346239,1.58851084703101,1.58975465247333,0.398852193909402,0.285618640601637,0.606489533120641,0.400233699563786,0.522834716429862,0.434946096816067,0.298033724727047,0.762792151269848,0.436739387269055,0.613343282745595,10.7273839833637,3.80256203532609,3.53148041388413,4.53703014299345,4.43970527932903,4.72398931650618,0.564512122944138,0.463109653028505,0.0799042391900049,-0.652817337539827,0.874579642124406,-0.773019126597673,0.798748203754488,-0.741370163739007,0.976041372263376,-0.353812320993805,1.11368368343777,-0.705609193987816,1.07455271281162,1.18917810713553,1.08882410107468,1.58185186603888,1.19074129239215,1.37618998248914
"79",1,5391,7402.46902259244,1.56263950270271,1.57924624127535,1.72533786864396,1.59121853442129,1.59672459820425,0.399450274694631,0.306546782198826,0.535652520594287,0.414960117151974,0.53210780747231,0.435722013597695,0.322051773804588,0.634329820062798,0.456080518245756,0.628466407888496,10.3783122708679,3.81197090700672,3.69755518513666,4.46078074466541,4.08872099620222,4.30928858573695,0.550916941337834,0.499331130779708,0.0565845195225401,-0.668696629007336,0.970248905933477,-0.599735999726414,0.813241758930934,-0.796670430689431,0.719108987736444,-0.487751117554142,1.21676551795822,-0.747793219813564,0.97660709155543,1.18985367313363,1.10371734501068,1.4023743206209,1.20800943912332,1.39497002584427
"80",1,5396,7481.13840700977,1.55901538980075,1.53496587226707,1.66766978055831,1.51883728551456,1.59973006982634,0.399466400210976,0.330209261429811,0.553068163841849,0.371394141176256,0.543150019239835,0.435742943102652,0.349832132266088,0.66383898811367,0.400004328813783,0.646887738712673,11.1484723938899,3.83611384039983,4.25161730292877,3.88485257239361,4.35604624574937,4.81134349643428,0.554825243388124,0.531611053045745,0.116417708376387,-0.798855146670514,0.704658449576131,-0.777974033761286,0.951482459660379,-0.768683114688398,0.845558452473307,-0.581698849383397,0.991945021990603,-0.765740769509636,0.832337569856931,1.18987191246376,1.12238252076584,1.44068220213978,1.16000346306976,1.4184637464968
"81",1,5401,7499.72530658227,1.53927684061536,1.59324040448243,1.6639972364756,1.56918523839649,1.56087636446836,0.44931604186923,0.328530323949985,0.483270953169091,0.404314988216725,0.530266029544337,0.502943456463062,0.347837598358196,0.552012623308895,0.44205798450557,0.625438127197826,9.77509734291439,3.82395219324562,3.91349658308955,4.04583273081675,4.18733033539498,4.77677101255787,0.549644150477944,0.507211403980264,0.071601060568776,-0.8039179249801,0.749965605652031,-0.733759316400698,0.757102643239707,-0.910065436771776,0.872911441082178,-0.53419195936889,0.887186418873471,-0.866002963720377,0.919980382774001,1.25295212039901,1.1209909948316,1.30471793629237,1.19541526166513,1.39117285095272
"82",1,5406,7375.124557385,1.48348527647396,1.59327674901616,1.6316780837015,1.65732706070444,1.52927043063173,0.326008105389968,0.327399383187169,0.509734631677746,0.452867739207475,0.433739261996923,0.344848206476996,0.346496155643844,0.592486178969871,0.507939728360325,0.481377095010256,9.5706031150363,3.44159176237473,3.79403757388299,4.41677916521362,4.07051504721145,4.51576058729944,0.508222468230181,0.476201329013971,0.0706378971215441,-0.831051953511014,0.908552602505818,-0.758753736391615,0.769207647044689,-0.67180244477699,0.805812455962881,-0.32396361370524,1.1649637392713,-0.827383832585812,0.774549465164369,1.1189202855104,1.12005958587596,1.35103987227032,1.25800276764676,1.23172390760051
"83",1,5411,7538.43442394606,1.5496324977527,1.55911014426303,1.60389709057245,1.64425799837034,1.51050854485213,0.277435961803171,0.329027226719136,0.497928268653461,0.502920152584312,0.399431530775056,0.288771955584845,0.34842751941209,0.574167213942234,0.581859335317321,0.43569768623992,11.6301041897182,3.68981803644531,3.76615019167325,3.56581620543655,4.26273158516489,5.19449646168775,0.49839994131862,0.493790207627683,0.0735154661405541,-0.676243133644925,0.81448514489863,-0.79799238395045,0.894193666083934,-0.763162001509379,0.714558111094017,-0.491828264190076,1.02203584481442,-0.769396065589317,0.834943706375946,1.0833892423323,1.12140173628366,1.32966798956619,1.33856028609592,1.18983247379482
"84",1,5416,7419.8218826839,1.5919024417943,1.57134439555444,1.69739592058234,1.68052357995607,1.56988968880275,0.366205282727896,0.348021317989905,0.499058705363769,0.50895217527792,0.40813518504574,0.393543113609026,0.371228037451759,0.575902413153824,0.591258423956993,0.447064926922,9.82423406696726,3.71512136138295,4.06436085157697,4.61183978251566,4.14537375136227,4.84867173935719,0.530940405512244,0.58836239712242,0.0650195389342235,-0.866681475216621,0.742955195903268,-0.887137222073916,0.856317528102586,-0.668103869608948,0.743237126231317,-0.536489715070604,0.875248896112353,-0.613796095699358,0.782376288551471,1.15487618226909,1.13781025579028,1.3316635894764,1.34958652390011,1.19986704888377
"85",1,5421,7539.21849554326,1.64680784965172,1.62934777622264,1.67006160864711,1.66569396063936,1.58797538865253,0.45115155107731,0.30253287996682,0.431226195825065,0.49527624858459,0.420773924610525,0.505521753789736,0.317406900862955,0.477948611104484,0.570111646255922,0.463833676740629,11.205795098679,4.01207705229756,3.65413731658506,4.16916126599141,3.66983890645556,4.94068092581424,0.521595033737817,0.670509483039394,0.0813027231988615,-0.777608268974446,0.798921490430477,-0.75902934058,0.815606412183852,-0.595695477882989,0.875148587036033,-0.515282146056394,0.963378817529931,-0.706871957596579,0.886333859162133,1.25555224355465,1.10074714071543,1.2284348748567,1.32502728919664,1.21514167967873
"86",1,5426,7477.64416409632,1.69079272924472,1.59852392188128,1.67167905728261,1.67564410634338,1.65014613575432,0.44233642535254,0.305904778864903,0.382120480381048,0.440144876620054,0.426977154812443,0.493211596280011,0.321307585727003,0.41349995222988,0.490179032883316,0.472182797021755,11.7541644018463,3.93135794118929,4.14628851727036,3.88542070400886,4.40926466334002,4.98238856418055,0.489679730318628,0.701098086874726,0.0886796254541058,-0.851705153892392,0.724914547300781,-0.665169268685322,0.873894389158235,-0.702749559439923,0.831582239301679,-0.643662790121285,0.957820885495663,-0.775582471000859,0.930318094376445,1.24325767870508,1.10323856464572,1.17098221049411,1.24027548427842,1.22295659380329
"87",1,5431,7613.36218299709,1.64325940309283,1.63737048699358,1.70695867053749,1.71535971337403,1.61204523318599,0.445773816072544,0.364824522191699,0.389818442513364,0.415952467560934,0.410317005375615,0.497990270482223,0.391830963759015,0.423305399550399,0.457399063394138,0.449937139873647,11.9725144581282,4.33887094281291,3.80596358171228,4.06767837553796,3.77131298603924,4.75735708419625,0.49649840879587,0.739748264487668,0.0383140442867707,-0.647255471854816,0.82037374862571,-0.6014140947117,0.92636456414355,-0.689898023752985,0.789218517276629,-0.553616956285031,1.03421461947466,-0.712646546138368,0.822070516550199,1.24799430949496,1.15353150416032,1.17918746128852,1.20921390319383,1.20244342983768
"88",1,5436,7491.30045158987,1.63623754668882,1.6081475739777,1.64875913080598,1.6807269334147,1.619428266717,0.442864704857488,0.336123525409785,0.408235790777167,0.388590521131631,0.486775216781237,0.493944243440729,0.356888016067404,0.447197164386006,0.421734394004398,0.557252457352558,10.9204115104623,4.43473317267884,4.2470808266735,4.18097853452772,3.84429101455371,4.21000532636712,0.509072493381642,0.639660671627012,0.0760476718143856,-0.739883927500955,0.857949744494485,-0.60888303891266,1.04500313318537,-0.548722489573939,0.865399239602273,-0.469452696999725,1.08905528303137,-0.669222332646895,0.727103260390599,1.24398091562823,1.12736905601253,1.19998530383488,1.17785989908626,1.31053030122546
"89",1,5441,7544.14047758129,1.62079531557929,1.57257388279643,1.73752384392838,1.65833561086328,1.63820116380817,0.394432998140779,0.269779269918716,0.472902361815249,0.417242929238754,0.423772560333373,0.429233207908941,0.280167258058998,0.536709112017703,0.459116668535095,0.467859610880465,13.0117611177074,4.39027550979428,3.42153026000618,4.58657035961736,4.36555754710034,4.94775037636161,0.485718513359275,0.784835642487287,0.0820870228315056,-0.795288184048687,0.931881284276732,-0.750777619197833,0.844490178892332,-0.648118537048872,1.05116064586947,-0.478681962610296,0.942282042792613,-0.881557006128929,0.761278070287216,1.1842411467718,1.0784936924883,1.28805667092283,1.21078811532676,1.21889261549322
"90",1,5446,7430.10925397916,1.5933289456458,1.57285569763661,1.7438853553615,1.61078329241363,1.68664487432075,0.358830017466453,0.260467549205903,0.434079895455062,0.344243662806733,0.453459025596995,0.384432069188161,0.269779640275451,0.481842869782316,0.366653391941106,0.508774446566254,14.0677521375489,3.98085059244924,4.05243918448946,4.54757528000549,3.99442334217067,5.07329643246705,0.447273270180399,0.779244515814736,0.141937962256546,-0.709419700012222,0.731317108663213,-0.737926928092377,1.00501866924233,-0.670548585738135,0.930668853190995,-0.599364063053319,0.84133922458213,-0.696252796772835,0.824710595134081,1.14778801582029,1.07278105430715,1.23217255116006,1.13443470982192,1.2588514374788
"91",1,5451,7542.6950106776,1.62571533837166,1.56013270918856,1.79612789242257,1.61523297839962,1.7491657807368,0.352158483932837,0.281927640474904,0.490661383195113,0.355020896184985,0.509034043477531,0.376261661527615,0.293847361723194,0.563104601270568,0.379759019485931,0.591386790834089,15.1622392065118,3.88148599856926,3.53124915744525,4.03697643678014,4.11166037520974,5.54076891142281,0.492859487857609,0.772628037026654,0.122347022282561,-0.772177851463024,0.950705710241273,-0.862085939580125,0.799801463245205,-0.657556136280043,0.843852964215506,-0.631739606139851,0.863633364562597,-0.728073873217064,0.871160653561888,1.14157283793552,1.08634627199168,1.31708679197209,1.14421691288092,1.34973833637304
"92",1,5456,7498.02979512792,1.57692427739623,1.6348235205939,1.81236718108641,1.69455589946813,1.75709014214804,0.290931206786849,0.271398859225562,0.501170928080453,0.429976062516523,0.528700570961086,0.304084702400141,0.281982518904517,0.579155146209899,0.476248200511669,0.622873864855036,10.9336015975679,3.65418092633772,3.71677881502316,4.8841115599753,4.03498069611833,4.37246712487121,0.506282832899423,0.744995822730871,0.0863194313641191,-0.617295545261353,0.801838298000792,-0.878795338563256,0.826846297045555,-0.640787856809009,0.952148534967598,-0.606111626964876,1.07284998873485,-0.697157238281406,0.938925597112781,1.09246750623378,1.07951414096774,1.33542068338141,1.2268123484906,1.38797185151945
"93",1,5461,7489.34224573199,1.62931387188123,1.62172696611864,1.78641145137185,1.69572138871187,1.81038496247086,0.385259473233008,0.252566747018413,0.502857946836364,0.362170027104071,0.552883778905234,0.417485926185273,0.261029459422104,0.581763005631874,0.388547736917354,0.663520214738703,16.5911775714673,3.46776489222123,4.47618880047957,4.72678337322412,4.17708489701576,5.74091022025701,0.516765605164809,0.798468836097401,0.0880632752365091,-0.80271358426435,0.876486798636893,-0.826267819680165,0.949535701239616,-0.725308874042862,0.947475268274737,-0.423456240621851,1.04331623203237,-0.788407561551878,0.928809547953085,1.17429449856277,1.0681363786862,1.33844819472183,1.1509693438636,1.44025907536689
"94",1,5466,7495.53279746463,1.65794840226729,1.66652282378948,1.81443173513487,1.68531520153895,1.79842857243387,0.368057554665594,0.302615124731759,0.522224055977128,0.399150249152782,0.579883483128054,0.39584465839504,0.317501886394368,0.612358066922452,0.435332694504557,0.711775985639851,16.1962821687015,3.89022692781254,4.03889949220037,4.0294276267144,3.69271514451251,5.15425466192063,0.550149576109095,0.773040102914222,0.100658982358036,-0.646420370683541,0.684317182770232,-0.674752072489124,0.72969700763551,-0.645769146587359,0.890856817586569,-0.553956359243827,0.945317950510479,-0.854102598330061,0.990522274390259,1.15669299357989,1.10080744786398,1.374982402125,1.1895145549046,1.50662505373358
"95",1,5471,7475.94546808949,1.62657394963764,1.70830343342058,1.72701072777143,1.69280752099597,1.79164912990295,0.381182309006823,0.375535503768637,0.459550242195169,0.421591702035934,0.529807173072777,0.412311902874224,0.405192337735454,0.517423097366074,0.464929771653634,0.62468558973605,16.6334718740637,4.08248675926467,3.51886074784791,4.10831405900254,3.88586138782911,4.09257164380942,0.540373892829043,0.832707301188186,0.0903819869259576,-0.802113404812138,0.71597979790093,-0.871581819121332,0.998695365894063,-0.757614692768193,0.754467687500383,-0.760111988482173,0.928570684765172,-0.750583733541818,0.93308015326027,1.17000110525176,1.16418083055952,1.2677266616879,1.2161596925699,1.39023208602388
"96",1,5476,7496.47194898069,1.64219009232919,1.64447473096115,1.74131380901766,1.70089265345874,1.73692200473188,0.335613925865041,0.295804787897845,0.438107206161465,0.380865552796139,0.481985365147454,0.356278194913268,0.30966268498521,0.48736914882805,0.411911116861536,0.550099030351121,13.3598885963655,3.62012184099941,3.74079608745581,4.20603243286192,4.15100935447454,4.76075768875282,0.472272091008448,0.787832999537034,0.0787183352388691,-0.675611786274286,0.828710829106539,-0.774718329108109,0.841931398200078,-0.686062228480519,0.748057691323096,-0.590283116478904,0.97770587321129,-0.80367916505363,0.858420891119451,1.12693415217066,1.09589097847225,1.23752868722938,1.16967076819412,1.30260894319324
"97",1,5481,7467.55413584342,1.59938726838498,1.68997074495543,1.78771434346197,1.62099071294322,1.70923563914178,0.268926671129263,0.384517638513136,0.470171781676287,0.365946864319824,0.486871408735144,0.279212683773869,0.416542399319231,0.532727329000266,0.393222445765524,0.557396784931593,12.642454926207,3.98351685884117,3.83821086527146,4.41871232969564,3.44570114532181,4.55464790599368,0.487099736165549,0.79659066163254,0.0336582444547958,-0.802092861537258,0.870282198705922,-0.678803546192731,0.803670046730512,-0.769877355602667,0.83075348898221,-0.52178588025466,0.988265682796773,-0.624530828955736,0.944208441840376,1.07795972278021,1.17350757043062,1.28379840706376,1.15462389185382,1.31069117585208
"98",1,5486,7394.81915170416,1.60165146642888,1.64424626372239,1.79613074191107,1.64417088988372,1.69578864145085,0.292570158146483,0.291326897882049,0.490010379570005,0.334724074430164,0.433453861919955,0.305957621427935,0.304536611455414,0.562121199106911,0.355214183390553,0.48098704090764,9.37170903298104,3.75604322794937,4.13804411625642,4.90746534122218,3.56967947342011,4.59256650586969,0.446617660426975,0.805985201370041,0.0800152030857606,-0.762146298881228,0.786337636366694,-0.733542364552704,0.954204408567061,-0.638667769227951,0.840167589222814,-0.405471367001862,1.08269085163658,-0.572224783687104,1.01486961306975,1.09361006610984,1.09274254771675,1.31598024248539,1.12617711608182,1.23134853352109
"99",1,5491,7559.33227339306,1.53644170247675,1.62017928864546,1.69745170223847,1.57638531017169,1.56965359254681,0.314383797299999,0.37578358636437,0.436253448993584,0.365020041021996,0.363362984332359,0.331175744020036,0.405504009629955,0.484820954486252,0.392073226371202,0.390021898062993,12.5857412782332,4.22416767057774,3.89694072342371,3.89616146893672,4.08729609212186,4.86329855555224,0.445331683273802,0.75862602443787,0.114022412409333,-0.786449947674491,0.728895032727389,-0.573632620399815,0.909990632465557,-0.658284472864576,0.795445857286003,-0.434023703599653,1.07961988653292,-0.694427089842257,1.03922468612567,1.10967737342722,1.16443350182597,1.23505135790896,1.15372141483712,1.15211708096866
"100",1,5496,7521.12322759907,1.45996222574741,1.56947283713216,1.6682785027866,1.63549930939889,1.55364559791313,0.125369115154689,0.341452905985922,0.470058928695558,0.435623989797831,0.378891081987358,0.1263661226638,0.363286850994689,0.532563189194929,0.483957430615725,0.409416667956852,12.0150503208937,3.94559455923274,3.60678472719044,4.72236540446723,4.57952730760956,4.194383880951,0.423264542862924,0.480101906762182,0.0864060228634273,-0.867712759831925,0.687813319833812,-0.943726547731108,0.821340160466709,-0.605329494821519,0.661046386287203,-0.589657405649309,1.03071931433899,-0.892706535075854,0.789386672372311,1.01596839695708,1.13197733610564,1.28362355048547,1.23421479464817,1.16762200800089
"101",1,5501,7546.55153950481,1.56107109896447,1.61196082285431,1.63519661324451,1.61414266220603,1.50438849127086,0.302697083814761,0.343555843809712,0.504614277619797,0.419234164613032,0.38900382238584,0.317596549754829,0.365822645284162,0.584487465812272,0.461773608832851,0.422262876340301,9.30833116647827,4.22789860191854,4.34905788117368,3.83715348606645,3.66579767829881,4.38552633443607,0.480835526476028,0.48616910358136,0.0590683397470171,-0.70880064428503,0.747124114529319,-0.755200673081904,0.806605135032885,-0.683439881953224,0.773789905150182,-0.539480583804951,1.04224243510181,-0.838408043704171,0.866965982302957,1.10086756841617,1.1338262078027,1.34162559769165,1.21323486581451,1.17830593673518
"102",1,5506,7508.80621278738,1.5324598624589,1.63891807214663,1.62923061178247,1.56718041705707,1.55060300688537,0.336226513447632,0.409649711446723,0.403466543217876,0.344575984352532,0.422633291116696,0.357011301389942,0.449057712742389,0.440949741405919,0.367055009173392,0.46632784734302,11.3278903226619,3.88515118237963,3.7668089657481,4.11075442283866,4.05940806786255,4.30318964644988,0.463983489077802,0.511420703346694,0.0906834084232427,-0.795099888994919,0.68360235041488,-0.679262948817699,0.722763855735509,-0.759969677520143,0.760947446825925,-0.568720186901125,0.840754533123689,-0.848081322443372,0.833305320874826,1.12745706932014,1.20165282937343,1.19443667444595,1.13472937975928,1.21746166120758
"103",1,5511,7507.96399157553,1.51512111584556,1.63188483779468,1.62303609862686,1.58849826846245,1.5725350667496,0.318221215893971,0.382715006930808,0.393615253081222,0.35995456994964,0.457022746115934,0.335670550658715,0.414253602972522,0.428179962498023,0.385815872681477,0.513823344073846,12.8880966412861,3.56014136250211,4.09631449937097,3.99124275082696,4.1746572631267,4.65566709401291,0.463347570555123,0.566328318347399,0.0531225519467784,-0.796766146821662,0.786860450910879,-0.600125256241562,0.954825808151797,-0.605397622537051,0.833877172212393,-0.527153492604083,0.982163229742601,-0.857236139240224,0.879973398883643,1.11267471857953,1.17160604757572,1.18333808028481,1.14885388761297,1.26401442891523
"104",1,5516,7504.81476039261,1.62830862422949,1.66048710121984,1.62214081325088,1.65001892285738,1.60948612599727,0.399712561915804,0.361019638719612,0.291290063342475,0.381677713096207,0.388499062467045,0.436062499160959,0.387128260438079,0.304494536429977,0.412939069612762,0.42161748767003,11.4097515553484,4.39758416720236,4.41955845943099,3.70235670991694,4.318222676689,4.74838534189147,0.435053341851281,0.71666094137749,0.0801925161949708,-0.731385090297722,0.857570516518426,-0.750344618129818,0.842683584333108,-0.449661299831795,0.819850236935499,-0.429880375988744,0.961036534219977,-0.687739694276445,0.865480163056354,1.1901505031745,1.14986829002981,1.09271692271571,1.17051867521265,1.17776130590919
"105",1,5521,7557.77396200346,1.63186802328188,1.67366710049415,1.63409800427812,1.60979214246174,1.65578867182355,0.450692700187208,0.382668865540669,0.338362825958979,0.38661722085889,0.415863973942638,0.504876464376023,0.414195090344451,0.35957191398289,0.41921528630522,0.457281401006185,11.7963552957179,4.53531654426627,4.09158519125508,4.5228299834529,4.4040753384628,4.76354362993747,0.481576745744171,0.737454330438438,0.0684423962286611,-0.776993068860309,0.891501912673148,-0.793944691974834,0.85451996610739,-0.62984770153772,0.903812652485061,-0.492370054481821,0.823174754457715,-0.668097668650717,0.782109361083509,1.25490024428083,1.17155757286545,1.12929196132532,1.17574145627197,1.20910627970618
"106",1,5526,7526.73176300031,1.53312588057141,1.71524034445567,1.67947125566828,1.53787320164191,1.61557632735933,0.285018463738747,0.48488941994558,0.413384825032896,0.304535627593004,0.424488837350018,0.297352023065044,0.554428333869106,0.453991447251803,0.319722126233391,0.468824040241736,10.5472999994376,3.84498356485026,4.31319097551301,4.17241259486092,3.65283571927626,4.74468701327477,0.467301232339152,0.739504955726792,0.0447561169398293,-0.699806277839492,0.835595235286354,-0.688596051567683,0.975248404465372,-0.73287739428907,0.721391839604569,-0.48532662325875,1.07720866813269,-0.884382049574797,0.896193149421254,1.08841822562087,1.30739077739687,1.20610823417779,1.1022222380032,1.21979598070859
"107",1,5531,7531.22600423127,1.50353837602283,1.61595864241561,1.64948053804976,1.50382698142901,1.55910130144861,0.301951365280945,0.372378955821007,0.439590111104098,0.233423707088152,0.391681124733037,0.31673552459336,0.401235504896777,0.489413102060121,0.240055203402133,0.425693607567269,9.87398684665036,4.15524261299958,4.45538693992776,4.30174359653555,4.08109384785278,4.8864471341011,0.412361126179328,0.635636981545333,0.0483848479073294,-0.89655036010533,0.673631853720931,-0.828009099697211,0.870732508670467,-0.788216710446626,0.832726393108473,-0.347647227107779,0.990282627078254,-0.81473724780018,0.882446519681877,1.10032139253943,1.16098993038977,1.23952518446811,1.05762650068044,1.18121504752364
"108",1,5536,7541.99809295905,1.55610466116303,1.65265781400983,1.6230822405478,1.50546097895806,1.59089435434055,0.396612953811945,0.434996240289641,0.414077758440586,0.259936722234808,0.450886511615622,0.432046877312229,0.48309712490161,0.45490977178304,0.269189951207428,0.505148963187986,9.98118972495653,3.95206479323986,3.90216272735754,3.91733323446674,4.28045873346631,4.73936907604454,0.479080932180258,0.571608704754548,0.0894114963635137,-0.701391125907958,0.75095622974319,-0.845484739763074,0.802467293279562,-0.703365524555444,0.70024452559457,-0.441556234257646,0.927460658922706,-0.859777661059282,0.866586299304681,1.18666450419525,1.2333828320882,1.2069429004637,1.07246322983106,1.2551754750099
"109",1,5541,7419.06243011266,1.56149650585983,1.59073767501782,1.60629529385027,1.58539673660219,1.60271427610237,0.329364177777669,0.297440260194441,0.308910612682412,0.291591654797952,0.38881127768616,0.348827731027396,0.311540446354565,0.324796037655399,0.304839079167014,0.422016634874736,10.2167028049345,3.93161197864622,3.81478161455584,3.9300726690704,4.10962580640801,4.71862465108362,0.369563449124658,0.668029550759641,0.113522144465221,-0.853623267946416,0.777773681822168,-0.821762405498627,0.733814660137417,-0.628042715233111,0.881642527242973,-0.510759763527391,0.967973126090488,-0.866407355515697,0.867031896383806,1.12168078593372,1.0970574497148,1.10549246607665,1.09292686418739,1.178098040111
"110",1,5546,7553.04456745517,1.54123583410546,1.6513631981752,1.66243194416341,1.52423287591561,1.56309076832149,0.33045700109659,0.407228692892073,0.406648663476863,0.257604215902859,0.453526210383138,0.35012675531865,0.44587430222923,0.445113296534057,0.266601891015953,0.508869344694217,11.6634298380223,4.42176312108847,4.22829536295848,3.92369936486784,3.89369843432728,5.00638473190364,0.44852641764577,0.589536147342488,0.131976704308938,-0.73299657706194,0.807102584316484,-0.783384542402155,0.916672610244424,-0.765068837890149,0.80019555351671,-0.719558353475415,0.738113934590794,-0.833132430981597,0.824814469910166,1.12258874478997,1.1988038933884,1.19812584675142,1.07107656829328,1.25894800996952
"111",1,5551,7402.11019500361,1.53358690996444,1.63104376984235,1.64354525173294,1.54438260239623,1.62380628382481,0.236843268729863,0.32613953387052,0.423514113110199,0.275231347416556,0.483086755194484,0.243779309026022,0.345003774182156,0.467511888133108,0.286288369913472,0.55173816008705,10.9683029757071,4.08933267390372,3.83794034300687,4.01091559623575,3.97643630878878,5.02906141933706,0.417823041393799,0.604255143166127,0.104113414011366,-0.617019817665741,0.795423015382324,-0.781857690986335,0.897348928912759,-0.663704602591038,0.86752631871241,-0.616801517042527,0.84684111380444,-0.860977979933099,0.890752855607891,1.0594283515092,1.11902760419993,1.21856736554578,1.08196103074771,1.30441499729624
"112",1,5556,7492.32079497751,1.49582142904341,1.5971320946588,1.59653252679531,1.5712480024678,1.63105315419085,0.226197597028204,0.355419029034658,0.369687540441151,0.318198546685779,0.553487632505845,0.23221630994522,0.380246431207695,0.397874508577681,0.335643944421862,0.664564709068057,9.99170512498631,4.03952508886972,4.07796826276956,4.25584608674004,3.72830414468202,5.41282570709229,0.447043024522034,0.577999769694937,0.0815588578225084,-0.559969181413459,0.873809080269824,-0.65958152728227,0.793675670140168,-0.656908278002592,0.766791978242252,-0.42668184409121,0.927858094890867,-0.911112536939663,0.964712350695591,1.05392441460457,1.14458734844619,1.15830412457593,1.11265685742707,1.44164625253871
"113",1,5561,7430.27812135811,1.53345226696796,1.6191829338526,1.61598525994976,1.5451149976052,1.73419731064646,0.234999750510648,0.350390097235406,0.343263987094594,0.293399405369523,0.539745608731097,0.241770427199026,0.374107041790143,0.365470343052054,0.306906369317776,0.641158877950048,9.93791090387622,4.19336010299503,3.89263726573862,4.2650262433567,4.05785104141039,5.48243141104941,0.426778703758915,0.617157680982789,0.0916372927444095,-0.618243987014867,0.870431271486882,-0.7348092141826,0.873087097049595,-0.728582305288357,0.741695893434291,-0.438310847924268,0.863362447095986,-0.877543166700784,0.917235440683178,1.058452939468,1.13995607871697,1.13356857165059,1.09419151952782,1.41108470677416
"114",1,5566,7572.17266594424,1.46936610962455,1.51078876412902,1.61097266718287,1.61471555555495,1.7091079250651,0.190092757475187,0.216574860913709,0.396593815956454,0.345400764433186,0.558950155040163,0.193623257846979,0.221840008626224,0.432022138472263,0.368052449507134,0.674082619263158,12.2154909059623,3.64883431308605,3.45970244627749,4.10146015784276,4.02234078437249,4.60455670615956,0.416614733154055,0.557862153054583,0.110006474347088,-0.850650836509698,0.706780051989233,-0.762277204786467,0.808432482052104,-0.616937556143732,0.935647080104856,-0.490945293630435,1.00134556908373,-0.911272173322872,0.759967940184113,1.03748996597928,1.04921298942728,1.18664312813015,1.1354626055882,1.45438737759268
"115",1,5571,7487.2819405411,1.52698473995976,1.46124439685936,1.61239929572017,1.53748328914933,1.6286897968396,0.315624687610525,0.129413457231781,0.454507861888734,0.363323638407068,0.60215086531882,0.332627223778502,0.130510960368382,0.510257169380382,0.389973242337083,0.754213673275244,12.2489323767695,3.63347829845833,4.25045783175931,3.68756978966975,4.02431138625684,5.36898374106782,0.472804886067304,0.487705233362932,0.0932507691424451,-0.841394095226795,0.694927147285451,-0.546868146920268,0.731886384541618,-0.633280415125007,0.865259850770498,-0.508511145860805,0.921916919810199,-0.932722390473265,0.872482703194277,1.11064086999859,1.01703311077628,1.26036237890408,1.1520791297389,1.56883826495534
"116",1,5576,7485.48456592018,1.51612827624505,1.48925165249542,1.59128752970243,1.60760696360859,1.59603641285977,0.354219718523406,0.151154678697111,0.436310432306112,0.470862925417042,0.497994445628495,0.378778898736014,0.152911614350672,0.484899170417482,0.533733300397535,0.574268686890072,9.16679730579946,3.99608354546472,3.88960180900578,4.26703445959902,4.51435988019984,4.33943787302355,0.474452603284421,0.484805471393042,0.0601047757241012,-0.691281149572893,0.821606597083854,-0.693671889419767,0.894644110610989,-0.52670102572187,0.813014593783532,-0.419227845464205,0.960352710883578,-0.852408237159043,0.930729205906953,1.14347345412767,1.02338196180333,1.23512720547156,1.28487123595325,1.32978452474245
"117",1,5581,7464.20474462456,1.5539322931264,1.45735347144213,1.60616289282499,1.60481484704552,1.6787592146493,0.409687355284865,0.0223110072236495,0.446682754022377,0.473209508705529,0.583752153447849,0.449107300502269,0.0223165622958695,0.49925845641382,0.537158240404893,0.718966883361207,10.4327764447205,3.96827314799076,3.61942510125344,3.79522482033528,4.3286233805053,5.11714157521101,0.497924993692085,0.508944324531316,0.0878012924800261,-0.605393863220763,0.785102047228655,-0.800554095803491,0.79879987488416,-0.512670505749909,0.831995531483113,-0.464784124529648,1.07941543292691,-0.939627699403477,0.873430580066718,1.20169736736444,1.00049802895271,1.24925900630071,1.28853897523488,1.51691337937013
"118",1,5586,7448.10924518136,1.59415967521705,1.52588794640657,1.67671326513497,1.63130716806747,1.6152674163826,0.369464715542732,0.15495729217843,0.464726186856118,0.40335793035254,0.571101685848332,0.397596770464109,0.156851879407318,0.524844830070897,0.440807968946845,0.695719418450947,10.4339685825629,4.145022284629,4.33918107018346,3.49542543549078,3.85820194886193,5.18569125905477,0.495452112107933,0.521226520352561,0.0739400352909775,-0.702464278006546,0.862194169999212,-0.559428993511082,0.870628981602112,-0.683896943255915,0.937322724879514,-0.403120382907163,1.03501707789392,-0.806594957239528,0.927431993586331,1.15808319188349,1.02460251207361,1.27546209565215,1.19431166548704,1.48402550920972
"119",1,5591,7409.54260843265,1.55576620874068,1.53775456750149,1.63872216630979,1.63364118301992,1.68100774978151,0.395724868991118,0.219223496520109,0.398454946020633,0.385652268056748,0.575973589632255,0.430899584173093,0.224689134214957,0.434431094390258,0.417985899836104,0.704582169775998,10.1641814439357,3.65255352138447,3.82904689998322,4.05716625336584,4.18161482786042,5.07518619680982,0.494722126914191,0.539782161312649,0.0542631319034608,-0.607313642834806,0.935555688459418,-0.796401951392142,0.757163162256493,-0.582896067839684,0.920581471493973,-0.427407461209652,1.0095501610824,-0.728831867293315,0.963446475541864,1.18567445164054,1.05048520703427,1.18873037577312,1.1747122124618,1.49643603396625
"120",1,5596,7481.22648240399,1.54993403512022,1.60547032751605,1.64358844070068,1.62340124906914,1.69033318112062,0.291234471993163,0.346530548564362,0.345158154673749,0.416463976626694,0.585123984195747,0.304431038847226,0.369420316291949,0.367758951229355,0.458079481312883,0.721534525851259,13.2378405750942,3.69086480029342,3.82852645118846,3.9261150221362,3.6090831105266,4.94940313689288,0.49666983935979,0.529633867976632,0.0813160843566025,-0.670347176488783,0.811064127320513,-0.757020906538864,1.01233494346512,-0.51205624805108,0.76551189466052,-0.422544096712163,1.0329193872109,-0.754209042037214,0.948615375328024,1.0926782574136,1.13647137008924,1.13524664620932,1.20983681119988,1.5206120719954
"121",1,5601,7523.46764458354,1.4679814401313,1.67468410294997,1.60315486791122,1.6197181193204,1.68868361604585,0.335638614390536,0.462892684922042,0.368230572830744,0.434693798016439,0.543514535233531,0.356307730734223,0.522208035112963,0.396059920139149,0.4826829500971,0.647503804350933,10.8591664576076,4.47534699154072,3.93587773785262,3.80187750681022,4.21370604772226,5.31662015277006,0.536302092810193,0.565354069479953,0.13714812897515,-0.82852784916677,0.731270868414039,-0.724618390052176,0.939916506416554,-0.598382110551445,0.788843944808997,-0.466595725151072,1.00035428534797,-0.761850300410174,0.833647862343658,1.12695519898097,1.27270123193654,1.15686346034063,1.23298283031444,1.41926117664893
"122",1,5606,7467.47360418533,1.54277365072141,1.51622627640701,1.55740313602977,1.66579790308388,1.60115404087457,0.303348749695847,0.170816743090299,0.271920045169938,0.498053818636406,0.485447878836445,0.31834950505189,0.173364716128879,0.282567221132824,0.574359738279783,0.555263610109577,10.920774448701,3.5636130972298,3.53463251522185,3.62139219239499,3.97798578593489,4.15977295471578,0.420280005012165,0.51077896342944,0.14773110446894,-0.788817670109611,0.81440190139084,-0.673002244794901,0.837483500860948,-0.570035949687769,1.00173683155921,-0.445298688633629,1.03953934301946,-0.794544552534656,0.755793179211677,1.10134640736678,1.03005532479845,1.07984423445873,1.32988910895682,1.30831767671192
"123",1,5611,7533.59697125002,1.49932621375758,1.5086772977378,1.49536229779719,1.53097247353222,1.525071273933,0.399901842512842,0.212997321648126,0.247006361842455,0.447764400799126,0.489982517919385,0.436308291077887,0.217999810584967,0.25490488064248,0.500770129666777,0.562079139114321,10.3985145392044,4.18009329873814,4.21825096117744,3.76162350392657,3.76188882332166,4.58412765885558,0.437508899308395,0.43242736815729,0.0748826422714176,-0.777523809527241,0.780402016110621,-0.669643165976866,0.837250186756421,-0.529951120222552,0.866987449447345,-0.480903055719499,0.848032628031606,-0.958966132749013,1.02958814854604,1.19036492486331,1.04752391741508,1.06497649817536,1.25077072276648,1.3159329586275
"124",1,5616,7495.88485373902,1.49815554426608,1.48417257924809,1.57195012637218,1.56234607321454,1.57129690821755,0.376630779117289,0.145087692099597,0.376048367308353,0.492569593354691,0.543114795375982,0.406569123475078,0.146639312001997,0.405836772044523,0.565994303459858,0.64682823464203,8.88978838765902,4.10000513304661,4.01377374748978,4.00503025398334,4.33878536811847,4.72248384450828,0.485438395661242,0.309702803718506,0.0890896205351671,-0.796900263236323,0.733590114732275,-0.78190503213521,0.865503897809003,-0.601614003091756,0.86214322589816,-0.574536758164976,0.944900816032073,-0.951614145952445,0.766150231029704,1.16529845216329,1.02150308782442,1.16470348554352,1.32034955154901,1.41838676513012
"125",1,5621,7701.34883648312,1.50793187038866,1.48658280283152,1.58213314007016,1.62948104267474,1.61218225993004,0.314399623156646,0.254646210690536,0.352326076354127,0.518339468424165,0.555153651823018,0.33119424377263,0.263326972760411,0.376466095805244,0.606120967755628,0.667454297772871,9.28997381279359,4.10355583724905,3.95170080998279,3.55533196183615,4.03239462978706,4.39682964650637,0.501895842500395,0.407745016166565,0.0701806627594224,-0.822021397616603,0.666246152656846,-0.734857057097187,0.849372726994697,-0.655352285171324,0.80094084452324,-0.771816820564354,0.90560238923147,-0.997054784785911,0.754278397086457,1.10968962710812,1.06934109458316,1.14172672129084,1.36738262755302,1.44549523961548
"126",1,5626,7449.47339530407,1.50799001407318,1.55376636190277,1.54686968185629,1.55496875656798,1.59394196548177,0.430416408574793,0.330772981191413,0.37358947171592,0.492262221118015,0.553726876398201,0.476846767448108,0.350502650833638,0.402751000340566,0.565528108207939,0.664978950296458,8.23480492992464,3.86535274353155,4.16809625032451,3.33071455860685,3.66176301834785,4.8454188331496,0.547699156502463,0.392241623662714,0.0671464646206877,-0.843945322010619,0.753070616644199,-0.73949535910247,0.982328552074136,-0.744895906317807,0.787620176358442,-0.612917793500502,0.934428709367498,-0.983016160481776,0.673519596075922,1.22738283962571,1.12285210824141,1.16220836827533,1.31982204117325,1.44219700433738
"127",1,5631,7402.13210511617,1.50381076320287,1.56488886520531,1.63855505277062,1.5744901334957,1.51874978617348,0.415597562404713,0.328708779751475,0.506683667869095,0.480183649711497,0.522877777205756,0.45692727117839,0.348049423097725,0.587710051600552,0.547424964735847,0.613412804324058,9.40454856484256,4.23765639867232,4.1561050824662,3.96050038358806,4.25140454583158,4.49354286355371,0.565990586561318,0.344928565802641,0.0614650203753386,-0.761351713411751,0.683460601099758,-0.836660783736165,0.686778231029238,-0.573387896177271,0.810762119469505,-0.47946015733322,1.0751921909047,-0.93850634899099,0.817256786883095,1.20878253114653,1.12113840091866,1.34540310475232,1.29967409201604,1.37627526850871
"128",1,5636,7500.07748476009,1.56700521587423,1.55735939891207,1.66401936999254,1.66339401569413,1.55846189673503,0.333598718397294,0.240777287655975,0.514375498803733,0.530228073531551,0.4439934413929,0.353870106674166,0.248075573736757,0.599809294788162,0.625375849294144,0.495511784142799,11.4576331618304,3.98048780984887,4.49621944584184,4.22645013654083,3.88422863401958,4.37383521041847,0.518984187919718,0.439927820773191,0.0826898516015193,-0.754853264481937,0.792874436598536,-0.814711441357472,0.690456210501965,-0.739985810739627,0.76707845269555,-0.535975680653998,0.97269894705326,-0.900948082097802,0.673739387065904,1.12522405239759,1.06154149028482,1.35977119011427,1.39109495288037,1.24553192822438
"129",1,5641,7529.8849852547,1.56762231564343,1.54576183131945,1.6808694109497,1.56848951732386,1.54729883018234,0.425026360645185,0.247553363374939,0.516297815092435,0.387694499934921,0.420536749220192,0.469548492085735,0.255506182295506,0.602863524225821,0.420589693488708,0.4635160397849,11.5413219747519,3.88152665143427,3.88341939328032,4.04660558801458,4.75943898446515,4.93539619432558,0.494594683836824,0.481001112477346,0.0680859776406527,-0.955759803058554,0.71763240462664,-0.705658563609688,0.885129101998751,-0.648291020451631,0.901340494130711,-0.387364393162397,1.03329715399054,-0.805306139726987,0.917522994187576,1.22047578641999,1.06528340919122,1.36344442884198,1.17689569026893,1.21484711913788
"130",1,5646,7536.41060380147,1.55936076022188,1.51910560010825,1.6493128098175,1.59457587210015,1.58929920908301,0.420726464746665,0.279888305860238,0.519939852631204,0.419986337344773,0.51781211023733,0.463770106909563,0.291540427364374,0.608684269937872,0.462779345704511,0.605278220294602,9.10484299202627,4.37564607005087,4.17194787603889,4.09398791176259,4.04391573393296,4.58142152459449,0.541909706647155,0.411628428762408,0.0784710868245878,-0.870528186793456,0.748995299089459,-0.795170400711294,0.828022974454243,-0.644677194060172,0.83361077074693,-0.434332295570049,0.983030763768564,-0.705102724242797,1.12160438697441,1.21508271206291,1.0849958207878,1.3704965404698,1.2141647228107,1.366361723963
"131",1,5651,7537.50405713877,1.52437524220758,1.5866266340729,1.66327668524675,1.5161327720974,1.51416005430069,0.293014603811895,0.317645606080708,0.57457112742425,0.327448581299758,0.489207528105648,0.306466020934076,0.334995171189426,0.702019501139312,0.346554476230846,0.560910120476991,9.5875510746338,3.78874495315471,3.87107590232648,3.98893605855867,4.26157389073709,4.86867863548194,0.503315601722738,0.412161352444879,0.0602532896644682,-0.674145937529007,0.838463648326266,-0.783952929412764,0.813747624694471,-0.558378349605638,1.06222548941847,-0.603845242585294,1.00920961356556,-0.821820913096724,0.795978037718738,1.09392142198717,1.11222176472023,1.49283137997989,1.12010000499564,1.31462016325351
"132",1,5656,7692.24475411388,1.57008209721342,1.57153160494518,1.68446747459848,1.4991810698102,1.61951554799038,0.437851539821168,0.300722371701405,0.569949207008386,0.227954773954399,0.520843131170681,0.487017251315326,0.315317892916187,0.693638956854122,0.234118716757384,0.610134905773028,11.3104258977134,4.0299813037761,4.81411193621285,4.28581079329261,3.99991944385429,4.38607540619533,0.522748926402463,0.494673898199717,0.0880622538644951,-0.637545241817163,0.900278768984543,-0.740085197972045,0.92333620743627,-0.678766528523689,1.00679988936041,-0.550757770422208,0.904562418506898,-0.694059524972949,0.917310380615621,1.23718580307874,1.0994253735931,1.48113500246567,1.05481157353612,1.37226460324266
"133",1,5661,7597.80549626402,1.62083075595093,1.60197129185028,1.68798929827248,1.53432169571599,1.55826109218015,0.389452828653956,0.320780547684799,0.46190613404409,0.294024402796902,0.430736620149222,0.422837354671299,0.338678505660831,0.520792792046637,0.307621934289031,0.477282296711607,12.8090354610697,3.84455800807352,3.5278880659813,4.24672799168443,4.25487563733169,4.83756764539774,0.460821634157645,0.522173704167055,0.115583499560746,-0.723687286039185,0.828469455018249,-0.777450871313805,0.739970149257868,-0.651384372225477,0.868304112234563,-0.464483930991639,0.906670966297484,-0.84722137447666,0.800995342351321,1.17879142850542,1.11470313019665,1.27122513224773,1.09463125445572,1.22779839075431
"134",1,5666,7413.4215272101,1.57820681711064,1.60207872910731,1.71677438720554,1.55753791532386,1.59470028349946,0.418148506900056,0.343426432553248,0.525486361517542,0.3768961926027,0.470279843781638,0.460323999376251,0.365666417253875,0.617636473305012,0.40690305286939,0.532884532123666,11.8647737326525,3.51992597642697,3.92326331895578,4.36904898005139,4.1182580289342,4.71610958000005,0.531864335571925,0.555093043109576,0.0769735223853844,-0.717128906422674,0.705209487795746,-0.766841446023843,0.836420121877931,-0.645435865062049,0.944206540186843,-0.447617747014698,1.02314477397683,-0.803591989764283,0.805359056942931,1.21189818440175,1.13371192870729,1.38147481315665,1.16557009443443,1.28396592457666
"135",1,5671,7490.30492419802,1.5962902088658,1.59689873843916,1.78200455408235,1.60616762388538,1.61506034600946,0.376437880028283,0.263215488050455,0.517681249962379,0.31091204380591,0.369020448859761,0.406326501131717,0.272836503622981,0.605069244466155,0.327124776690772,0.39704325517379,13.0616960937376,4.56574240196014,3.74980081485583,4.38426925141358,4.11427530523011,3.98099242683069,0.446515196467354,0.715909342411656,0.0524218091212771,-0.785700858661337,0.706668718186913,-0.725392282105399,1.04482696541364,-0.659403171639858,0.940147354955261,-0.362691762474774,0.973594124125278,-0.812912516278057,0.822593337965679,1.16510122552194,1.07443975770921,1.36610879059884,1.10701061952499,1.157643346479
"136",1,5676,7407.22148852066,1.62989239155631,1.55701256635254,1.7921840411354,1.61910424012912,1.59074862376276,0.347811596204686,0.249549594166697,0.543950476499514,0.302610558887205,0.391108111485901,0.370973533677517,0.257702790116166,0.648241268069146,0.317496613037414,0.424958272054067,10.0116168731673,3.77825707185787,3.80764320464197,5.03258715538663,4.26471295893881,4.950397368535,0.449209710712036,0.725651789943846,0.0360920800756565,-0.776137615966816,0.985472878169066,-0.823825568778843,0.823692578541602,-0.730938978735362,0.916060024125244,-0.483467268442098,1.08017118045803,-0.89915762918506,0.819073320141977,1.13762136268918,1.06641072803366,1.42021674162789,1.10080409929023,1.18058953298718
"137",1,5681,7332.88854219244,1.57740068619764,1.49661726575245,1.73782781278809,1.56922193733058,1.58709217049651,0.340432708662923,0.211336440539895,0.518531473805127,0.284823828015541,0.389099935640796,0.362058890919505,0.216220123014064,0.606428037595056,0.297131030868516,0.422385818004251,10.7458370545227,3.60008278499025,4.22465734959792,5.17258266132579,3.4937535387335,4.64816988773199,0.420361673965357,0.688378360201807,0.108304829550737,-0.705396444795963,0.822045026757001,-0.785923117300014,0.791006074713068,-0.828732348425077,0.886669998120476,-0.47178752691637,1.12947017164307,-0.860648707080514,0.882029267782206,1.13108664049386,1.04675114159622,1.36775496478139,1.08828684950499,1.17840977925112
"138",1,5686,7570.43255237147,1.54127310070577,1.56449899798653,1.80433739681836,1.61282628596807,1.59630552262535,0.309072058639394,0.24511191987763,0.547084995450587,0.336335585833172,0.419317609077381,0.324983708487166,0.252824380852508,0.653565866603961,0.357141885932516,0.461885126199765,10.7783539085775,4.03868907966718,3.54078144576076,4.62518412621724,4.16998989157882,4.99155414904005,0.456766438091232,0.652366712947818,0.0915143013202478,-0.78356016685959,0.822868005591887,-0.836247402663235,0.752167593062603,-0.724848768232628,0.946086926061049,-0.465251312631316,1.18115979484188,-0.758663198054412,0.923956429706835,1.10561441078207,1.06392016755345,1.42714834198979,1.12755032668743,1.21333786980457
"139",1,5691,7532.12129128097,1.58691049233048,1.5535184070579,1.77828157173209,1.60566067626152,1.62501562000722,0.340698434281192,0.283531109643716,0.55495881913933,0.386047640314062,0.453592034767286,0.362378591860559,0.295664272927799,0.667115777262961,0.418489423818399,0.50896233185417,12.6434498555346,3.77546196720388,3.77818184135914,4.2035368671806,4.47784887079658,4.27521854172358,0.503685315401668,0.641026080900794,0.0454988524076924,-0.719772683713093,0.935382146856787,-0.778953166711715,0.82017463375846,-0.732833010224188,0.770079778389373,-0.553068974602022,0.938525441906417,-0.955416148621967,0.722661907143804,1.13131824383884,1.08741736228592,1.44504346027316,1.17513339784786,1.25904265524643
