noah-padgett/Padgett-Dissertation/data/study_1/posterior_draws_m1.csv
"","chain","iter","deviance","lambda[1]","lambda[2]","lambda[3]","lambda[4]","lambda[5]","reli.omega","tau[1,1]","tau[1,2]","tau[2,1]","tau[2,2]","tau[3,1]","tau[3,2]","tau[4,1]","tau[4,2]","tau[5,1]","tau[5,2]","theta[1]","theta[2]","theta[3]","theta[4]","theta[5]"
"1",1,501,7962.10127938031,0.395077955877005,0.417875545316683,0.632485901797672,0.409176327982564,0.783823573730191,0.581987401201092,-0.708565786060781,0.564310140274022,-0.724546824415368,0.525023410385067,-0.536655755538871,0.634653634997284,-0.3647546366365,0.746971497558251,-0.70594126591652,0.193224859840756,1.15608659121995,1.17461997137371,1.40003841597281,1.16742526738129,1.61437939473517
"2",1,502,8019.04863750064,0.400870169312802,0.521056653088594,0.592661924804783,0.461272806279472,0.788341582260365,0.604456007983001,-0.740420339663449,0.47740094312036,-0.681407688087918,0.521062843619257,-0.539654744564628,0.634511374422803,-0.376698921273015,0.690173431337145,-0.639725647053908,0.31337082633069,1.16069689264487,1.27150003572789,1.35124815711331,1.21277260181294,1.62148245032078
"3",1,503,7925.38064674152,0.392288042556088,0.420897109346035,0.579938434748599,0.415569648487821,0.829513376567508,0.581944487636652,-0.690017521823539,0.437776552849817,-0.622148526919109,0.616303841064155,-0.548810912841877,0.679267388068489,-0.363594212311148,0.674536625773929,-0.60430468319395,0.326465350370543,1.15388990833249,1.17715437665585,1.33632858809866,1.17269813274429,1.68809244190443
"4",1,504,7927.92219608549,0.401831830807297,0.36028247498906,0.596386544955943,0.38672245921517,0.815052917942672,0.567287426667071,-0.711570938114371,0.532391473535691,-0.669573465652443,0.59565270446824,-0.476175360741592,0.691317152966633,-0.412335637323603,0.656386162088231,-0.611022392641472,0.323385127475822,1.16146882024994,1.12980346178424,1.35567691100449,1.14955426046143,1.66431125904686
"5",1,505,7986.80105768622,0.389575096032081,0.363197766063587,0.645362156401027,0.445876535053752,0.817270363793743,0.586175666579199,-0.72405643974789,0.634837923122248,-0.718518153745477,0.602123276616973,-0.462680029189895,0.670088395845163,-0.356976286923376,0.677682059380985,-0.606254351923076,0.343185634620847,1.15176875544841,1.13191261727358,1.41649231291458,1.19880588451154,1.66793084753556
"6",1,506,7996.41068349558,0.469137398816803,0.348601792706823,0.67561817427615,0.484287270083783,0.835055449861644,0.612741779773773,-0.714287503624903,0.507880751822288,-0.739780180630256,0.573619746589683,-0.561097151922901,0.799925272913265,-0.36792991325277,0.747817741049491,-0.528025169148465,0.365922223879174,1.2200898989686,1.12152320987841,1.45645991741224,1.2345341599652,1.69731760434363
"7",1,507,8083.65817038939,0.392192159168416,0.351496754408444,0.601264713700506,0.493541785329782,0.787745997115206,0.579731066185585,-0.617176726295668,0.581561321537694,-0.646704687715026,0.556074076011478,-0.528417179551063,0.737802438984352,-0.38482226030219,0.648382681499329,-0.514442698701919,0.37604376141095,1.15381468971318,1.12354996835967,1.36151925594135,1.24358349386651,1.62054375597103
"8",1,508,8076.28088124911,0.377563690893039,0.347269928276847,0.654164888022854,0.443308342737048,0.779069016746785,0.575088506504776,-0.656187137503254,0.581194278825866,-0.621247797288059,0.543499988794659,-0.576921231477153,0.677325605281963,-0.434666732600806,0.570578694578475,-0.576204255942968,0.404412248059548,1.14255434068077,1.12059640308541,1.42793170072195,1.19652228674027,1.6069485328548
"9",1,509,7949.04708869565,0.330548646922825,0.377617915145997,0.615214454913954,0.401247225561878,0.766064424243324,0.553712884070067,-0.641130429462876,0.610926421870202,-0.671261507135953,0.550120468078565,-0.488628151475211,0.686009065508512,-0.322044433480674,0.696706420996637,-0.520274411646033,0.419644328152703,1.10926240798251,1.14259528983921,1.37848882553507,1.1609993360211,1.58685470209126
"10",1,510,7863.65661786839,0.515345219274795,0.351900037156271,0.659517474254993,0.356191110779151,0.742293702020339,0.579546613266584,-0.564558832424014,0.593763657806671,-0.617626899646044,0.605216212550961,-0.521923455162613,0.691909916800396,-0.277803637759915,0.65865233647564,-0.536222481206706,0.432873975612699,1.26558069502939,1.12383363615058,1.43496329884769,1.12687210739809,1.55099994005906
"11",1,511,7946.36854189811,0.456261929971155,0.425359399898324,0.596555536262083,0.47724437923825,0.786983071422609,0.600663902228999,-0.598416154139973,0.578504099959284,-0.599947673039672,0.625515663826562,-0.586297275940544,0.653136525536424,-0.389058936457535,0.687189864442763,-0.481676507865677,0.426752860308435,1.208174948741,1.18093061908186,1.35587850784494,1.2277621975145,1.61934235470576
"12",1,512,7822.01018737217,0.464103133167247,0.435951016321267,0.624806568657995,0.501071739967516,0.802024557374035,0.615305927142621,-0.665153061616746,0.597596030294103,-0.71553685472308,0.630958447592858,-0.591431098005692,0.649249960772614,-0.387968029116994,0.72694828947425,-0.512149517756538,0.416153390511967,1.21539171821566,1.19005328863155,1.39038324823818,1.25107288859407,1.64324339063102
"13",1,513,7846.95466431996,0.484656705208421,0.502086585797932,0.708155868988024,0.480185373122415,0.766891131178685,0.633839681552991,-0.684702488725656,0.601298924193058,-0.579535395380878,0.581442882749324,-0.488409120106867,0.729103430429158,-0.375774856180657,0.681352077208218,-0.544836578966431,0.337967582207274,1.23489212190348,1.25209093963822,1.50148473478218,1.23057799256071,1.58812200708052
"14",1,514,7916.88861382677,0.445486153087213,0.516012323034672,0.739780120133029,0.427644259130789,0.819759094790708,0.634895924440135,-0.604710074208247,0.55582554590115,-0.624349094444432,0.683961957334078,-0.471875433732997,0.80282462838998,-0.347115153661403,0.762243904110746,-0.578513549177583,0.4121693132372,1.19845791259244,1.26626871752364,1.54727462614404,1.18287961236752,1.67200497349208
"15",1,515,7859.35892705885,0.463949152434205,0.516623817883554,0.754963858364472,0.429901627842228,0.894098159276313,0.651829116169862,-0.681923078322285,0.533836264356477,-0.626793461347208,0.620027306979879,-0.453817393075051,0.795829036767474,-0.34040974812605,0.78274980283519,-0.583388111928366,0.321871652098126,1.21524881604442,1.26690016920458,1.56997042743657,1.1848154096214,1.79941151842129
"16",1,516,7890.5032806661,0.496255165494946,0.494957562364123,0.741040850187444,0.45842827356804,0.845002387012282,0.648268254295185,-0.668050600534816,0.51785288228585,-0.65367987937088,0.630809378196187,-0.648524874484604,0.776295444789356,-0.378364477858991,0.815771649653065,-0.59966998435878,0.337577742908726,1.24626918928042,1.24498298854143,1.54914154164653,1.21015648200657,1.71402903405645
"17",1,517,7960.9737230176,0.464594728796591,0.479662809202497,0.770661406100524,0.473682083308745,0.774246918625888,0.63711495228167,-0.618486673157052,0.50875343037633,-0.664028126229087,0.69909781552539,-0.561593085604615,0.79944798539621,-0.382832789051683,0.611914288927815,-0.630789788091695,0.232830655586536,1.21584826202558,1.23007641053203,1.59391900285284,1.22437471604771,1.59945829100168
"18",1,518,7951.37925287337,0.458065193562982,0.460347776620467,0.721459665542796,0.476260914122383,0.811294024695818,0.631535605985513,-0.737458767285071,0.609716065110289,-0.587136165909941,0.694178576861426,-0.504759126166631,0.813489711075324,-0.399746368374625,0.60362413408211,-0.612368619178063,0.24047967029117,1.20982372155389,1.21192007543941,1.52050404900512,1.22682445832069,1.65819799450714
"19",1,519,7892.37057128347,0.498017712903919,0.504946695621174,0.798309041602079,0.465540279052137,0.751191240139142,0.645600046480834,-0.772123963353125,0.518771198120512,-0.647859776191212,0.624554121892307,-0.570835701010433,0.694828668589153,-0.437193826650074,0.674727885764396,-0.643740961613376,0.344338598606831,1.24802164236605,1.25497116541874,1.63729732590363,1.21672775141994,1.56428827926178
"20",1,520,7932.58231060502,0.575347248057722,0.436890562202503,0.740787284900075,0.474487649369834,0.681250280437231,0.628553875853895,-0.667820960635581,0.571547374613809,-0.570482504759268,0.629390713208444,-0.580788005982064,0.656782392243385,-0.377486830182365,0.670061753616075,-0.670270821203798,0.298226117244386,1.33102445584759,1.19087336334162,1.54876580146962,1.22513852940451,1.46410194459581
"21",1,521,8025.18827304977,0.624370323426727,0.407106478674606,0.71602373795312,0.468216513020203,0.729167225794292,0.634298243695769,-0.686730915159852,0.581192842190278,-0.651016746120156,0.632697621973321,-0.561257293652808,0.625565776806987,-0.329314713520744,0.648449555275672,-0.577459226244841,0.296211561393791,1.389838300776,1.16573568497884,1.51268999331236,1.2192267030648,1.53168484317254
"22",1,522,8016.09853609209,0.543210091819388,0.397718673042306,0.622992922835712,0.455121249455709,0.684942695189952,0.593876908133128,-0.692506907654163,0.527357856550384,-0.566940705414394,0.619695067888038,-0.561032235177821,0.621257121537908,-0.3047538026617,0.74665231637839,-0.579267240512246,0.339778683402853,1.29507720385443,1.15818014288653,1.38812018190338,1.20713535170613,1.46914649569407
"23",1,523,8053.24302751497,0.55298770871402,0.422102659494485,0.616616891447582,0.429426749374711,0.751130260665746,0.605847618902241,-0.769164974456093,0.507171054990987,-0.574518256617782,0.592727446233412,-0.54140321583181,0.612064585511741,-0.286734941421973,0.734671546065422,-0.585377070708637,0.38448618397957,1.30579540598878,1.17817065515232,1.38021639081848,1.18440733307853,1.56419666848779
"24",1,524,7932.55351950273,0.536688557499401,0.423252431349469,0.606091561001305,0.443553428938768,0.749275330067787,0.603530661636417,-0.835370368955004,0.428781482158912,-0.575561199200553,0.577465722230901,-0.554703133993176,0.65003402173617,-0.300491000520058,0.79056952814266,-0.496422880403397,0.396662533112393,1.28803460775079,1.17914262064324,1.367346980317,1.19673964432334,1.56141352024819
"25",1,525,8062.78985213734,0.57908576322827,0.49881808030533,0.601012858263182,0.37682826426827,0.743794622097436,0.610513696851841,-0.814068159912753,0.494924908156319,-0.657587526435964,0.629501963137232,-0.502997511071027,0.62460407765169,-0.384940490703684,0.737662206945198,-0.573014760912443,0.377041635518003,1.33534032117367,1.24881947723949,1.36121645579768,1.14199954075144,1.55323043986107
"26",1,526,7926.76082769408,0.640240748425152,0.431040537026457,0.553176974104549,0.312070426044631,0.691815786013568,0.580121072744997,-0.804840316202598,0.498342717612241,-0.681141396366424,0.582885265856821,-0.633372278112235,0.661093116602384,-0.371015215039803,0.708073211334216,-0.59217931376187,0.295552986829464,1.409908215944,1.18579594456006,1.30600476467946,1.09738795081168,1.47860908177757
"27",1,527,8000.04422211122,0.631316132247983,0.419911514316823,0.562426473480296,0.324085248262725,0.733856340533144,0.588050961076728,-0.811494066921492,0.528424755651865,-0.697232996729584,0.609518700301904,-0.609921122245379,0.631680433517656,-0.331938400994239,0.655621291755899,-0.542888330652949,0.31271715787125,1.39856005883655,1.17632567985585,1.31632353807148,1.10503124814151,1.5385451285407
"28",1,528,7958.68788887897,0.56943037824436,0.439683290532893,0.552460789112216,0.340522831494189,0.792918680124528,0.592273121473675,-0.784315379107506,0.470795698536612,-0.581884067278423,0.652959702710523,-0.561602836489753,0.632355614195671,-0.339159528191302,0.641628530197361,-0.655561340731716,0.351625911431749,1.32425095566752,1.19332139597383,1.30521292350649,1.11595579876882,1.62872003329042
"29",1,529,7861.99102614755,0.602545821819427,0.417213934213632,0.607187820341127,0.330476698133915,0.82857728637488,0.608205883210201,-0.704191907982622,0.520961515359156,-0.650659460537394,0.702556967123335,-0.529779950565445,0.747652253113364,-0.387305778487409,0.763851786678349,-0.626706698292953,0.372037479477334,1.36306146739205,1.17406746690202,1.36867704917061,1.10921484800949,1.68654031949636
"30",1,530,7814.36420615136,0.614237382616963,0.372747379698983,0.529458771405288,0.322826527156876,0.781169781791003,0.578653045386934,-0.687065477914096,0.576873849486197,-0.581162282800707,0.679663647041458,-0.546918229917887,0.701583812924233,-0.418998051497951,0.735774589699088,-0.645994959852355,0.253732908071406,1.37728756220414,1.13894060907246,1.280326590618,1.10421696663617,1.6102262279834
"31",1,531,7918.73372790461,0.605860721146791,0.368339242925363,0.600178225017462,0.289400372195056,0.721212821264874,0.571997708619722,-0.658344224203974,0.524504774507703,-0.605589888337778,0.618860360186663,-0.647278181853275,0.723475496805184,-0.381768171909845,0.668958197812745,-0.630674513091378,0.244073454408274,1.36706721342851,1.13567379787883,1.36021390178511,1.08375257542664,1.52014793355684
"32",1,532,8020.42001740807,0.640412087394742,0.34276190058982,0.616317417831042,0.300871213631718,0.758461594353468,0.585727352816827,-0.653240664452399,0.563498817566707,-0.674698755663899,0.637495838040459,-0.463202259415038,0.725969587932179,-0.298917717456327,0.686409767411114,-0.642406827501182,0.254110339509684,1.41012764168129,1.11748572049595,1.37984715952192,1.09052348719222,1.5752639901092
"33",1,533,7990.9530528231,0.639989443440087,0.348883592638262,0.639366542661277,0.297344487703085,0.762637970089649,0.591053484195907,-0.695641564198347,0.595806834699838,-0.639688730982191,0.590690178834797,-0.516019650500075,0.733291163718396,-0.319555166689363,0.806368194201047,-0.649847537681212,0.360776488806285,1.40958648771475,1.12171976121218,1.40878957587463,1.08841374436741,1.58161667342246
"34",1,534,7843.236880585,0.687149458682598,0.358526853347941,0.591977605138756,0.267071971863092,0.668837806333147,0.569826979288958,-0.708703490312432,0.580844565318231,-0.65122532508755,0.530760218943546,-0.488927629709261,0.733225684335704,-0.294275828481149,0.748118276264282,-0.739700878355583,0.304845747070109,1.47217437856779,1.12854150457158,1.35043748498582,1.07132743815484,1.44734401118054
"35",1,535,7828.3381669628,0.590940567724632,0.343690446366431,0.670064250063885,0.267451825967174,0.715248831062074,0.572452888296506,-0.705711831018595,0.501946265802558,-0.662342324670791,0.541156552075724,-0.471248292729242,0.70266863501446,-0.328612668346161,0.700864570769572,-0.692397203349907,0.187006177439266,1.34921075458271,1.11812312292356,1.44898609921368,1.07153047921318,1.51158089033566
"36",1,536,7959.58202745983,0.582419756019541,0.373981528050601,0.613800561088613,0.291989508489147,0.752611154865656,0.577602531661408,-0.66419841029808,0.530450941648497,-0.693903396050596,0.574117949640303,-0.527115444184438,0.681501146593559,-0.340718627404291,0.716862480593282,-0.69159036372536,0.248798191072815,1.33921277220186,1.13986218332306,1.3767511287927,1.08525787306773,1.56642355042822
"37",1,537,8003.65049610007,0.520922284397496,0.524579248518992,0.627218410257366,0.337959951595195,0.730132898982593,0.60038538099821,-0.669852337990009,0.55930646324526,-0.79916915911228,0.524366560438931,-0.524494479660525,0.696426242003377,-0.29310374937769,0.704311220502781,-0.592896599984034,0.235492033683842,1.27136002638191,1.27518338797675,1.39340293416578,1.11421692888223,1.53309405017673
"38",1,538,8006.96770749624,0.510992008196633,0.538700963358641,0.628514023781362,0.341430765744247,0.729028733016326,0.601757602860853,-0.679675815418697,0.541050847475861,-0.785408082465564,0.530927748105805,-0.538660874886542,0.594339289446542,-0.514196809702244,0.65363988044705,-0.648810590349702,0.285022402099034,1.26111283244083,1.29019872792353,1.39502987808984,1.1165749677967,1.53148289356339
"39",1,539,7795.48731329364,0.561484894659671,0.533668537590291,0.535800242316795,0.375203091289833,0.669707501457403,0.588824228622666,-0.638485098731067,0.541480591690883,-0.722294736343299,0.514645451983499,-0.532385270160482,0.610572992610692,-0.428881929728203,0.675664537956308,-0.627780453349979,0.29588732980531,1.31526528693098,1.28480210801376,1.28708189966674,1.14077735971345,1.44850813750832
"40",1,540,7741.83372496461,0.585951249325051,0.487314334320868,0.537225544708304,0.42097001806576,0.605112466814733,0.581643186379262,-0.688658276138356,0.539137242020819,-0.764174889105107,0.582717226965051,-0.66465870386375,0.614509745223127,-0.460259461172718,0.697160181713413,-0.599678196377127,0.293834474035493,1.34333886658559,1.23747526043459,1.28861128588713,1.17721575611029,1.36616109749461
"41",1,541,7903.70895879793,0.549099036702548,0.490027880713292,0.554867101210224,0.439345060786662,0.622126811108072,0.585113855107373,-0.699526839454967,0.639752230005148,-0.781676005244626,0.552813099040238,-0.68950240650044,0.580641270998859,-0.482967858264559,0.708671343412426,-0.577233054981063,0.287645919167832,1.30150975210767,1.24012732387636,1.30787750000544,1.19302408243764,1.3870417690995
"42",1,542,7919.17593849489,0.53958489658641,0.498691385500377,0.482388475135694,0.421889816333067,0.602568415798617,0.564370794466391,-0.725257360545791,0.638031964135783,-0.647101478777357,0.536196779831859,-0.6202353008097,0.507738702688251,-0.385489263536768,0.698898304147087,-0.613715145915187,0.316641730176248,1.29115186062417,1.24869309797229,1.23269864094374,1.17799101712555,1.36308869571805
"43",1,543,8001.75124120867,0.603083867050971,0.56109185187938,0.579908018801061,0.44111945400622,0.625638286165599,0.612428031985022,-0.651256177727182,0.641470200635654,-0.67059118082352,0.517670858891388,-0.653135652224601,0.56294846446545,-0.423240595661624,0.747238516010294,-0.591314940311661,0.245510331558818,1.36371015069715,1.31482406624543,1.33629331026977,1.19458637270275,1.39142326511623
"44",1,544,7872.39656324678,0.630685245884851,0.550986575654896,0.635317044194502,0.426561025681193,0.613038639012028,0.620063620515779,-0.699392268367896,0.580036749565797,-0.64973059050067,0.616333781366062,-0.678058523041079,0.497645312675572,-0.391503406425202,0.717591360105326,-0.634187498807088,0.211441406613068,1.39776387937684,1.30358620655191,1.40362774664404,1.18195430863019,1.37581637292172
"45",1,545,8015.54680489449,0.702144298326153,0.562957377207447,0.621062211293233,0.438832325823,0.57359122236175,0.626916041272918,-0.684382112293121,0.622834684611902,-0.7075439859722,0.573151710111297,-0.580475268231699,0.571463740435502,-0.459888354533911,0.70274145921796,-0.622292004306658,0.241713423610479,1.49300661567193,1.31692100855229,1.38571827029644,1.19257381018722,1.32900689037045
"46",1,546,7910.71559817848,0.599423995875348,0.63215512633091,0.630983528937896,0.364077622177901,0.56377975627348,0.608960863329224,-0.663209768767361,0.602660795623877,-0.742199592852055,0.589950187904688,-0.577422377297983,0.578518137753027,-0.460966769123133,0.697838055278922,-0.662611587117949,0.272115701957007,1.35930912683117,1.39962010374645,1.39814021379092,1.13255251497071,1.31784761358378
"47",1,547,8113.57493838758,0.595306770753131,0.6703911288233,0.672391870541831,0.321389888316509,0.59033389320456,0.618944183198488,-0.633738759588467,0.547551610510204,-0.702114945255566,0.633596927056161,-0.646057275840384,0.602429242818021,-0.459727003112517,0.620412891058403,-0.612836949936158,0.274899227592852,1.35439015130452,1.44942426560498,1.45211082757074,1.1032914603121,1.34849410546605
"48",1,548,8054.03605142877,0.573674184216009,0.645069630682822,0.668090958330161,0.314837847194421,0.614036621526527,0.613249111903123,-0.610343689503943,0.663388092557149,-0.730430009122429,0.711870682176635,-0.566128272084836,0.652963246261199,-0.279924059092054,0.63629185071745,-0.629858166277028,0.238386201560397,1.3291020696359,1.41611482842927,1.44634552860251,1.09912287002602,1.37704097257571
"49",1,549,8052.59984447386,0.608790503762896,0.586129700199014,0.60975714753852,0.216320165168267,0.571813549974244,0.573475980337883,-0.652073179154345,0.695227962119283,-0.670441588128471,0.55222263524406,-0.54665495984061,0.635717761113105,-0.295114945310557,0.681522945552189,-0.632141563545152,0.260864389175505,1.37062587747188,1.34354802545539,1.37180377897431,1.04679441385843,1.32697073593415
"50",1,550,8069.47726372507,0.617146404916555,0.654590021718079,0.593715346570673,0.274867628140576,0.654679154345534,0.609741383518662,-0.754394129269182,0.582694689556481,-0.651944360431806,0.662343741213637,-0.513990867065354,0.600948675025624,-0.307967930821635,0.702219230552218,-0.594988708352189,0.351431918273855,1.38086968510143,1.42848809653287,1.35249791275353,1.07555221299963,1.42860479513458
"51",1,551,7832.9543421205,0.592592370446785,0.63296225665407,0.632638754216172,0.340444229375141,0.686204494216531,0.624689824067804,-0.739540758732549,0.473730874456344,-0.680901051597825,0.636811728632072,-0.53587130958501,0.685942921024684,-0.308891699426018,0.700243412944595,-0.625747304816208,0.350551349512424,1.35116571751174,1.40064121834861,1.40023179333619,1.11590227331483,1.47087660788296
"52",1,552,7995.90825040824,0.597007679126796,0.590381365635757,0.648396374123255,0.308709204859281,0.626220708480606,0.60558066915833,-0.742479677541361,0.489284106717078,-0.675869018076043,0.566186050197286,-0.473318811903905,0.712429009475898,-0.25165177477102,0.704489410792681,-0.521812055910437,0.34974227055944,1.35641816893636,1.34855015688994,1.42041785797618,1.09530137316485,1.39215237572995
"53",1,553,8079.0818789882,0.602698903631585,0.5732691457525,0.632530885228278,0.287619118875547,0.631434293146156,0.598055934942769,-0.670593814232269,0.488532550678951,-0.673446042896948,0.625940379530799,-0.520751113958904,0.732565436059722,-0.269207268260109,0.760886167144293,-0.526785628050647,0.402982664987077,1.36324596843871,1.3286375134718,1.40009532076767,1.08272475754275,1.39870926656099
"54",1,554,8022.57255762023,0.575912857339384,0.550985609458697,0.61681900761234,0.304878991575262,0.678072595242267,0.597900208170194,-0.689937267724244,0.62559453305353,-0.660221371396485,0.635771939758396,-0.533275494526034,0.646147415097469,-0.375263733890255,0.669859977553109,-0.520590387105404,0.357095203174551,1.33167561924881,1.30358514183057,1.38046568815187,1.09295119950395,1.45978244441858
"55",1,555,7903.05002359208,0.670547389585032,0.542072633040119,0.60239083049214,0.265414862668454,0.668844016741654,0.601862774580169,-0.655464826635653,0.590826016075641,-0.720587448382231,0.536040718629932,-0.497537758382115,0.63871113834053,-0.376369599777853,0.677061994272282,-0.524391625610106,0.29968611456934,1.4496338016793,1.29384273949105,1.36287471266101,1.07044504932531,1.44735231873111
"56",1,556,7800.32124226839,0.702880481868874,0.507505388091987,0.629143006070529,0.249147920898564,0.721694433049451,0.612348602707222,-0.720972276588338,0.552892308738842,-0.569122105506906,0.611494720633139,-0.616840039354268,0.634015838874338,-0.367008867030309,0.702155214493504,-0.549078283661827,0.402185110732341,1.49404097179222,1.2575617189424,1.39582092208746,1.06207468648808,1.52084285469457
"57",1,557,7974.45155037203,0.608950287879153,0.540994818677973,0.598049748115004,0.247291059555022,0.723244063384492,0.596461947492069,-0.687377406453178,0.513443136051077,-0.644950344544477,0.611927753827134,-0.569981113662503,0.567228304429648,-0.306270531394191,0.712759631309665,-0.524433248133207,0.408195904964754,1.3708204531081,1.29267539383641,1.35766350122042,1.06115286813585,1.52308197522091
"58",1,558,7807.79689120874,0.572136227189192,0.476518403871099,0.575314587867465,0.26201590038793,0.689345753917708,0.57016346819567,-0.670448477723652,0.558090552457308,-0.592046891974194,0.668522175055806,-0.592494143460321,0.611163244264127,-0.511768061885332,0.676084915743774,-0.456143335107196,0.419509427749095,1.32733986246228,1.22706978922786,1.33098687501311,1.0686523320561,1.47519756844437
"59",1,559,7929.80276810015,0.58843817538997,0.409354364301836,0.524921284401078,0.228241978879496,0.672009255328104,0.540050543838629,-0.691317917931509,0.558401910828216,-0.715423286708012,0.683174786674791,-0.587157089538818,0.580340151231106,-0.39595734066928,0.657716723428687,-0.473704136523302,0.323738980210692,1.34625948625628,1.16757099557296,1.27554235481728,1.05209440092283,1.45159643924663
"60",1,560,7922.56468841163,0.659959974177459,0.381731344565088,0.546292319496661,0.242367264357869,0.694954003886629,0.560523200918713,-0.736958564795425,0.485313256808004,-0.72206249269777,0.701314346106242,-0.548710637611882,0.631803569086376,-0.441426708183626,0.733363581832695,-0.495690677176659,0.40014554459998,1.43554716751631,1.14571881942347,1.29843529834104,1.05874189083232,1.48296106751806
"61",1,561,8125.47344117634,0.634015944363275,0.463144840356563,0.525158920396388,0.282322276044498,0.684395738340319,0.57276336778382,-0.722728786940461,0.43109196751549,-0.672479276661692,0.64123729296113,-0.580172879433927,0.628742695369544,-0.362153050330041,0.7235612311306,-0.532454669857464,0.396537956518444,1.40197621770686,1.21450314314891,1.2757918916719,1.07970586755095,1.46839752665839
"62",1,562,8012.43349376254,0.677455355122892,0.408944210920708,0.579475578551264,0.280650829898768,0.672660124098194,0.578419667676479,-0.757106216754219,0.458402735860617,-0.725026484642014,0.622832708034158,-0.538774176419799,0.60125139192803,-0.3441160808151,0.698790013044854,-0.543305034760526,0.381847186235723,1.45894575818468,1.16723536764556,1.33579194613732,1.07876488832287,1.4524716425518
"63",1,563,7993.32611026792,0.707081349547124,0.342885136400823,0.59461182018902,0.307030057239167,0.648709171802127,0.574889623967539,-0.847852087908063,0.586523368344908,-0.629618430279094,0.627624743477894,-0.555802107871408,0.614286251192334,-0.341511887353054,0.715149325597362,-0.557910481596548,0.442564776251514,1.49996403487738,1.11757021676461,1.3535632167085,1.09426745604829,1.4208235895802
"64",1,564,8040.14395518086,0.735616287319949,0.370240772242666,0.541113214903299,0.2424585539398,0.624664024059621,0.55832975002823,-0.860212543702707,0.558565797638711,-0.597040389455411,0.652978145659494,-0.543010846232128,0.590034786518423,-0.347412073804864,0.659830981144714,-0.611785336455269,0.240062189360721,1.54113132217039,1.13707822943085,1.29280351134298,1.05878615037858,1.39020514295436
"65",1,565,7920.51345915803,0.686847625358292,0.37217768285346,0.598299882585916,0.248970151861347,0.714071378787964,0.578639438295247,-0.78481787513315,0.642243024225977,-0.558976035570326,0.606508847679679,-0.554539270212752,0.674631972191506,-0.352612519634979,0.68456021343932,-0.592373406150792,0.24055246702324,1.47175966046033,1.13851622761417,1.35796274950232,1.06198613651786,1.50989793400414
"66",1,566,7993.38531111004,0.647329248907511,0.33345507417765,0.589353087684438,0.267286682611056,0.664597453546457,0.555954676174053,-0.750953602709561,0.623182980062177,-0.624479922269195,0.65924629851923,-0.537441716861413,0.634161186618301,-0.437632406988614,0.629340704361936,-0.464666020831514,0.413259773287892,1.41903515649116,1.11119228649482,1.34733706196318,1.07144217070122,1.44168977526044
"67",1,567,8012.31804236353,0.57945183321896,0.336555800992611,0.618966207033219,0.295980705713528,0.68104787509734,0.557919455262361,-0.84905508735129,0.548172402934356,-0.593888823750495,0.665877296029194,-0.637331442636568,0.64182642235391,-0.276544845933783,0.716710821956257,-0.42192335845604,0.394194724627655,1.33576442702081,1.11326980718178,1.38311916544909,1.08760457815468,1.4638262081746
"68",1,568,7821.19355143517,0.622082458517518,0.375026579208815,0.708188457846282,0.250183368109121,0.627644755044093,0.571644143182305,-0.516986847403478,0.60744848174023,-0.650389452404631,0.544540084389395,-0.584737254959737,0.620060603842858,-0.321154133120421,0.739862224633899,-0.457029312840888,0.384645016349101,1.3869865851952,1.14064493511307,1.5015308918267,1.06259171767842,1.39393793853436
"69",1,569,7956.44977708882,0.663649590257086,0.35566781329389,0.670669080659469,0.278366048744093,0.623093555897854,0.573218353356652,-0.51987943576003,0.693281648231631,-0.611319717349679,0.539345298631688,-0.54456990008347,0.71396489789912,-0.319622483981847,0.736884362949617,-0.553724611833854,0.390351450330448,1.4404307786484,1.12649959341326,1.44979701575262,1.0774876570934,1.38824557940143
"70",1,570,7970.9811801257,0.62641010476087,0.361732596505285,0.731699272888895,0.248015508858471,0.660279552156902,0.580082622587631,-0.615838387181684,0.730070533836032,-0.602251401626144,0.566937481390841,-0.521185422271691,0.638718925509761,-0.350241406957066,0.733259267986301,-0.516350554634248,0.377905642895205,1.39238961934652,1.13085047137446,1.53538382594614,1.06151169263433,1.43596908699652
"71",1,571,7961.9031292619,0.632379304626991,0.34537199136205,0.725367858791066,0.229066873334054,0.632783417145737,0.568186326409254,-0.621296228461365,0.673240693322218,-0.606485253777091,0.59777096181672,-0.430193177506052,0.775473484118423,-0.292561998400527,0.67919261492515,-0.561969984360399,0.342560300388084,1.39990358492052,1.11928181241739,1.52615853056714,1.05247163245904,1.40041485301464
"72",1,572,7929.89801129187,0.636178027875425,0.381329933491544,0.681728087603372,0.256073653230428,0.634886307911272,0.572982258551421,-0.776810679009568,0.62047864039926,-0.585349508833943,0.602397764630918,-0.432242726936646,0.750380570062249,-0.267015323778795,0.797573187317063,-0.56489744707724,0.360212921904234,1.40472248315147,1.14541251817667,1.46475318542735,1.06557371587878,1.40308062397321
"73",1,573,7932.01696118461,0.639178686316806,0.358645480825313,0.64677620451525,0.237196500470667,0.645237001430566,0.560860370018979,-0.678069612546508,0.528389665019872,-0.62538948226976,0.607660174060231,-0.528432531600251,0.770836541541375,-0.31830242045221,0.803163667680913,-0.561466343414641,0.401569377279346,1.40854939304168,1.12862658091642,1.41831945872715,1.05626217983553,1.41633078801511
"74",1,574,7883.65076061433,0.653276826149848,0.320862143425986,0.710493587642918,0.227205086564625,0.628000495321912,0.563348438055149,-0.670567733919329,0.509272988760545,-0.708812772371799,0.554634548451677,-0.611307198916002,0.742352512596927,-0.327280942382635,0.679426982659909,-0.628668988718119,0.323691408254071,1.42677061158442,1.10295251508392,1.5048011380817,1.05162215136084,1.39438462212457
"75",1,575,7925.3926467025,0.631124070778392,0.270843148392262,0.768973105178767,0.25398143820031,0.617678804083084,0.56388316357282,-0.728358721283677,0.507660378693077,-0.699468934288387,0.538471832074063,-0.605735728515217,0.624588448235883,-0.30464830419494,0.762300195641037,-0.654791565701753,0.29465675856224,1.39831759271589,1.07335601103103,1.59131963648827,1.0645065709503,1.38152710501351
"76",1,576,7868.88965557414,0.595469923283801,0.275096863482515,0.845419971831606,0.272358057270704,0.660588114285508,0.583917432415285,-0.722456148388281,0.514711271263777,-0.632050349207933,0.634274013869736,-0.669800663300869,0.628886812174893,-0.352179113656282,0.688113854715468,-0.71008442759514,0.253939740459008,1.35458442953562,1.07567828429792,1.71473492877175,1.07417891136027,1.43637665673528
"77",1,577,7834.964545403,0.546875937101954,0.364586563845492,0.799095522760544,0.275433301621026,0.616079836615529,0.575219109716341,-0.726901646000007,0.490756951774883,-0.657712544137291,0.633801795285399,-0.571054832000195,0.659226223590117,-0.353702297909998,0.663797812919362,-0.67079389714595,0.322348796113792,1.29907329058114,1.13292336253666,1.63855365449595,1.07586350364186,1.37955436508422
"78",1,578,7880.48372112321,0.575831655375169,0.380396548885935,0.816058485301606,0.289857487855878,0.610970513684493,0.588326322735404,-0.757088889393042,0.490263423906224,-0.710750857587148,0.609377483260816,-0.554387959776525,0.712461760614614,-0.349597917265594,0.714805033128038,-0.575499434592696,0.281455492612128,1.33158209533211,1.14470153440433,1.66595145143275,1.08401736326612,1.37328496859189
"79",1,579,7957.77482705936,0.526472117673885,0.3952173107898,0.773412171323218,0.349804132207252,0.626186053213375,0.587959562837811,-0.723077899210717,0.492142141001813,-0.675482772997052,0.633483526333104,-0.550390828531027,0.713136355943805,-0.360746007144613,0.728277588698613,-0.616530216495874,0.350556277384442,1.27717289068802,1.15619672274792,1.59816638675089,1.12236293090927,1.39210897323894
"80",1,580,7910.54007854401,0.540637644673356,0.429868653533881,0.776436950940386,0.396415232087314,0.601293390440723,0.601056844993691,-0.835145575342468,0.538959256752412,-0.673563997644204,0.660615180626249,-0.605864746989215,0.680521541290493,-0.360188171051796,0.739708524786102,-0.573822319778366,0.315195733393264,1.29228906283795,1.18478705929103,1.6028543387856,1.15714503623084,1.3615537413877
"81",1,581,7857.73249151695,0.528557795761701,0.469752756765465,0.743538572328301,0.415664332028535,0.653776581922107,0.612503780171908,-0.821775868183222,0.550889634498273,-0.756029388726089,0.649826386455564,-0.628832286987833,0.667364676404687,-0.369319989246334,0.769960109622636,-0.599067949604907,0.322696907516535,1.27937334346047,1.22066765248875,1.55284960854001,1.17277683692073,1.42742381906975
"82",1,582,7854.51785575648,0.470257332036753,0.563834818598054,0.751392639488789,0.357549377774179,0.663462111754484,0.611693353516565,-0.809334613974463,0.556431318864906,-0.765704633854325,0.660559602534519,-0.669163972122433,0.647335924618505,-0.377044847011991,0.797473931433664,-0.605323936580314,0.289649855753808,1.22114195833433,1.3179097026635,1.56459089867793,1.1278415575467,1.44018197373372
"83",1,583,7888.14589576243,0.477704020885798,0.510118539792763,0.771333929876586,0.299900001132504,0.582134350525352,0.582494462593433,-0.750667941237585,0.565542927952623,-0.591624815455607,0.667578505887664,-0.675358574703363,0.646532009731257,-0.324961250063915,0.72116042422292,-0.602272851225308,0.291209706821486,1.22820113157046,1.2602209246403,1.59495603137886,1.08994001067928,1.33888040206157
"84",1,584,8071.72049665515,0.56850730448091,0.412708625438654,0.814518397255064,0.30460933507176,0.570980193517363,0.588001657111511,-0.756942017160253,0.541872499305491,-0.584661384819067,0.684857346358794,-0.670305338253288,0.717806232714095,-0.448070331340323,0.75427029795679,-0.500653555100631,0.334536114210018,1.32320055524815,1.17032840951146,1.66344021946696,1.09278684701286,1.32601838138913
"85",1,585,8060.76566922515,0.506113967459014,0.426346829599051,0.752808533029822,0.274060674575511,0.62355780526803,0.571599054393661,-0.689939131537596,0.522916293131909,-0.56782199115038,0.642586429328826,-0.668413054803015,0.596493457236756,-0.407853863166116,0.577153635841614,-0.625005221277307,0.322607969681681,1.2561513480571,1.18177161910916,1.56672068740251,1.07510925334878,1.38882433651068
"86",1,586,7965.34959446665,0.496590974186053,0.463631378520704,0.800695515646665,0.331785147628703,0.629658699484136,0.597139799246761,-0.697457670292561,0.507162933007777,-0.604685425756979,0.677684825650699,-0.624762147552861,0.710992652575196,-0.481498442890975,0.540020383309126,-0.576207443207667,0.313379972778672,1.24660259564305,1.21495405514901,1.64111330877668,1.110081384187,1.39647007783605
"87",1,587,7934.87519088464,0.431030866389533,0.420322386843299,0.87346748582982,0.341877628046759,0.614619888780442,0.589809812172514,-0.791086191415715,0.514455152658131,-0.683578016310572,0.665406537822115,-0.634415015106251,0.714296466391188,-0.442392424701861,0.549844339258216,-0.61648192108743,0.311983368609333,1.18578760778051,1.17667090888165,1.76294544880187,1.11688031255888,1.37775760768448
"88",1,588,7946.14250933436,0.410986548500961,0.455673515330757,0.806953256459229,0.393704244849718,0.690538192933573,0.603356189932583,-0.829922686611659,0.513616257394687,-0.70820435652648,0.625967474708218,-0.590571740721438,0.757432669902517,-0.478370707295772,0.549877094627286,-0.67113100604911,0.294375606280641,1.16890994304873,1.20763835257389,1.65117355811015,1.15500303241269,1.47684299589996
"89",1,589,7932.41022427631,0.52833963345496,0.472696574382837,0.827904247120488,0.411233223704027,0.7171905846551,0.636257910054664,-0.825887270102242,0.522157957885486,-0.659860778952875,0.610018727081753,-0.590050001284292,0.708835227344263,-0.432925361250896,0.564453964056102,-0.649668767407502,0.344007783352496,1.27914276827932,1.22344205143327,1.68542544240014,1.16911276427801,1.51436233471792
"90",1,590,8014.1849260932,0.506857276239224,0.464434210893273,0.967982987297713,0.445515892218433,0.67578310832676,0.65198289694389,-0.818117770204536,0.483693586745776,-0.653993000200004,0.643610327587937,-0.484921193130352,0.703766019146112,-0.34530836842023,0.622962145542438,-0.650029549570603,0.20311778880999,1.25690429847665,1.21569913624806,1.9369910636978,1.19848441021919,1.45668280949978
"91",1,591,8034.55524897619,0.541122902238531,0.48635442572388,0.870890224016301,0.365769572555288,0.575790082428948,0.617303588864386,-0.806533446385537,0.468483476067757,-0.658893984142332,0.60115954886765,-0.706370919872698,0.689061666726085,-0.45209473481251,0.677941672275912,-0.627138373619119,0.266001145819045,1.29281399532705,1.23654062742121,1.75844978228716,1.13378738020728,1.33153421902354
"92",1,592,7869.41976221406,0.497397023104834,0.473281962445635,0.917062521735854,0.326051827672135,0.543498003586045,0.603258218885818,-0.682149165532939,0.452829876492275,-0.737110860922238,0.615717482073247,-0.692451269541086,0.631262007193783,-0.37855482905018,0.6799786657125,-0.644656145266739,0.234107374379103,1.24740379859355,1.22399581597639,1.84100366877252,1.10630979432834,1.29539007990202
"93",1,593,8001.38335076981,0.540369073033644,0.438161129301897,0.866645249544931,0.307123007965897,0.552259883870672,0.59397906140561,-0.733399787326683,0.532288620899288,-0.608322046201807,0.607697415730057,-0.746757338886492,0.600346274038116,-0.372448929376917,0.611675296696516,-0.608434700675874,0.243964012591107,1.29199873509124,1.19198517523111,1.7510739885588,1.09432454202202,1.30499097933285
"94",1,594,7937.59076025562,0.568801783120932,0.421923298774066,0.823834707135889,0.324247412647729,0.608675702424521,0.60155115524327,-0.751117154315222,0.506258357462093,-0.623328090533672,0.597153352165868,-0.702093342494711,0.597031783913003,-0.458654035388303,0.659609936198585,-0.62254101598168,0.266119251957414,1.32353546848155,1.17801927004839,1.67870362468168,1.10513638460875,1.37048611072198
"95",1,595,7844.61242920793,0.50070800683853,0.420244081126622,0.79911683690899,0.421107129922346,0.664873823262462,0.611617783447765,-0.759385447985242,0.511196536715296,-0.617294001882726,0.60534389440683,-0.665283516306314,0.656671026954786,-0.454865654847325,0.599278002545929,-0.581235086284505,0.284352767135573,1.25070850811221,1.17660508772196,1.63858771903143,1.17733121487144,1.44205720085964
"96",1,596,7942.30010674668,0.541805857845297,0.451808165123074,0.802768868177351,0.487405472577061,0.626982265158822,0.628875990962402,-0.674292479409919,0.492681022155968,-0.650056013489631,0.600080866752005,-0.648792561391759,0.668990626092748,-0.419195315064103,0.581426183211347,-0.617059858305775,0.274370187655648,1.29355358759548,1.20413061807188,1.64443785571474,1.23756409469807,1.39310676082369
"97",1,597,7840.26712749175,0.546331547095162,0.457991031990327,0.740030321687879,0.450428339948397,0.638335155741798,0.616168473644958,-0.63083682959968,0.689996600485287,-0.666653185904856,0.558676627170108,-0.549401440894017,0.674847997855251,-0.402947545330208,0.654564327184774,-0.583640834847109,0.343200625573925,1.29847815935139,1.20975578538356,1.54764487701747,1.20288568942867,1.40747177105591
"98",1,598,7939.07409502644,0.568022708208962,0.450125274277465,0.794328047834679,0.439161615254575,0.629472057439851,0.624082567514183,-0.590649886132493,0.630594078844723,-0.667729923686147,0.534123980084039,-0.608700539369259,0.698965642372361,-0.327499177708535,0.740050397842777,-0.599558849177091,0.28015642378889,1.32264979704104,1.20261276254336,1.63095704757685,1.19286292431301,1.39623507109756
"99",1,599,7913.4465671404,0.584497323146267,0.524524020312993,0.792631340185189,0.362684431621894,0.634742417426044,0.626995447632722,-0.686925160435744,0.561723375868901,-0.659507257248231,0.548846432753838,-0.646597293273524,0.595391712574795,-0.321125482686682,0.739614762827055,-0.609453424759816,0.351215847283884,1.34163712076515,1.2751254478853,1.62826444144377,1.1315399969409,1.40289793647986
"100",1,600,7878.58675352249,0.58398389060186,0.414746488068542,0.785933106435804,0.36797434104121,0.621908403456053,0.606240513917102,-0.69022025426181,0.597721442926394,-0.641008044294434,0.557795634649279,-0.671358192452314,0.596137416851528,-0.352122716117203,0.747983774009543,-0.572277353158459,0.305390127728117,1.34103718448249,1.17201464936519,1.61769084779183,1.13540511566471,1.38677006228926
"101",1,601,7937.47579391283,0.493558996943198,0.313382359251868,0.685180388992324,0.317096309973639,0.576100423621439,0.532261961998271,-0.646017204132258,0.599627752806974,-0.624672683378988,0.573785560702014,-0.630440399467413,0.56032205142831,-0.348913668540927,0.656539641290841,-0.567927432877014,0.281445039816437,1.24360048346358,1.09820850309027,1.46947216545967,1.1005500697989,1.3318916980968
"102",1,602,8027.04801580898,0.500732398535781,0.374086042380325,0.685228216483889,0.345003916009136,0.612956538954372,0.559096882261,-0.714229039409687,0.586465858134868,-0.656115768609121,0.618802924498127,-0.707684617806376,0.705261585652162,-0.36316233980829,0.651452035397679,-0.610655281599755,0.283477471752311,1.2507329349434,1.13994036710377,1.46953770866569,1.11902770206164,1.37571571864692
"103",1,603,7923.93883498739,0.498613427396111,0.384598449938165,0.766128742618642,0.317950590878358,0.63519204996841,0.575296496317455,-0.73179802420779,0.54682855415913,-0.544942094641768,0.635674983432241,-0.717892744840333,0.583660517999597,-0.360564713266512,0.641594846223719,-0.536736186698852,0.321031167050403,1.2486153499797,1.14791596769484,1.58695325026642,1.1010925782399,1.40346894034307
"104",1,604,7935.94421695547,0.560944225783932,0.345671235637321,0.778398273791779,0.349136620578891,0.679008811384721,0.595509595610407,-0.734781204524896,0.627028071764672,-0.580780309792346,0.623490119357342,-0.674434769473448,0.585096697775037,-0.325280849418956,0.663126297681711,-0.542284895784826,0.308631720133576,1.31465842444033,1.11948860314703,1.60590387264202,1.12189637982925,1.46105296593809
"105",1,605,8002.88527457019,0.468363522385472,0.296705636478758,0.781353254714742,0.353192195430759,0.636189796842332,0.562566314362611,-0.687676138121017,0.63281097927825,-0.706550955340599,0.627661044312737,-0.607803914937337,0.586567056864921,-0.343672513924486,0.739489825715729,-0.498655689747404,0.325956069890948,1.21936438910133,1.08803423471826,1.61051290865332,1.1247447269132,1.40473745760629
"106",1,606,8035.83134329287,0.55802540417134,0.298303351475325,0.754556192311629,0.267648084337024,0.590948887185402,0.549482213401393,-0.689587490814365,0.586028340754875,-0.673127616927066,0.63693671789716,-0.575918149240137,0.560307224164357,-0.324669396896565,0.716835742976502,-0.492870771178928,0.342458752874715,1.31139235170059,1.08898488950141,1.56935504735582,1.07163549704928,1.34922058726566
"107",1,607,7939.29906812288,0.605175267963072,0.258579883035298,0.673727079280948,0.279753108518052,0.60806977634037,0.54053006791869,-0.669447686942887,0.539840212794703,-0.635370678602347,0.493575506706298,-0.535146648801647,0.707199542210321,-0.380327930196726,0.6882711002868,-0.432518719618274,0.464293550923058,1.36623710495418,1.06686355591055,1.45390817735644,1.07826180172551,1.36974885289863
"108",1,608,7872.27959030955,0.563188918133647,0.298569129785275,0.732309987227322,0.306558183779997,0.617256440750388,0.559072514208019,-0.641692158496657,0.579892169214912,-0.642003973072055,0.565411197285945,-0.569432863928645,0.617803668956831,-0.35615399680776,0.717790732423233,-0.559188730117997,0.466123292653606,1.31718175750855,1.08914352526074,1.53627791739288,1.09397792004249,1.38100551364784
"109",1,609,7932.62691028027,0.534462901745515,0.353665354390871,0.763335533187612,0.297778906478932,0.578201342192953,0.560940314869468,-0.665294844845126,0.595416439076107,-0.577958539811746,0.65727192194815,-0.567106117547526,0.690506230916734,-0.327726202570756,0.671640175360285,-0.426651672412995,0.476764916187654,1.28565059334224,1.12507918289642,1.58268113622682,1.08867227714379,1.33431679211373
"110",1,610,7928.7713712238,0.575003830685349,0.376130228914602,0.777076032662566,0.268004049533905,0.605035626171595,0.575064815450837,-0.643127397420534,0.619831767621127,-0.538015449506014,0.671033615781318,-0.614507483505552,0.757728774998448,-0.399840369700679,0.705500788599918,-0.506780514855852,0.426538683095696,1.33062940530283,1.14147394910335,1.60384716053859,1.07182617056657,1.36606810893685
"111",1,611,7980.10853971017,0.545828100130752,0.352093686139194,0.74888780757868,0.244155241029086,0.635077215678245,0.5606669878329,-0.647984530227369,0.645411786077511,-0.551238893121789,0.708171903861769,-0.593950303860753,0.69012018675277,-0.357207270673281,0.673134556797291,-0.543489865430998,0.371121061206711,1.29792831489235,1.12396996381909,1.56083294834,1.05961178172197,1.40332306987363
"112",1,612,8024.51088492524,0.574826650228004,0.384442193583514,0.744710214890461,0.268564771399354,0.621548654602742,0.573717676540335,-0.701577725250131,0.614831452146376,-0.557846658407825,0.60929701055192,-0.550778331021099,0.686535720302579,-0.356060193801012,0.613461809597449,-0.509587860836827,0.369002262737716,1.33042567781235,1.1477958002073,1.5545933041622,1.07212703643679,1.38632273003848
"113",1,613,8040.3647798158,0.550928547870925,0.436575920593507,0.782441096760899,0.295328099013802,0.645900584397498,0.595156969919264,-0.613257254625956,0.616984844910867,-0.600256549172504,0.671944598247871,-0.664424308453696,0.619417271053467,-0.40280983088639,0.628288381367769,-0.534330182470398,0.35336815446394,1.30352226485917,1.19059853444207,1.6122140699004,1.08721868606711,1.41718756492503
"114",1,614,8004.87686045589,0.589054724807493,0.500599724722912,0.798910728563346,0.258420470630085,0.633533115528944,0.607266653936605,-0.531477869768457,0.640761308249305,-0.54187510792187,0.696294984441928,-0.58131474005712,0.666662190368623,-0.406460116484901,0.685799988754721,-0.524072928869106,0.329649401431959,1.34698546881803,1.25060008439266,1.63825835221362,1.06678113964067,1.40136420847181
"115",1,615,7972.2740475627,0.55419964025345,0.494802338612843,0.805121104025644,0.298521175837162,0.628374520399624,0.607352418621943,-0.61832970694086,0.550893107832094,-0.570238134511512,0.691463249457079,-0.634519252095149,0.643005949590572,-0.382579124133222,0.706309379283223,-0.56378058959961,0.361443313153754,1.30713724125705,1.24482935429674,1.64821999214747,1.0891148924232,1.39485453788746
"116",1,616,7852.28849121075,0.518306035221786,0.467120127266018,0.814414292074183,0.312739898777583,0.600050817589562,0.595415830569238,-0.848990644523394,0.561542333230755,-0.551464363767225,0.671737706424822,-0.554244151315586,0.732217069373434,-0.401504250334333,0.703944206622228,-0.615964234285061,0.335797771338295,1.26864114614733,1.21820121329702,1.66327063913469,1.09780624428741,1.3600609836899
"117",1,617,7797.26662090794,0.49545770639941,0.527136136748883,0.821734885210629,0.311328460959544,0.686945926199373,0.617748472718338,-0.794132541361758,0.568825442914878,-0.667928429331721,0.78542997953842,-0.64249618405263,0.714801566983738,-0.331450429963424,0.663672975851762,-0.652677212456877,0.286605613318987,1.24547833883056,1.27787250666654,1.67524822157212,1.09692541060344,1.47189470552191
"118",1,618,7917.15546433812,0.524003848740779,0.535298084462397,0.786451247235365,0.288897123958633,0.71833711098823,0.619469093408251,-0.807532096486794,0.537723031932665,-0.678499478172044,0.779312971551458,-0.516419949250034,0.741528538038568,-0.391648731040361,0.710987056047662,-0.560025681392679,0.288281000448267,1.27458003349515,1.28654403922911,1.61850556427806,1.08346154823157,1.51600820502292
"119",1,619,7954.09688173409,0.552633682017144,0.598588133791467,0.757392584592966,0.300209552537085,0.590073891579611,0.610404662250123,-0.690943952402375,0.50406241877007,-0.562678789005145,0.698644948858104,-0.510344487714706,0.745692200311203,-0.352942644782807,0.697310900000026,-0.547737497910374,0.30409885530455,1.30540398649983,1.35830775391595,1.57364352719641,1.09012577543452,1.34818719752391
"120",1,620,7951.56479424532,0.537559462416149,0.515564030419766,0.793957793341382,0.270582565164731,0.580853468076515,0.592900037364894,-0.745366173145362,0.550284450795007,-0.575482845245312,0.738738115084525,-0.50714998666886,0.663198956552918,-0.348451422256948,0.720922777644011,-0.570520042956717,0.336906343256387,1.28897017563314,1.26580626946267,1.63036897760752,1.07321492457113,1.33739075137651
"121",1,621,8069.82101345106,0.571350446144783,0.552545651625302,0.662470121677711,0.217406525371683,0.654149056693497,0.585562602557271,-0.766811073771551,0.552474664669448,-0.630598747351602,0.609794937866478,-0.478649620205769,0.738964345766566,-0.321642009376049,0.69396876724881,-0.595573049115507,0.291057090880787,1.32644133230984,1.30530669713003,1.43886666211568,1.04726559727419,1.42791098837299
"122",1,622,8101.17439445839,0.60345994112199,0.556123094185073,0.641460055225787,0.250160130133582,0.548975135390197,0.574863461483161,-0.723776178387276,0.576022003028878,-0.610525648572348,0.617551421955135,-0.476294535990012,0.63633653963576,-0.314863596325132,0.698501023841855,-0.579129000966436,0.302256241180218,1.36416390053896,1.30927289588598,1.41147100245027,1.06258009070845,1.30137369927668
"123",1,623,7982.67205163046,0.599987207495889,0.542366620381046,0.632653413544933,0.309826475073837,0.584105791339543,0.587568934948975,-0.68545801628732,0.491452771548382,-0.609739604232796,0.621632082202229,-0.53471225341141,0.694348722355765,-0.397553557821257,0.720189700020034,-0.593062428098938,0.328531385396928,1.35998464915871,1.29416155090356,1.40025034167006,1.09599244465668,1.34117957547639
"124",1,624,7939.06628368443,0.597632559392178,0.567579463597047,0.650914526954857,0.305201938358555,0.612878595087766,0.599226936810806,-0.684155233765804,0.622084150910106,-0.654616692468889,0.646035856523825,-0.582910087486332,0.662915921040487,-0.343726343288085,0.65503675033671,-0.553462094196491,0.292989845584429,1.35716467604564,1.32214644749711,1.42368972140087,1.09314822317782,1.37562017231675
"125",1,625,7852.94671990273,0.632441017114453,0.560226009453659,0.607236718745932,0.293815637828685,0.551480951701195,0.583232086912938,-0.702788130210319,0.615276699909716,-0.657737248719653,0.581053539300883,-0.675600263088906,0.639064573679093,-0.353579479190678,0.646208886373778,-0.632806739466977,0.289487398188121,1.39998164012876,1.31385318166837,1.36873643259333,1.08632762903268,1.30413124008926
"126",1,626,7885.8977898826,0.597756359690934,0.465068979288851,0.551439357585716,0.244028222168889,0.656767303089857,0.558519476038365,-0.660978464511233,0.555329781825758,-0.6361956796706,0.56688139964724,-0.499890154298086,0.589078073727129,-0.338809471786119,0.646591638412203,-0.616990272648135,0.213311189936053,1.35731266555096,1.21628915549677,1.30408536509455,1.05954977321491,1.43134329040792
"127",1,627,8033.98847261509,0.658083758657916,0.436897289604485,0.623313088967827,0.225993808986323,0.663475022233189,0.576286544244329,-0.668161464267739,0.528159220005605,-0.628247082467392,0.622159933998061,-0.524702036017904,0.690682548958787,-0.321890075788157,0.785400301325221,-0.591715343658507,0.3176025531529,1.43307423340933,1.19087924166375,1.38851920687861,1.05107320170015,1.44019910512733
"128",1,628,8024.51964296777,0.663892551404224,0.462104790936283,0.603690397116932,0.285044097071695,0.646525078583578,0.586171108682923,-0.674099461079478,0.56866809653693,-0.625650779634881,0.599386426689183,-0.55219464338594,0.680474122011255,-0.385159311082415,0.583530630828572,-0.607566564959811,0.323337049549979,1.44075331981001,1.21354083780627,1.3644420955712,1.08125013727542,1.4179946772375
"129",1,629,7963.76076110215,0.584304447153617,0.471538905873789,0.617981245076548,0.299807005650383,0.665926948035749,0.582193744080934,-0.697217700367465,0.593247278731583,-0.688714090012266,0.664290355022762,-0.5137411114838,0.635647984075969,-0.360170919327788,0.593542179731845,-0.625712519267556,0.334896038334798,1.34141168696349,1.22234893975265,1.38190081926636,1.08988424063705,1.44345870012021
"130",1,630,7853.8342291559,0.566612716141395,0.484618303071329,0.710216870479702,0.294323390932327,0.663554223973457,0.596602788770698,-0.768884566366405,0.606896137292865,-0.713657831565572,0.504993006627626,-0.527799988588956,0.660857160541366,-0.35357002068052,0.755561548652752,-0.630253247468524,0.289641511242212,1.32104997009313,1.23485489967174,1.50440800311398,1.0866262584499,1.44030420815302
"131",1,631,7935.65526920814,0.622750057516243,0.481025480756457,0.756495440318285,0.349451455869537,0.611965305057472,0.614254728891611,-0.798969543056028,0.462158916699563,-0.679891539340401,0.4925662385202,-0.528991447697014,0.700278952480975,-0.39420627580198,0.725959384016722,-0.614043639974935,0.269747044402469,1.38781763413648,1.23138551313698,1.57228535122236,1.12211632000934,1.37450153459408
"132",1,632,7996.11419441036,0.619338095669691,0.483135856142897,0.796458303336533,0.373671854473023,0.557373471298446,0.615643999761368,-0.808999723833781,0.443958463428312,-0.687923044388037,0.574662322899718,-0.502186642919908,0.73709407219407,-0.358271353573473,0.734135206889211,-0.607647182397976,0.269724514607271,1.38357967674776,1.23342025549093,1.63434582895371,1.13963065482531,1.31066518650728
"133",1,633,8089.18411555698,0.613268000403716,0.497279128086904,0.777185001781525,0.352036749952332,0.56718434061244,0.61177068979399,-0.787327705538225,0.454240445348326,-0.758253248581691,0.667866077021792,-0.537606566648229,0.746170784221597,-0.271431465148882,0.733856836850371,-0.56763994167319,0.266057499297095,1.37609764031917,1.24728653123087,1.60401652699415,1.123929873317,1.32169807623597
"134",1,634,7931.80789000597,0.625085277845893,0.462628501598416,0.836610585957966,0.389344980379014,0.597367330886287,0.628918652415856,-0.723233624858792,0.488923245741453,-0.719991246265744,0.537906425642853,-0.536422532933207,0.688540359731812,-0.335811490807308,0.696027822720963,-0.573160324217095,0.348401872459257,1.39073160457968,1.2140251304912,1.69991727253693,1.15158951374633,1.35684772801021
"135",1,635,7809.93084286731,0.605082253552072,0.438692751623811,0.838307798615228,0.34037416038593,0.684000861242608,0.628183596829517,-0.739239329248884,0.653769911640684,-0.668258908989842,0.547518630922692,-0.548965794549086,0.763314736575819,-0.413606496773571,0.697865282119347,-0.626836406243345,0.271192134368453,1.36612453356365,1.19245133032727,1.70275996521911,1.11585456905843,1.46785717818063
"136",1,636,7875.289982575,0.586068487491512,0.446767324868775,0.787533308669708,0.363270173569475,0.612175699584571,0.609880371990183,-0.73893939596748,0.661570440582313,-0.657611750431527,0.52191129092141,-0.560499284694003,0.723017772116896,-0.409959571061754,0.711577640233968,-0.615116006907899,0.226722262174788,1.34347627203059,1.1996010425704,1.62020871226426,1.1319652190052,1.37475908716186
"137",1,637,7962.74387660262,0.543766971101097,0.400634021724396,0.795753389540483,0.297545643560517,0.61596269303626,0.584784022735045,-0.643009029099621,0.635476971588862,-0.589852037009794,0.649581879682412,-0.5229183243732,0.749542537139612,-0.405398627988836,0.620382933540545,-0.663229540732466,0.234642060346008,1.29568251886046,1.16050761936306,1.63322345696517,1.08853341000184,1.37941003921248
"138",1,638,7904.70598112963,0.523609089744148,0.403499210826369,0.775824832567988,0.318126762246623,0.602096749512031,0.579158260054984,-0.680065023932194,0.623448828399128,-0.639452719021803,0.691342103502713,-0.51640201291434,0.7379838296632,-0.341999335650104,0.584662730658696,-0.716632292564556,0.187824989052827,1.2741664788627,1.1628116131375,1.60190417082915,1.10120463685752,1.36252049577295
"139",1,639,7786.16512043191,0.506505737612646,0.460778877314538,0.741472750202623,0.346357475215227,0.582621825928432,0.58185780432472,-0.754340820193963,0.529936485499116,-0.657070240672427,0.568867573953884,-0.571034039376573,0.716029272865383,-0.396294955021295,0.690580174398446,-0.653516640778655,0.208244653604861,1.25654806223453,1.21231717377925,1.54978183929304,1.11996350063747,1.33944819204818
"140",1,640,7888.21206091711,0.519873888235071,0.411502449842571,0.773729218415274,0.256976216961496,0.542084838264096,0.556377751987361,-0.7274167420083,0.492666719890717,-0.636173424023726,0.612707085686036,-0.527384217186873,0.70565348346578,-0.303554514335674,0.64776357205919,-0.638531631059304,0.208518115659647,1.27026885966865,1.16933426622644,1.59865690342951,1.06603677608384,1.29385597187581
"141",1,641,7985.80125024855,0.543200892194746,0.49685372510002,0.740827793202829,0.322221616083074,0.611986988002913,0.595852450891503,-0.713811769946203,0.571472851391635,-0.613255163813659,0.639113040102346,-0.580270206678213,0.72940545543349,-0.467270818045962,0.631279888556987,-0.584681462313197,0.316596330965071,1.29506720928117,1.24686362414577,1.54882581918177,1.10382676987119,1.37452807348488
"142",1,642,7892.47750606861,0.504647846528027,0.477701099590605,0.711579293628101,0.340958941874704,0.621796934727999,0.58533652056441,-0.712220450578877,0.633969522855015,-0.611177080182882,0.644203811692521,-0.649887064371538,0.621352103425013,-0.399806582357448,0.619767337778733,-0.529738614074194,0.240179121228349,1.25466944900537,1.22819834055007,1.50634509112027,1.11625300004432,1.38663142803714
"143",1,643,7910.67251610341,0.420200294104331,0.484244076394117,0.653916233254335,0.402355419307053,0.702721527504251,0.586568421165874,-0.751512054367636,0.550625273047598,-0.608088713106744,0.595207562108206,-0.54572525744514,0.637657886279824,-0.501915925056987,0.573385515485525,-0.583532192188223,0.303695816278496,1.17656828716537,1.23449232552279,1.42760644011354,1.16188988344575,1.49381754521791
"144",1,644,8074.62739882247,0.403841810761931,0.465930830962537,0.688334145690429,0.394858478783444,0.659266416922542,0.577122473530849,-0.674612360268657,0.512432162885449,-0.499537090472916,0.691335741264707,-0.543113776067608,0.782762736319193,-0.408218084970862,0.618527528951876,-0.570987781362745,0.347674862516665,1.16308820811948,1.21709153924144,1.47380389612337,1.15591321826718,1.43463220848189
"145",1,645,7897.59335911742,0.423622143265189,0.540978856191511,0.73733876994226,0.383711559780823,0.667095313028631,0.60246832430124,-0.607580081362371,0.546934510645989,-0.468849119979822,0.6728045695415,-0.483897369540656,0.781325050821016,-0.455240396019091,0.559598385812228,-0.584044646387527,0.340168786333545,1.17945572026459,1.29265812284628,1.54366846165996,1.14723456110943,1.44501615666477
"146",1,646,7899.39076759665,0.417264771740157,0.471783911914055,0.665981486001026,0.37940756549892,0.666167806787263,0.574943756857996,-0.601772180875909,0.597719521620639,-0.469230782255251,0.703494884795183,-0.565375786526151,0.712965610433094,-0.410469083503001,0.572225625223739,-0.657910930321733,0.348663688351941,1.17410988973537,1.22258005954093,1.44353133969614,1.14395010075782,1.44377954679975
"147",1,647,7935.40236825596,0.423262161367987,0.461369398301383,0.644767256692041,0.406080939430601,0.647720477710722,0.571658289119039,-0.620563303516665,0.584561120692172,-0.613525263702818,0.72658837334888,-0.51212271365741,0.689768927975852,-0.423442181720447,0.649774417151465,-0.654853771839213,0.342180952360407,1.1791508572459,1.21286172168898,1.41572481530218,1.16490172936884,1.41954181724581
"148",1,648,7991.80710488468,0.404880900833603,0.532569151811817,0.690395603387426,0.487623086785394,0.633299917280313,0.601775417296397,-0.64762930559355,0.583322192294769,-0.555922521225127,0.695161542088034,-0.53357743711275,0.684049913191362,-0.402127691171009,0.629286052234974,-0.674937409572527,0.300380736780473,1.16392854385983,1.28362990146156,1.47664608917669,1.23777627476612,1.40106878522725
"149",1,649,8022.40423953,0.420185904967763,0.553740958949114,0.739281286951241,0.459953139726216,0.725607144355496,0.626945250329683,-0.638092937964879,0.589639168587518,-0.608318677039888,0.612128022346863,-0.526297900799712,0.686617969134365,-0.395613355721764,0.603114254488049,-0.560777024422875,0.313495527956323,1.17655619473358,1.30662904961788,1.54653682123628,1.211556890744,1.52650572793974
"150",1,650,7952.11963317764,0.444477689388252,0.592547621903979,0.73700192663826,0.391334570719286,0.640285922347914,0.611549690213307,-0.67218585551268,0.593689505071685,-0.679302604660503,0.608882120181067,-0.699962228922227,0.68498341219375,-0.40587444791074,0.601227936897011,-0.543357659872252,0.346394569149501,1.19756041636392,1.35111268422406,1.54317183986851,1.15314274624005,1.40996606235692
"151",1,651,7917.80549418471,0.481729235139697,0.601463177101003,0.755979845712157,0.299843484450611,0.673093134804562,0.612642011689929,-0.655449448712233,0.501138812499793,-0.677618256732204,0.612842984146118,-0.615257814147544,0.693173073893858,-0.399873889832044,0.630468132213808,-0.588264697782276,0.300014048919217,1.23206305598828,1.36175795340843,1.57150552712298,1.08990611516748,1.45305436812103
"152",1,652,7912.5181058967,0.471872644523154,0.601739171478251,0.713964974625156,0.30491306414059,0.603144832554001,0.592383983901645,-0.724506783599948,0.581745470586006,-0.667161634879804,0.577396774060174,-0.592690637014976,0.703083684724736,-0.414301611965386,0.644968942781118,-0.591067034750154,0.338811732604933,1.22266379264927,1.36209003049133,1.5097459849915,1.0929719766836,1.36378368903659
"153",1,653,7901.1519753116,0.486716859760556,0.560031033841877,0.761229796024736,0.368597990639383,0.676031742131983,0.619406293639613,-0.600812524184435,0.585186683581102,-0.642981447451386,0.558405116890931,-0.683827257862137,0.624028951109414,-0.415765770398561,0.635376710086707,-0.610386081580956,0.257097055557593,1.23689330157518,1.313634758866,1.57947080235586,1.13586447870339,1.45701891637
"154",1,654,7979.2530083255,0.494406771763303,0.511470234574479,0.764626667235168,0.376575891565232,0.645732942535889,0.609368948362692,-0.573717308236457,0.621232303674359,-0.612827901473418,0.581449526878441,-0.7052250457398,0.632684666448505,-0.362550795052489,0.641097549600291,-0.608158554955927,0.260029592351093,1.24443805596541,1.26160180085567,1.58465394024716,1.14180940210815,1.41697103307606
"155",1,655,7997.30161146223,0.471979495095773,0.467989502169429,0.81417867909629,0.410511675589318,0.59133962765588,0.603033786517739,-0.582176767833762,0.624472095829197,-0.691203790820463,0.623104007627409,-0.613483358538844,0.598284798686417,-0.402182741952388,0.701632978717914,-0.634268543512455,0.258466217959181,1.22276464379086,1.21901417414079,1.66288692149498,1.16851983579515,1.34968255523619
"156",1,656,7981.34792292165,0.495671049150761,0.47163440407429,0.803056747891364,0.347943825048792,0.599181671185091,0.596277334188007,-0.661177547897279,0.640058318500459,-0.697946547512933,0.588469158665834,-0.732668775264992,0.616176502991087,-0.420634855805237,0.676328480226708,-0.572736827380394,0.306862180610754,1.24568978896622,1.22243901110651,1.64490014033385,1.12106490538958,1.35901867508416
"157",1,657,7944.19804599494,0.481979224831849,0.389831253540693,0.840938565278608,0.394060871004385,0.675931522381079,0.607647727525765,-0.760025626005434,0.569750759673433,-0.637976936831327,0.555410581430695,-0.664576651022256,0.608237819714883,-0.477199884589596,0.702782503979134,-0.604802303747812,0.31801089438542,1.23230397316951,1.15196840623711,1.70717767057284,1.15528397005673,1.4568834229484
"158",1,658,7898.61386804113,0.447421128760094,0.384493484454906,0.789949987952952,0.399773266814286,0.67641109359107,0.592816242613167,-0.703904161896311,0.576828155695799,-0.617600882614223,0.55415400219008,-0.621739719651411,0.701262948379402,-0.391581518534099,0.682853545200028,-0.585198727446808,0.33424008391936,1.20018566646096,1.14783523958828,1.62402098346687,1.15981866485937,1.45753196753307
"159",1,659,8108.20617764235,0.430513855049212,0.4333256115095,0.741477475225987,0.307345302817431,0.656850034381656,0.56905443141148,-0.670172253933513,0.586636684191022,-0.59259443281123,0.699575858229634,-0.694310312973849,0.582148157693537,-0.384255620217988,0.677207664996248,-0.633804095467539,0.359251284031299,1.18534217938933,1.18777108559008,1.5497888462675,1.09446113516394,1.43145196766718
"160",1,660,7986.20420279941,0.399884284324422,0.392179343598477,0.676484455736791,0.295257227985676,0.643618694875765,0.536852221654474,-0.720889718189494,0.542827803821894,-0.623280575195713,0.687253327990878,-0.517930803942077,0.648698565089933,-0.515265587586154,0.583252180076936,-0.636053870109728,0.314667763875607,1.15990744084966,1.15380463754533,1.4576312188535,1.08717683067779,1.41424502439358
"161",1,661,7989.88677762252,0.394244474756295,0.371800953403528,0.762363881768363,0.277434679198409,0.612191489241576,0.53903861564901,-0.734695460150671,0.535349837099314,-0.592360504194474,0.610944523429921,-0.485481300484991,0.676531323016174,-0.410894444970421,0.595353362257596,-0.639931448222294,0.177492832549022,1.15542870587587,1.13823594895177,1.58119868822493,1.07697000122192,1.37477841949982
"162",1,662,8135.06959235041,0.434088309924781,0.416682391213066,0.69788185639521,0.293450541510722,0.603264974179473,0.544619336479923,-0.785134498535827,0.462525088537505,-0.711395885516683,0.586901983436169,-0.650680032089091,0.651089827275537,-0.431033752518574,0.598305779864073,-0.62172271879128,0.348550299569813,1.18843266081335,1.17362421514704,1.48703908548563,1.08611322031294,1.36392862907176
"163",1,663,8007.48896733208,0.456424862290999,0.440264043208575,0.666873512210759,0.302964714519833,0.588679696333511,0.546610300551791,-0.753434027623071,0.425198751250517,-0.705071928129005,0.585082451181139,-0.55242257997716,0.699365642049737,-0.466029324319222,0.616857071649394,-0.685568468865751,0.281260301956338,1.20832365491736,1.19383242774236,1.44472028128831,1.09178761824408,1.34654378487531
"164",1,664,8118.51026473676,0.500644190644135,0.390668278212529,0.730860325004476,0.345475081163913,0.637127318701893,0.575726599525683,-0.696251799816372,0.472427668473372,-0.630126105251291,0.493598569489022,-0.485726301051583,0.683692923440308,-0.355839024971259,0.608233221096141,-0.661955954839101,0.179643545808957,1.25064460562572,1.15262170360154,1.53415681466565,1.11935303170521,1.40593122023626
"165",1,665,8082.46962861976,0.5434097429522,0.3429692621349,0.728944489862235,0.290837111740056,0.61072304189776,0.558876852138843,-0.737428691065404,0.519980055770885,-0.6923188919965,0.514739567540766,-0.495339079067399,0.751635634764036,-0.397865147637269,0.669597097676476,-0.686095818428545,0.238057185131988,1.29529414873538,1.11762791476936,1.53136006930051,1.0845862255653,1.37298263390485
"166",1,666,8005.41508547295,0.534275272455372,0.348006081216959,0.678337340884285,0.281436593449944,0.624959731907393,0.54898733212982,-0.754795422127434,0.507430519970176,-0.737046550328642,0.521315459329734,-0.533738676539195,0.665531113985104,-0.410933079913729,0.643195422445245,-0.664012260092952,0.231366794531722,1.28545006675726,1.12110823256398,1.46014154803796,1.07920655613271,1.39057466650576
"167",1,667,8010.76167493201,0.542038991122863,0.41514160299394,0.735023713510155,0.226591489094105,0.553040421995276,0.54995395412127,-0.769576824931532,0.388059839501572,-0.65605893134048,0.526749336305415,-0.708235013028901,0.634183198032124,-0.419522235783721,0.61069862572759,-0.66964153048222,0.303174667238742,1.29380626789749,1.17234255053638,1.54025985942226,1.05134370292988,1.30585370836071
"168",1,668,8125.13133630396,0.495403109519264,0.416183498129319,0.760687589718873,0.203653476007005,0.601497981163983,0.551071775122306,-0.821832694981534,0.447399314792538,-0.735094571601141,0.594175486584474,-0.682020951562538,0.585063811379259,-0.436200085302843,0.568434170462487,-0.66984650794411,0.198188355420863,1.24542424092136,1.17320870411516,1.57864560915231,1.04147473828974,1.36179982134435
"169",1,669,7995.50260032886,0.492820574399811,0.447640602757451,0.684077951455722,0.167803961850314,0.686951803921124,0.551444924006593,-0.741835952013369,0.461241721435918,-0.729961069259634,0.486364037920649,-0.591651346529784,0.613257566126232,-0.452940458376354,0.676909584589063,-0.599575937350278,0.297578292593641,1.24287211855176,1.20038210923705,1.46796264366786,1.02815816961266,1.47190278091049
"170",1,670,7985.78133077663,0.527917083177426,0.386328863207811,0.644474209367221,0.142008914075186,0.6832375911383,0.531979689322526,-0.67756270679691,0.48829016119319,-0.63320640420607,0.548554733399528,-0.582839542176911,0.61929942941569,-0.433298790139319,0.578547020302116,-0.62057158996485,0.249524368238507,1.27869644671056,1.14924999054744,1.41534700653951,1.02016653167681,1.46681360594447
"171",1,671,8079.3303897616,0.468755598424567,0.323223141311315,0.626386095467968,0.115815877306434,0.652586018285517,0.488854405650975,-0.674717806893956,0.655813825161873,-0.676050781607,0.546404343188501,-0.603105479595637,0.594351993643103,-0.417857424654874,0.76535015630419,-0.64080834227425,0.335394196896354,1.21973181105437,1.10447319907915,1.39235954059561,1.01341331743626,1.42586851126174
"172",1,672,8134.49056799042,0.500492202170603,0.323221890508576,0.648819009043845,0.13239661793732,0.677772379928284,0.51031899279848,-0.687548694065517,0.533965540231029,-0.584546875612275,0.591798615642399,-0.576246597365541,0.611568579556721,-0.307477970969203,0.711393200920566,-0.560491340571407,0.3545631673332,1.25049244443358,1.10447239050394,1.42096610649664,1.01752886444124,1.45937539899365
"173",1,673,8067.11274029547,0.498173078363459,0.293259715235313,0.658336541890655,0.135757973122234,0.701303545879773,0.511222113340764,-0.706567513797752,0.483672553908296,-0.678038114943909,0.590368768594054,-0.62781069709631,0.642222768186577,-0.308640599048598,0.666589661939236,-0.577992400438477,0.308004196794476,1.24817641600612,1.0860012605799,1.43340700238855,1.01843022726626,1.49182666346354
"174",1,674,8066.02619238147,0.522647832749056,0.29980929786686,0.699819566527471,0.130750462840045,0.721822881410991,0.530071333102277,-0.632754119085286,0.547815524391678,-0.673581687303151,0.598395410877536,-0.592677900920337,0.600027682337556,-0.379992103070395,0.702354653241794,-0.617058492615716,0.329758076346619,1.27316075707729,1.08988561508742,1.4897474256947,1.01709568353289,1.52102827212847
"175",1,675,7974.11893089429,0.49111067850487,0.261311534718424,0.653622069230074,0.155222297015256,0.742640965192428,0.514939380767377,-0.633651117973705,0.539988187545569,-0.559469093652497,0.62632471035164,-0.559867233180187,0.597641137585892,-0.367489511531102,0.726795723025297,-0.64952109133175,0.310258226032571,1.24118969854151,1.0682837181769,1.4272218093846,1.02409396149069,1.55151560318194
"176",1,676,8002.26445479841,0.505094360971645,0.216776969979518,0.615873498394627,0.163126148403682,0.745060890769439,0.502200768313963,-0.677450866139634,0.497721727865208,-0.58588773014437,0.615460574315037,-0.599404483993133,0.639658435521109,-0.337624544548215,0.728393250085075,-0.601489455179761,0.309287973584288,1.25512031348535,1.0469922547135,1.37930016602484,1.02661014029302,1.55511573095415
"177",1,677,8075.64370710925,0.466150229754675,0.252268562507629,0.658134641963998,0.140379964370105,0.682027998980112,0.491633881212077,-0.784472720704355,0.506263602183481,-0.588425475727867,0.631329745906568,-0.610585739076459,0.6236760666835,-0.314060017374631,0.719568765469055,-0.641357069689841,0.317840633074032,1.21729603670034,1.06363942762967,1.43314120695308,1.01970653439655,1.46516219139282
"178",1,678,7989.40301524818,0.415495680709362,0.217613064796378,0.684698789874603,0.125485671589067,0.755622024938091,0.491623386891343,-0.757161855806348,0.537337572734676,-0.591824165290436,0.544460360948781,-0.576385913024828,0.57493011414449,-0.268046251308963,0.705710621928967,-0.65542513509202,0.220816784874748,1.17263666068814,1.04735544597007,1.46881243285575,1.01574665377416,1.57096464457154
"179",1,679,8078.55621452924,0.458999924440789,0.335881782435336,0.632361889071143,0.162036133106914,0.733485397681433,0.51901052387119,-0.699947226354533,0.570262709341013,-0.632857486695602,0.5042223958554,-0.681479243657934,0.570019510826112,-0.30607098189953,0.787566912494811,-0.751605619181399,0.217404066697362,1.21068093063665,1.11281657177194,1.39988155874962,1.02625570843224,1.53800082861189
"180",1,680,8023.17105662377,0.420376919698146,0.309896239510486,0.659241189007303,0.265538405594519,0.739341109451839,0.534152317206094,-0.704695659966601,0.531844244322199,-0.70191898653672,0.518527860688806,-0.587691094256966,0.537152338855138,-0.369653320737746,0.787574098347915,-0.779965149275926,0.218670901435563,1.1767167546149,1.09603567926274,1.43459894528376,1.07051064484568,1.54662527612548
"181",1,681,7920.63051752208,0.406448087598957,0.257971920388433,0.639942892397025,0.225481588245544,0.745433553647868,0.508690777178611,-0.707266597219251,0.501301487357265,-0.651235127480395,0.532382214463017,-0.596572666079571,0.499093915451249,-0.37617867514865,0.792336990276712,-0.762903796410444,0.2848980344438,1.16520004791285,1.0665495117089,1.40952690552947,1.05084194663773,1.55567118290409
"182",1,682,8090.88985084153,0.400390053280281,0.258464222825836,0.627894477840841,0.282151003004826,0.79410563545903,0.527579640053201,-0.678652871993258,0.588025705440639,-0.643978183366488,0.59710822236682,-0.605299685988096,0.709839372217385,-0.335820043711968,0.792234369980487,-0.589112747948229,0.297911590881368,1.16031219476579,1.06680375448096,1.39425147530302,1.07960918849663,1.63060376026779
"183",1,683,7858.84951679428,0.442171020639912,0.239934313388088,0.574597202527117,0.363918204360725,0.875031333339996,0.554695792898186,-0.559161387656013,0.646589105749078,-0.652894360633016,0.558281203582751,-0.555625355501519,0.637628376188653,-0.30495024767866,0.5815378478737,-0.60977976403887,0.311951737118638,1.19551521149374,1.05756847474101,1.33016194515199,1.13243645946513,1.76567983432677
"184",1,684,8060.33899268248,0.443420122216943,0.320536139059508,0.598119580907993,0.435540812718683,0.902031087586347,0.593102201248142,-0.68476465931624,0.66517604193488,-0.597347773907052,0.671541566961701,-0.594645186921409,0.641813584146622,-0.313629756517021,0.713411846568992,-0.694826516239141,0.326670276625521,1.19662140478689,1.10274341644318,1.35774703306555,1.18969579954365,1.81366008297221
"185",1,685,7861.66171354242,0.466362272726056,0.345149865697836,0.61044386194679,0.401543687816852,0.811148774946007,0.581287662718111,-0.630527150709112,0.562442665297418,-0.532656287211682,0.691132221889644,-0.585281084735355,0.694548681125301,-0.367647229415357,0.662785150973525,-0.652473711682946,0.337784905264113,1.21749376942221,1.11912842979123,1.37264170858851,1.16123733322556,1.65796233509641
"186",1,686,8087.97225468832,0.451233820020013,0.297621219235005,0.552217058319963,0.448073214396188,0.82657720023064,0.570238000282244,-0.568828729240386,0.654738726987557,-0.54889842065507,0.656170606154055,-0.570107477495388,0.523829763076498,-0.361014238191139,0.611661781091243,-0.604860785325965,0.350254647983905,1.20361196032985,1.08857839013893,1.30494367949955,1.20076960545933,1.68322986794112
"187",1,687,8080.93238077415,0.53264742272436,0.350939974485188,0.569354174696341,0.43520629176256,0.831057572170713,0.596581535279223,-0.629816024778108,0.658454523435521,-0.598344005989616,0.613725766117987,-0.545384995190783,0.554763744540473,-0.355500216322198,0.680675248819232,-0.637538226708249,0.356659558288211,1.2837132769349,1.12315886569166,1.32416417624415,1.18940451638972,1.69065668826228
"188",1,688,7900.58044740507,0.521632530576849,0.454059549061278,0.538297294827433,0.452540978930229,0.861624977963963,0.615339124155522,-0.591635922438992,0.667076893073123,-0.710858980545647,0.615645983565576,-0.617003877706432,0.576828184621919,-0.477723825066739,0.666569789494721,-0.649798072383543,0.358312243149838,1.27210049695601,1.20617007409373,1.28976397761853,1.20479333761113,1.7423976026514
"189",1,689,8009.91618623723,0.526963420480583,0.387863304335338,0.546517029723872,0.433373874205407,0.818973097786247,0.595603967940811,-0.566370382245257,0.610364216217344,-0.648018146386165,0.601869205987574,-0.57914200812089,0.5940239160691,-0.459695359988116,0.627665034857756,-0.698772233110161,0.305268661708741,1.2776904465246,1.15043794284993,1.2986808637782,1.1878129148438,1.6707169348976
"190",1,690,8108.71908163789,0.466019416133186,0.356117032986383,0.562237419764991,0.451037237770666,0.80982173933502,0.583238061884413,-0.591823467329208,0.620145201256406,-0.678793066380053,0.557331474948104,-0.635449670866035,0.534675004916507,-0.395809549702601,0.658800202484204,-0.716163209290394,0.229479010689798,1.21717409621312,1.12681934118302,1.316110916184,1.20343458985579,1.6558112494996
"191",1,691,8067.47201982576,0.482307193876556,0.344911354269455,0.502463213326759,0.432502845966224,0.781858117485107,0.564162033781952,-0.663061005163384,0.620651357657996,-0.661419297448575,0.5635277755293,-0.681662084960649,0.5530512954214,-0.386893609888059,0.683868111807761,-0.655063618894216,0.283733443938762,1.23262022926508,1.11896384230399,1.25246928074665,1.18705871176888,1.61130211587735
"192",1,692,7942.52656360385,0.475852129062341,0.312180935734906,0.510755822808724,0.387251189147196,0.715763656740443,0.535689727895968,-0.70543533196358,0.584202017736482,-0.652030724327487,0.54979385940026,-0.559273407155671,0.624977926739758,-0.363932056031973,0.72429955857471,-0.632999107681657,0.293147240896665,1.22643524873316,1.09745693663632,1.26087151053302,1.14996348349592,1.51231761231045
"193",1,693,7949.90250709492,0.51476497320367,0.32715292105656,0.511218241239139,0.32604062334047,0.712502866799505,0.53358780796143,-0.703298750840193,0.555902170507203,-0.695406822786854,0.55770152411084,-0.577123179741947,0.642188208880298,-0.278248948566185,0.747693051894152,-0.650738653384757,0.328470955299029,1.26498297763737,1.10702903375584,1.26134409017564,1.10630248806824,1.50766033519751
"194",1,694,7964.14753328619,0.458905625522176,0.2868759765796,0.504551566983693,0.372077947375181,0.781353939858733,0.536095760127818,-0.708588939099582,0.556852855892669,-0.651523477543654,0.552761558412607,-0.60138326767236,0.601095670690101,-0.274385724880201,0.736166089711747,-0.635240170279947,0.3057412645918,1.2105943731359,1.0822978259385,1.2545722837457,1.13844199892293,1.61051397933276
"195",1,695,8021.63453578762,0.509480064083766,0.280209865063675,0.519737469524993,0.360519763590752,0.82588779482397,0.5547319931148,-0.731685329098816,0.477016503239259,-0.639512384318658,0.55935646261986,-0.609675250727976,0.50534642304477,-0.274522390722777,0.688386041636984,-0.582701586585349,0.344415192143557,1.2595699356988,1.078517568479,1.27012703722824,1.12997449993953,1.6820906496392
"196",1,696,7996.48891395891,0.462816814250752,0.241436025039442,0.546187920898302,0.31807886685416,0.769564867122117,0.522291735547235,-0.684547328023663,0.569380541817764,-0.581590583641205,0.559687803322897,-0.62935630003238,0.542846679649771,-0.384239125880688,0.723959899196616,-0.616478187062344,0.358993944996187,1.21419940355322,1.05829135418685,1.29832124493521,1.10117416553923,1.59223008470868
"197",1,697,7864.70755242334,0.457527431708608,0.342582763182768,0.431304167497173,0.298861838440028,0.903120096580296,0.542183971853835,-0.693939150110854,0.558740806361405,-0.599289963241064,0.565749376019259,-0.643302433921292,0.61771133061853,-0.38335806672813,0.679246037126989,-0.594915991991502,0.386236657021905,1.20933135076587,1.11736294962994,1.18602328490043,1.08931839847575,1.8156259088472
"198",1,698,8038.83942819173,0.525572495576696,0.285030297320563,0.368245697089723,0.276341945607674,0.95030906217367,0.536454507733412,-0.723720714481474,0.634588465039196,-0.605479975266972,0.590410402994425,-0.55870417645344,0.551230810423973,-0.382689358427497,0.579872173229895,-0.600625948563526,0.451336286257533,1.27622644810672,1.08124227039065,1.1356048934251,1.07636487090223,1.9030873136494
"199",1,699,7985.34026814986,0.56919158868512,0.364787764421417,0.400331917942775,0.269622458245995,1.0137139777854,0.578133103794652,-0.726274395185083,0.581765611135589,-0.633017822229476,0.650243206662772,-0.581645042574771,0.482374135689165,-0.378059074495713,0.699732682512639,-0.612970311308454,0.363391190495589,1.32397906462989,1.13307011307158,1.16026564452374,1.07269626999061,2.02761602875749
"200",1,700,7994.86023485118,0.53372230883154,0.354070798004387,0.414836274390232,0.223024410053604,0.9714481233899,0.554982688617418,-0.601626751198256,0.549001388108544,-0.614686766303172,0.590225946040586,-0.634863608889706,0.494128787104157,-0.379658790622868,0.70957303294333,-0.686702362200399,0.330347402801958,1.28485950294447,1.12536612999946,1.17208913454997,1.04973988747976,1.94371145643776
"201",1,701,8048.81527809875,0.496743665032097,0.429003451992347,0.348223192016295,0.247531701551741,0.935664977078714,0.547005828331859,-0.597164656945228,0.653521641849474,-0.596438425397723,0.630445189437751,-0.629732724480631,0.541745988092085,-0.384452392478478,0.705816786317732,-0.721240027862244,0.331207945781155,1.24675426874952,1.18404396182135,1.12125939145802,1.0612719432731,1.87546894933171
"202",1,702,7985.9780624209,0.496798722358625,0.467766627766576,0.509388366060709,0.236762705864246,0.961740131658728,0.588207041342996,-0.636584730147912,0.636914737219778,-0.696949775618494,0.541053612900897,-0.630712789209582,0.625743107987113,-0.362683796196692,0.611302239084444,-0.61517985524564,0.284858472583694,1.24680897053716,1.21880561805211,1.259476507478,1.05605657888816,1.92494408084295
"203",1,703,8000.52981372845,0.416294456270795,0.402967233558999,0.505411857392585,0.230768908412476,0.951812075186044,0.556986009624263,-0.649811518299988,0.575161962518947,-0.758507577703552,0.523966305870712,-0.559207401378014,0.603266241494027,-0.313983409643487,0.689419518909932,-0.673060802547613,0.332536166295973,1.1733010743218,1.16238259132219,1.25544114559302,1.05325428908989,1.90594622646996
"204",1,704,8023.80725499994,0.369237090151103,0.398612083955922,0.491554819643923,0.277818097871405,0.963999279864175,0.555796742098362,-0.681498178589753,0.577821031376915,-0.747961015297787,0.492060877470461,-0.551945299261393,0.71332520128183,-0.301518789368779,0.767777172571648,-0.655790968845557,0.354326557079222,1.13633602874325,1.15889159347568,1.24162614071517,1.07718289550489,1.92929461157865
"205",1,705,7937.7323416778,0.378476605637618,0.38407357705944,0.551742943593491,0.267653881579456,0.890065481454208,0.549989252512003,-0.678335991756218,0.504867993867109,-0.67339214671985,0.554701821731019,-0.52296795513082,0.67873678966073,-0.339051948273836,0.750861571502551,-0.69651410362471,0.350468130689086,1.14324454101497,1.14751251259523,1.30442027580521,1.07163860032455,1.79221656127631
"206",1,706,7895.25571004983,0.430425039193836,0.3877801662394,0.610106224591122,0.365490008182584,0.875887271905006,0.587704959794645,-0.660948140120491,0.547393136815513,-0.685468988576067,0.572860662460039,-0.604698845695745,0.679105868548797,-0.386948603626334,0.72944578957679,-0.729203954023425,0.296966748760807,1.18526571436502,1.15037345732866,1.37222960528483,1.13358294608131,1.76717851308519
"207",1,707,7872.28384029527,0.440206518377191,0.370343744428292,0.550582901873649,0.34659243806695,0.810061759631751,0.55905385382415,-0.585584367687749,0.568287800986837,-0.741692679142679,0.559836242778222,-0.541909084403142,0.706656980013999,-0.370096863835554,0.705627143788465,-0.723093480681189,0.273004212149876,1.19378177882177,1.13715448903717,1.30314153183561,1.12012631812519,1.65620005441769
"208",1,708,7973.17142837427,0.523239544608239,0.405501168553126,0.479860883062276,0.334740420910255,0.790283649076304,0.562143218506164,-0.595638611091689,0.59423819162126,-0.762652521982231,0.606701774901528,-0.535408521147138,0.708643289975798,-0.398058983668108,0.705797913177005,-0.71993123151619,0.264543202024131,1.27377962104184,1.16443119769795,1.23026646709331,1.11205114939117,1.62454824599736
"209",1,709,7938.72542198198,0.529678543657687,0.439901307026534,0.471197593905542,0.331795918051644,0.860297496865005,0.580959081109276,-0.562158855257253,0.596878808272149,-0.713923291707833,0.538150573777234,-0.558633214251918,0.559607251013944,-0.436860068467058,0.656515477168866,-0.706177391738432,0.251674378294766,1.28055935961133,1.19351315992365,1.22202717250237,1.11008853123573,1.74011178311219
"210",1,710,8015.67334376932,0.549897474453377,0.395075143646818,0.525620181233939,0.307839133424249,0.867886140082979,0.583437451151486,-0.635116195712305,0.545368336337035,-0.705560073721878,0.555522931753162,-0.532635941304768,0.553538356690263,-0.436623711367951,0.689492630834656,-0.696981140987875,0.253793801808948,1.3023872324102,1.15608436912755,1.2762765749204,1.09476493206739,1.75322635214813
"211",1,711,8032.06178324053,0.507267667033426,0.429843195971955,0.44190993248487,0.316068288152665,0.850976020348779,0.564552766820279,-0.63050555134102,0.492326903153897,-0.730791028382862,0.547352593345136,-0.564975462580128,0.560387741696663,-0.460975462534659,0.670348229968096,-0.637975300278715,0.308983557329734,1.25732048601753,1.18476517312338,1.19528438842878,1.09989916277576,1.72416018720865
"212",1,712,8042.37375714217,0.442484703147162,0.442842059525803,0.367661080744318,0.320973033818895,0.93506010573779,0.557333551630127,-0.79039136582133,0.447981725452449,-0.75591161298136,0.482881289608577,-0.552899990711344,0.665716026618587,-0.447513904404827,0.632107954805847,-0.710051396717086,0.221987347098847,1.19579271251923,1.19610908968506,1.13517467029408,1.10302368843891,1.87433740134237
"213",1,713,7902.46041106753,0.491020842428867,0.432515501574563,0.38013582435297,0.382252612035562,0.987944926850418,0.588463113574653,-0.743851128329769,0.465057652014202,-0.761984856120278,0.584331214811387,-0.585882998676723,0.674222129702556,-0.437128338076928,0.654766236811818,-0.708634751746192,0.311065965273933,1.24110146769955,1.1870696591023,1.14450324495651,1.14611705940801,1.97603517848948
"214",1,714,7808.47345373282,0.483789642719541,0.458553246954006,0.396317832295234,0.44905435011047,1.00451378090802,0.609269440703866,-0.706987011905512,0.554829218715091,-0.759443943729561,0.642272388866328,-0.57528150177718,0.669350172635997,-0.330636218199983,0.70778947428809,-0.683903482931574,0.266881989842781,1.2340524184027,1.21027108029206,1.15706782419519,1.20164980935314,2.00904793603413
"215",1,715,7746.07909859788,0.498218363469934,0.470394373493378,0.436255909001433,0.503679833196737,1.00939242137767,0.630023698213745,-0.693055280889234,0.542189741484104,-0.751119719483968,0.557345875243388,-0.642714058061132,0.667873141133678,-0.363750960534301,0.694729119705749,-0.688791199434456,0.282535499444578,1.24822153769866,1.22127086661423,1.19031921813867,1.25369337436909,2.01887306033467
"216",1,716,7838.721140653,0.502663490079127,0.488245324406777,0.445895106939582,0.478360312202911,1.00581171401547,0.630508212312709,-0.637714466061569,0.468681406695934,-0.711501015855459,0.500852071477675,-0.674764653166682,0.528446185722275,-0.333541100849869,0.674781871276379,-0.69127290835179,0.215495639819651,1.25267058425853,1.23838349680508,1.19882244639266,1.22882858829087,2.01165720405073
"217",1,717,8001.44268314894,0.516997104976228,0.517572088852886,0.477450318815399,0.397039830913404,1.00886905023767,0.630021700055143,-0.782228313016963,0.45626501718144,-0.690522703073102,0.513613831193791,-0.653870427657389,0.542745128186337,-0.34541039281681,0.616041093467309,-0.698022233510965,0.289081393334991,1.2672860065538,1.26788086715954,1.22795880693693,1.15764062733174,2.01781676052745
"218",1,718,8045.08056139788,0.517813056866198,0.56354917159852,0.544151340351405,0.406189296047718,1.00947307381901,0.649092052460595,-0.821321574462214,0.427791651346013,-0.703370713979053,0.503772090657131,-0.619044530960216,0.597387465764582,-0.418106631615693,0.612911437785486,-0.702152949463427,0.278119903351784,1.26813036186112,1.31758766880938,1.29610068120623,1.16498974422374,2.01903588676559
"219",1,719,7810.97808743456,0.550806548194376,0.427333750859035,0.552795264573255,0.358415174068206,0.95788217925705,0.618516747924075,-0.839041674515311,0.428750102881214,-0.710524873055591,0.653583659572581,-0.649048019288829,0.522616808187222,-0.225475204533622,0.811363991270883,-0.752923145003832,0.334732702951818,1.3033878535338,1.18261413462325,1.30558260453462,1.12846143700234,1.91753826933824
"220",1,720,7871.5046889891,0.531108612817685,0.46412049795843,0.497948377067001,0.316378312881065,0.974479128073423,0.607869294211074,-0.844014312942227,0.474723798996796,-0.725783152033886,0.568377959979272,-0.62124019228959,0.540906247022893,-0.229001397097486,0.781207578787153,-0.75075670111845,0.323252974247437,1.28207635860913,1.21540783662518,1.24795258622366,1.10009523686147,1.94960957105074
"221",1,721,7956.16747516929,0.434442698645089,0.443033171493953,0.568584447421789,0.359579906733453,1.0220512513087,0.615261471863411,-0.867364058456873,0.432131447874708,-0.680769451403263,0.527688244585215,-0.620468935662116,0.486213309889465,-0.198974389102857,0.789068616630284,-0.752836003951425,0.303773834831343,1.18874045840603,1.19627839104399,1.32328827384994,1.12929770932644,2.04458876030169
"222",1,722,7861.58912716379,0.453208591494784,0.373302646923395,0.572527091584406,0.407809944040858,0.962755202987712,0.605388916915657,-0.829446084465276,0.43421392369985,-0.694623185481411,0.570695334465314,-0.65463926172899,0.486137256767189,-0.281121400002686,0.758022509688519,-0.641085649566915,0.369058226462071,1.20539802740469,1.13935486620001,1.3277872705981,1.16630895045861,1.92689758087991
"223",1,723,7934.77477131205,0.458045071267359,0.353570086891614,0.53027366568775,0.419544565768407,0.995636763196482,0.603219818087811,-0.842114677454365,0.416924166550827,-0.643509594545251,0.593579912101712,-0.696464458660262,0.492645581030361,-0.429139276143516,0.790105588913095,-0.711856697086171,0.338520253479627,1.20980528731232,1.12501180634454,1.28119016052192,1.1760176426658,1.99129256422837
"224",1,724,7972.25398540242,0.437652102054952,0.401773132210216,0.566007053874374,0.444703389797875,0.978532787685021,0.615425004291014,-0.816233999197922,0.420205331897693,-0.640135183363118,0.585690684719212,-0.69528618154792,0.523825795531911,-0.398732822520908,0.533174623155322,-0.634812609698576,0.422050135990883,1.19153936243312,1.16142164976601,1.32036398503555,1.19776110489772,1.95752641657462
"225",1,725,7992.90816772144,0.532965692858759,0.447261281047617,0.508111701988416,0.370765066902254,1.03012670887799,0.625402297410798,-0.737058913452151,0.513383536445154,-0.635464137381432,0.621806677755989,-0.645092813276438,0.523480891954824,-0.506140365893029,0.533430795879529,-0.730677166307698,0.346024338270706,1.28405242976442,1.20004265352436,1.25817750169756,1.13746673483503,2.06116103634379
"226",1,726,7872.78541596196,0.516486453062127,0.408329345263494,0.555261488989363,0.400148183973469,1.00001067673011,0.623940271253142,-0.667120519291979,0.52829308525069,-0.644247191063516,0.494052563768853,-0.6561287304383,0.538049516008995,-0.486750075884999,0.678525739114767,-0.735161370054768,0.33757659632073,1.2667582561967,1.16673285420331,1.30831532115468,1.16011856913727,2.00002135357421
"227",1,727,7882.27806514382,0.549098272741601,0.433417855676672,0.498922299827988,0.464808325508067,0.977088175429517,0.630884270622756,-0.744824008939601,0.534658377660351,-0.620805961676729,0.643857455316238,-0.569076237381574,0.556295108445085,-0.496716015039747,0.67931528591276,-0.715024032150881,0.208904565839309,1.30150891312781,1.18785103761936,1.24892346126565,1.21604677946161,1.95470130256418
"228",1,728,7949.25489216905,0.626136617425986,0.41368201364447,0.599074107335979,0.468071170501813,0.987535661537256,0.656968658178565,-0.727636001254734,0.562854953157125,-0.652091006514738,0.62480154008817,-0.597150888630615,0.606893214545368,-0.496674055363755,0.678044891393544,-0.688700132671734,0.231839047538721,1.39204706368166,1.17113280841294,1.3588897860804,1.21909062065494,1.97522668280783
"229",1,729,7994.41865569753,0.64288820063342,0.474229392322182,0.536184467074456,0.473504091704424,0.973227356328758,0.657773517996795,-0.795293807837331,0.45756178861436,-0.785047846071536,0.536273913241688,-0.587016493329236,0.578054846729704,-0.516983771389465,0.578540888714663,-0.691208774732207,0.247593097451031,1.41330523851368,1.22489351654227,1.28749378273192,1.22420612486083,1.94717148710666
"230",1,730,7916.01708651107,0.522973619660913,0.485541349668003,0.528443215332873,0.475289815571609,0.962148167377698,0.638911804558212,-0.685540347708791,0.462613771840497,-0.729009234368558,0.539827838750562,-0.668644752857604,0.517980710000968,-0.469542794297478,0.503262104580062,-0.769349483975969,0.240765237889966,1.27350140686124,1.23575040223743,1.27925223183135,1.22590040878609,1.92572909598826
"231",1,731,7889.33678835856,0.458195747920978,0.461428105118957,0.547105194495018,0.44736203422799,0.93688212853686,0.619136073667183,-0.686784285466881,0.565089179022114,-0.693823823463795,0.50923369339724,-0.679815478234424,0.501752984191764,-0.519463966549157,0.504688767879472,-0.811857851556181,0.228399940068074,1.20994334341286,1.21291589619367,1.29932409384343,1.20013278966861,1.87774812277176
"232",1,732,7763.99120669035,0.473069310469754,0.451347259955845,0.556774022413378,0.42329827258931,0.956993750000855,0.620869834410609,-0.684860063121848,0.535482133922601,-0.707301874823585,0.532430366570087,-0.679412642325897,0.528263703186744,-0.486359658436609,0.592143160949016,-0.642731618779459,0.197294174489322,1.22379457250833,1.20371434906965,1.30999731203437,1.17918142757709,1.9158370375407
"233",1,733,7909.71998066243,0.427944694012273,0.472460349791681,0.583966623472503,0.533436576880536,1.09240526546061,0.659247997516011,-0.757072010326652,0.503710489849204,-0.731130124430344,0.514195181519363,-0.689527111403236,0.508182126110663,-0.451736932396375,0.595598129960399,-0.830289840911057,0.195143854730834,1.18313666113326,1.22321878212528,1.34101701732988,1.28455458155402,2.19334926400606
"234",1,734,7799.57417705618,0.444875197325233,0.487555784119006,0.535477222410701,0.488464270555897,1.06139419393737,0.645563912134999,-0.711814130073923,0.524429306134019,-0.717893636984391,0.530314885087314,-0.645216147837143,0.495173347642981,-0.493353874022844,0.576047753472355,-0.843820367543605,0.184125777343232,1.19791394119516,1.2377106426279,1.28673585572068,1.2385973436097,2.12655763492396
"235",1,735,7733.76490959298,0.540722545159937,0.47544437289957,0.570274896054514,0.499263162699301,1.05808648350631,0.664055814751174,-0.674413939619395,0.646332439187991,-0.633899606260018,0.544679053749464,-0.649774005223786,0.67956952778331,-0.438684245959278,0.636304213017896,-0.791039324759179,0.248620667423131,1.29238087084424,1.22604735172187,1.32521345706999,1.24926370562851,2.11954700657874
"236",1,736,7834.85055601651,0.53870700558303,0.477045865060901,0.595495107961047,0.487711829752753,1.02432481768588,0.661129680516374,-0.696007674858059,0.64622406080959,-0.630571869606355,0.533065155445827,-0.52982045234761,0.648683665218451,-0.318365341334296,0.716949252524814,-0.702341178862781,0.269015888632133,1.29020523786423,1.2275727573717,1.35461442360554,1.23786282888078,2.0492413321272
"237",1,737,7987.81273384229,0.497311023620454,0.416834901324225,0.543271046697369,0.477840767643225,0.933721887138359,0.622100874019725,-0.705717466827522,0.543678084482388,-0.634857369552939,0.543855860590637,-0.530103072376505,0.64878740747558,-0.38256176770957,0.623342900628343,-0.740478075912788,0.311853627824818,1.24731825421442,1.17375133496198,1.29514343017965,1.22833179922187,1.87183656252122
"238",1,738,7905.43868907526,0.436153555930915,0.359968001906767,0.560878814514424,0.487575769708986,0.917813381882548,0.60414212637796,-0.746590018746865,0.488390288429808,-0.647913368867944,0.552510793863046,-0.582421359233611,0.648189401052612,-0.372171484128506,0.647454114377831,-0.750359343520469,0.354038384718318,1.19022992435118,1.12957696239675,1.31458504457111,1.23773013120731,1.84238140396268
"239",1,739,8018.02127837371,0.480820862191754,0.38106751524664,0.582278095746176,0.453443890156413,0.883218904117999,0.607319915365392,-0.540544900021265,0.581277813313762,-0.694438280054279,0.504743929264987,-0.528040029991974,0.615037820787502,-0.294323929233206,0.741009132336092,-0.775346981427638,0.311282846618897,1.23118870151882,1.14521245117625,1.33904778078579,1.20561136152018,1.7800756325914
"240",1,740,8006.22312987223,0.43507621756217,0.282531718503886,0.537128063982528,0.395660945268454,0.995426973425595,0.583346673496168,-0.60456463913667,0.528084133116891,-0.666040124936721,0.588953138973478,-0.596751885047561,0.62824002611135,-0.322749196325778,0.616986601863597,-0.646708655980577,0.258358105277101,1.1892913150882,1.07982417196076,1.28850655711762,1.15654758361073,1.99087485942324
"241",1,741,7845.15876981443,0.437350527035942,0.275348904258494,0.562784875986745,0.380454626373477,0.980352632943975,0.581591121444887,-0.719019761184356,0.539136683520225,-0.607627991521504,0.672423928423192,-0.58840597821374,0.691751752132788,-0.489352114256078,0.635016227432252,-0.698816351985498,0.299155797452151,1.19127548349862,1.07581701907635,1.31672681663942,1.14474572272898,1.96109128492018
"242",1,742,7889.35339058939,0.446771420294777,0.301230146233791,0.558186458257203,0.374810764326235,1.00888738490943,0.591352616950803,-0.666522199594257,0.539672426859621,-0.667743083737433,0.573679435606003,-0.512842895671844,0.651789729761894,-0.408198788904583,0.569892655202479,-0.675675899212146,0.31031819445125,1.19960470199221,1.09073960100003,1.31157212218172,1.14048310905482,2.01785375542938
"243",1,743,7935.24962217819,0.437957357290396,0.323477465977884,0.529532917889627,0.38812011323463,0.957568093099626,0.581658383634704,-0.713262544663552,0.564644403637987,-0.621795173593404,0.646028190226972,-0.46105725472212,0.617171842636136,-0.433629264566028,0.539658901099205,-0.718909080040821,0.301443469053773,1.19180664680479,1.10463767099547,1.2804051111287,1.15063722229726,1.91693665292245
"244",1,744,7872.8561586271,0.444827797621542,0.335577914147638,0.422194969643659,0.343773657009215,0.9230204458158,0.549464743407622,-0.566685649314683,0.539910514920848,-0.563076297464673,0.634842616448242,-0.47862229761967,0.690883693665267,-0.464081956944121,0.61531747739944,-0.725051954429171,0.270986238381313,1.19787176953683,1.11261253646368,1.17824859239241,1.11818032725349,1.851966743394
"245",1,745,7978.69935919335,0.503462202356438,0.372091101578386,0.464288541834151,0.389000963948061,0.931217352529053,0.585952873788944,-0.762158177824642,0.640140206093935,-0.573726700831628,0.635663934905634,-0.518086669291071,0.71109360355433,-0.368840013030503,0.691743322111851,-0.741964876496661,0.268286808315824,1.25347418920159,1.13845178787382,1.21556385007848,1.15132174995252,1.86716575765122
"246",1,746,7988.45594312946,0.439088897316529,0.422644572144913,0.46000116074997,0.383143678371354,0.890448463566848,0.573950337018702,-0.785134254181954,0.532222364864642,-0.527617004033885,0.673261085377709,-0.463115940816131,0.611172533576881,-0.380041867303637,0.715064305736018,-0.711529170834531,0.300025314515251,1.19279905974665,1.17862843436356,1.21160106789132,1.14679907827593,1.79289846626856
