noah-padgett/Padgett-Dissertation/data/study_1/posterior_draws_m3.csv
"","chain","iter","deviance","lambda.std[1]","lambda.std[2]","lambda.std[3]","lambda.std[4]","lambda.std[5]","lambda[1]","lambda[2]","lambda[3]","lambda[4]","lambda[5]","reli.omega","tau[1,1]","tau[1,2]","tau[2,1]","tau[2,2]","tau[3,1]","tau[3,2]","tau[4,1]","tau[4,2]","tau[5,1]","tau[5,2]","theta[1]","theta[2]","theta[3]","theta[4]","theta[5]"
"1",1,5001,4214.67563411251,0.627127681160217,0.353114110856703,0.534522694001521,0.670357945731424,0.696571722899313,0.805128281528619,0.377427918895131,0.632455880191907,0.903401238905555,0.970849033829822,0.731336724038573,-0.896763519463013,1.11230468177479,-0.665191170837687,1.13513542737751,-0.808369034827157,0.890850562122678,-0.543959292974473,1.37348873360554,-0.737511169564539,1.40217185237844,1.64823154971723,1.14245183396151,1.40000044038932,1.81613379845609,1.9425478464883
"2",1,5006,4182.90582745605,0.527455286705268,0.295434565085533,0.512230030915935,0.704931305983218,0.637761407734597,0.62084036029043,0.309238030161592,0.596415028522805,0.993875049465926,0.82800995899784,0.691579594164807,-0.888204375160683,0.830311873723014,-0.682876410900447,1.10720676692186,-0.728616454940098,1.06635081781408,-0.495889825478314,1.57754262249984,-0.85410478365751,1.1076993348682,1.38544275296555,1.09562815929822,1.35571088624786,1.9877876139509,1.68560049219961
"3",1,5011,4373.02245316362,0.567342834792167,0.303694569588857,0.532184457661378,0.74538510744076,0.627780142743483,0.688956215792712,0.318749275956225,0.628592706219661,1.11813225887274,0.806510326097208,0.717199356946035,-0.8991706108923,0.950213789617508,-0.622386441934046,0.978680643741437,-0.719531102701581,0.83541772837979,-0.293369128424692,1.55696809135142,-0.731778776678688,1.28744435769971,1.47466066727941,1.10160110092262,1.39512879031256,2.25021974833185,1.65045890610142
"4",1,5016,4217.82516234931,0.601513461580757,0.316470292611304,0.521017328422833,0.740455140084399,0.715129023074842,0.752962291109653,0.333617420186143,0.610414983915604,1.10169434215562,1.02308543864128,0.744975509339916,-0.927711347486663,1.09672923230556,-0.910793697020481,1.1422428345355,-0.644708803140518,1.05842733985726,-0.564228952007067,1.24920827781411,-0.804510456403971,1.16896630791894,1.5669522118331,1.11130058305166,1.37260645258869,2.2137304235377,2.04670381475982
"5",1,5021,4223.1638068997,0.550234501555063,0.348999509334,0.54110117434055,0.792370777925711,0.660986113943012,0.658955444683314,0.372415941169027,0.643434624761199,1.29888375429194,0.880847226779159,0.748205402244171,-0.795173469381808,1.14749166790593,-0.547033723397481,1.18510807366587,-0.822780643258174,0.990684543253344,-0.50840157167841,1.47645634903365,-1.04681903221606,1.09984701540834,1.43422227807778,1.13869363323681,1.41400811634158,2.68709900716352,1.77589183692453
"6",1,5026,4306.04553154502,0.512134846287568,0.325904130658151,0.473049791645815,0.783895879063164,0.587053375552271,0.596264792392432,0.344725150751295,0.536924661178165,1.26253116109093,0.725161707347126,0.706062781206573,-0.770978290159372,0.984552817400446,-0.734281743367496,1.16165515883223,-0.803291695231173,1.01425542551327,-0.520161148481467,1.31635051900408,-0.948156115761361,0.97152572047023,1.35553170264679,1.1188354295605,1.28828809178129,2.59398493272561,1.5258595018026
"7",1,5031,4253.25448812012,0.512512506929261,0.381021020401184,0.480362770134132,0.781872158403174,0.610981952297062,0.596861054378037,0.412107806050727,0.547690406733049,1.2541281804878,0.771788262281893,0.719649990912209,-0.998478931212306,0.906317711556796,-0.598703366711768,1.12422773042753,-0.748644198502621,0.777349551417804,-0.861287137479943,1.24092112167967,-0.927324282923598,1.16811935816509,1.35624311823326,1.16983284380794,1.29996478162741,2.57283749309363,1.5956571217961
"8",1,5036,4241.5812419733,0.45550135631816,0.37382096306898,0.506836414365918,0.729907160319565,0.672241020629819,0.511664123043146,0.403041086005018,0.587948457908719,1.06782403142568,0.908025979556602,0.707602131210076,-0.713290537513193,0.814679165125606,-0.608947615425984,1.02132035398078,-0.675340351894776,0.82547781721655,-0.543636117041265,1.45307522190224,-0.938530278258757,1.26366000148818,1.26180017480951,1.1624421170081,1.34568338915724,2.14024816209019,1.82451117954973
"9",1,5041,4235.06480801007,0.497639143921611,0.38571196408221,0.481543880452101,0.7833247435068,0.637592517405899,0.573724038784186,0.418061908003505,0.549442951150484,1.26014919922543,0.827640455537292,0.724817736074197,-0.725383314384238,0.842820012876594,-0.888363592248186,0.927769493002079,-0.686844129578142,1.12036798792778,-0.4207998618898,1.60744255096487,-0.87749456273824,1.11813801547578,1.32915927267884,1.17477575892353,1.30188755656895,2.5879760043085,1.68498872364198
"10",1,5046,4161.27032153596,0.415243473307727,0.360135408600349,0.530026010771523,0.799126901295964,0.668008443409512,0.45645681520349,0.386038581381873,0.625044394444838,1.32930293145234,0.897675371706286,0.731895779210382,-0.945941186259351,0.696867624254831,-0.769781964579764,0.921762148182115,-0.538161910431256,1.09686409246335,-0.382397387886751,1.67264776274543,-0.922323263076247,1.03204864212831,1.20835282414571,1.14902578631533,1.39068049502691,2.76704628356779,1.80582107296802
"11",1,5051,4246.6022759176,0.182481850397288,0.408267162578341,0.526583700229637,0.743016786428047,0.629663674201384,0.185598188370729,0.447238403882747,0.619420391121831,1.11018527537873,0.81051580866081,0.668163534451957,-0.623045715106158,1.04058875089311,-0.901722230818094,0.902215565098361,-0.617263108651531,1.13018286071867,-0.521958840455395,1.32412214845867,-0.87113172492935,1.10815891148601,1.0344466875265,1.20002218990759,1.38368162093752,2.23251134566775,1.65693587608909
"12",1,5056,4316.31311699261,0.342844621779358,0.344958176031572,0.447126410276646,0.780734609173244,0.670795815569087,0.364964334380588,0.367517089071394,0.499878163852704,1.24944973192069,0.904473780918705,0.69636082191903,-0.683064496293056,1.03568038501997,-0.951919909058967,1.07350425287314,-0.630991946432009,1.20587022999721,-0.569067882142483,1.61431028999766,-0.870148951585078,0.953099205701993,1.13319896536987,1.13506881075951,1.24987817869675,2.56112463259669,1.81807282036938
"13",1,5061,4333.89771180451,0.36234868507285,0.25264149712301,0.521371724220502,0.757974699669536,0.621464928199206,0.388768367927111,0.261111980521049,0.610985112478618,1.16203180653077,0.793249456276804,0.674131228529968,-0.843095267311123,0.93076969252988,-0.655500072605363,1.22463790822634,-0.483336879965305,1.0059068896572,-0.388275313573409,1.66877895461405,-0.972639645685007,1.07665280113892,1.15114084390071,1.06817946637162,1.37330280767051,2.35031791938916,1.62924469988345
"14",1,5066,4304.82612145761,0.419340663705737,0.299834116585447,0.511247766490439,0.749288308199136,0.553835375025831,0.461915939512809,0.314294375403856,0.594866086220445,1.13143853360118,0.665166889586138,0.66742511787865,-0.612294439005584,1.01759988640876,-0.802023183780342,1.10536852768067,-0.554294100496106,1.16867615926734,-0.470157073577018,1.68090526846294,-0.926816455124636,0.934903739430789,1.213366335176,1.0987809544105,1.35386566053523,2.28015315531759,1.4424469910017
"15",1,5071,4209.02539178123,0.31623688861748,0.335819308530274,0.415429904320967,0.741022167697249,0.57013785069792,0.333344017901821,0.356523927195008,0.456704483122316,1.10356458268907,0.693979081433036,0.634177201699608,-0.647183399679718,1.17440043080749,-0.722272424480936,0.91160946148308,-0.854323792075443,0.783221130110515,-0.450685787009564,1.55126613526364,-0.912605018805647,1.1372764429811,1.11111823427093,1.12710931066255,1.20857898490402,2.21785478816571,1.48160696546664
"16",1,5076,4316.17627475549,0.296914065934798,0.389993846197396,0.381288972873349,0.781049805731554,0.512797467110333,0.310935971287575,0.423530028396124,0.412446900995377,1.25074285065271,0.597311268983637,0.64208577257652,-0.671898352727448,0.975820882086942,-0.770147695843135,1.20874589312198,-0.57479941683334,1.11705333405153,-0.325954192253792,1.78220298246673,-0.659308561659617,1.08776158611168,1.09668117824055,1.17937768495322,1.17011244614069,2.56435767845886,1.35678075205484
"17",1,5081,4272.75655451565,0.335596854909431,0.434212935430871,0.373648666181254,0.741281055613732,0.495752140472703,0.356257772764388,0.48202485487537,0.402825169583117,1.10442021811206,0.570837834324221,0.629771955411132,-0.638849049461614,1.16797644422206,-0.689964660738065,1.04884398052746,-0.712181679618429,0.844410767455173,-0.286435313180702,1.81104424224621,-1.03209609104303,1.06278688264073,1.12691960065504,1.23234796071762,1.16226811724967,2.21974401817469,1.32585583309597
"18",1,5086,4322.4662752772,0.424309163962188,0.5119891130442,0.523835426908885,0.753990879607753,0.523223088370413,0.468582018734187,0.596034829768696,0.614960601802264,1.14782802233071,0.613970542703968,0.703141984638736,-0.658046622045887,1.02430855062289,-0.730135592646467,1.10115602182735,-0.816264054447756,1.0696258315303,-0.235146557722612,1.8798498551688,-0.79978665629678,0.969609693895894,1.21956910828101,1.3552575182974,1.378176541769,2.31750916884763,1.37695982730821
"19",1,5091,4227.06872612872,0.525685304513223,0.463178925587586,0.502734487786512,0.783881499058132,0.592214545252877,0.617959573497719,0.522619119443417,0.581571857016117,1.26247108645274,0.734957812659723,0.734540590033574,-0.674836991671671,1.08321805571949,-0.480454560341238,1.06039949494327,-0.632464606416165,1.02129156898549,-0.465831346956148,1.83641880432363,-0.651412971017127,1.15140852756064,1.38187403447748,1.27313074400781,1.33822582487318,2.59383324412917,1.54016298638956
"20",1,5096,4239.84751954015,0.638439171020663,0.389675873940035,0.544374472457358,0.747607932254044,0.557969468420628,0.829494817745769,0.423122860663285,0.648959239488512,1.125677657333,0.672364585364731,0.732436917572271,-0.873822709855347,0.854047416581211,-0.803039992428229,1.06983692594434,-0.80277142836332,1.1069253146212,-0.485155254142228,1.56929812514766,-0.839602882752984,1.18360494563385,1.68806165266709,1.17903295521588,1.42114809451751,2.26715018821871,1.45207413565269
"21",1,5101,4232.33197815786,0.67933977439924,0.55638924123316,0.598510293902209,0.754687168549688,0.564474057708784,0.925753171800811,0.669604831041713,0.747096493887792,1.15028904388238,0.683837306251186,0.777221599822108,-0.973119911591537,0.970211436306343,-0.872460716908136,1.06121602773015,-0.689436516244498,1.09544362960772,-0.34835533909793,1.58969371623521,-0.853743207535127,1.18656508438106,1.85701893509926,1.4483706297544,1.55815317117943,2.32316488447584,1.46763346142088
"22",1,5106,4229.88947772022,0.668632128056312,0.459823612228466,0.530971062390338,0.760266475381486,0.504301325840757,0.899190563932781,0.517813392491178,0.62659589139615,1.17034053218318,0.584001297707686,0.742591274777553,-1.10307232692289,0.903808089345733,-0.900003182206859,0.868470873939159,-0.642200917782028,0.854311736459113,-0.524834978113563,1.80042672693741,-0.808286152762323,1.10006729320146,1.80854367026575,1.26813070944322,1.39262241111454,2.36969696127082,1.34105751572426
"23",1,5111,4254.54545532011,0.621940721967955,0.458024475490075,0.513623179226092,0.779957610587748,0.486976486825849,0.794239632004375,0.515248150646876,0.598617343075125,1.24627244850496,0.557554475756167,0.733737194277629,-1.08895787234314,0.752528817460518,-0.975073616447836,0.796907064379626,-0.925956714412431,0.922694550386955,-0.423032968125644,1.61700238967061,-1.02055664682352,0.655279816566607,1.63081659304645,1.26548065674503,1.35834272343032,2.55319501590256,1.31086699343573
"24",1,5116,4170.51843252542,0.626659473688658,0.492501719592653,0.517115926413715,0.78713770090571,0.497203703883596,0.804138246368465,0.565891334446586,0.604167123559169,1.27621055252578,0.573057068669784,0.745143446493876,-0.821651201381526,0.822603931124826,-0.845150911763492,1.08289796634395,-0.679367475642695,1.14712821690837,-0.447128547754892,1.60276004728461,-0.922983587335967,1.10850457705135,1.64663831927255,1.32023300240174,1.36501791318976,2.62871337437816,1.32839440395241
"25",1,5121,4279.7584334039,0.465423409791379,0.563746251936564,0.551025740849992,0.733006862317529,0.519138245083085,0.52584977545469,0.682544452185329,0.660315760478041,1.07760066238754,0.607399258505338,0.716374078161768,-1.01311779998275,0.809319819904928,-0.963294833744304,1.11392249160712,-0.912840473315845,1.02189182158006,-0.705125877569359,1.54950852210407,-1.03476887683011,0.925810835882184,1.27651798634575,1.46586692920897,1.43601690353569,2.16122318757806,1.36893385923284
"26",1,5126,4295.37351092106,0.580568216327288,0.55082400944648,0.502659515249424,0.710957017853687,0.564907218877538,0.71304340180315,0.65996869702874,0.581455802121281,1.01098003951057,0.684607872228736,0.727117543024915,-0.866933089225556,1.00724746354309,-0.722464285401264,1.13371752382095,-0.753606184698404,0.89139253051117,-0.378713694679796,1.58112297380724,-0.948925288332297,0.932917163265602,1.50843089285501,1.43555868105781,1.3380908498205,2.02208064028879,1.46868793871756
"27",1,5131,4237.39196278726,0.535964441616091,0.646425484503865,0.487249893610616,0.747273997001854,0.343198381711673,0.634848015128034,0.847240976804518,0.557964926424747,1.12453868221985,0.36539116687271,0.713644038002945,-0.929710958740356,0.853951205704845,-1.08617491035053,1.33056850288473,-0.765711170247702,0.819491399024459,-0.456236072852011,1.42829768085428,-0.785581657416011,1.03153432908569,1.403032002312,1.71781727277667,1.31132485912017,2.26458724780876,1.1335107048286
"28",1,5136,4262.7806013517,0.662482427838884,0.558835278535027,0.521279999869458,0.727806960786307,0.260809844190748,0.884397766719651,0.6738811584729,0.610837510788126,1.06128026361432,0.27016003065013,0.710210401870022,-0.798673996374687,1.00709246522409,-0.895028857540351,1.08503476743383,-0.436174069894737,1.06162252918929,-0.452888694892553,1.49890822572271,-0.837809588231721,0.924454683093626,1.78215940977871,1.45411581574478,1.37312246458583,2.12631579793728,1.07298644216088
"29",1,5141,4339.82639635828,0.63517922762051,0.421994553623126,0.612314591917543,0.619932174957933,0.247535986873049,0.822382437041588,0.465470234210624,0.774479611616298,0.790069340121377,0.255487076852522,0.658911965872668,-0.909797780415144,1.13266777654159,-0.765174492819591,1.05969347892649,-0.554157501554184,1.47200841544205,-0.569493152060738,1.35926051095565,-0.711406680105626,0.933849885716783,1.67631287275446,1.21666253893609,1.59981866880933,1.62420956219983,1.06527364643865
"30",1,5146,4303.20386800591,0.57022785166689,0.481532907801149,0.64373069769807,0.64211586941423,0.301388108635869,0.694141410478214,0.549426651912643,0.841200815972917,0.837606972039676,0.316085598690844,0.677161762360317,-0.835137111214163,1.00161723153538,-0.710706388361643,1.1877237908008,-0.622488227120651,1.27307541878292,-0.674328535842077,1.33749690378657,-0.865764856172877,1.06599072879892,1.48183229774069,1.30186964583194,1.7076188127935,1.70158543960948,1.09991010569975
"31",1,5151,4221.96157502153,0.550869775601339,0.55784241232103,0.613336486514878,0.706636043075392,0.273507984773396,0.660047419628328,0.672142299598441,0.776550541169403,0.998669879356175,0.284350339278905,0.697043859661892,-0.77782771083414,0.966649391430097,-0.660931546422322,1.06738638211879,-0.757928022746659,0.95893899322274,-0.522628255871904,1.3747353412308,-0.888973791695544,0.859281129674263,1.43566259615801,1.45177527090948,1.60303074299049,1.99734152793328,1.08085511544803
"32",1,5156,4360.75045865417,0.463766602996287,0.506265283034116,0.496952981287823,0.673430892997892,0.217154381926172,0.523463764853616,0.587057418833941,0.572673294104269,0.910964797738882,0.22246295483656,0.613402882535562,-0.848062295283235,0.984670651960244,-0.721256256111639,1.01411218214217,-0.744435672726293,0.889829051969908,-0.503652035524978,1.20572982487769,-1.0668852896485,0.839193085278899,1.27401431311472,1.34463641300797,1.32795470178023,1.82985686271944,1.04948976627461
"33",1,5161,4296.89474590248,0.445126800931981,0.604546850121494,0.47640451563035,0.726552805894422,0.38648352820938,0.497088701304849,0.758937901256109,0.54184521275269,1.05740294551549,0.419044860366371,0.681957492740802,-0.69516542124209,0.958127180430582,-1.05307707431617,0.869392021522948,-0.475464871225471,1.08672725715472,-0.430168268114507,1.56786667792468,-1.08578671457603,0.815279291946962,1.24709717696494,1.57598673796303,1.29359623458301,2.11810098918483,1.17559859499947
"34",1,5166,4226.37296601709,0.53673148510061,0.69292692474515,0.511768246450602,0.707018770749645,0.368299613220781,0.636123858845428,0.961053271845501,0.595686441948778,0.99975111535646,0.396145830502006,0.720345461533257,-0.79888224484338,0.977817726949115,-1.17348652020875,0.711302859766934,-0.600547812366741,1.0432767675663,-0.753915096364446,1.35063062288747,-0.940573491355454,0.981760844281461,1.4046535637924,1.92362339132494,1.3548423371216,1.99950229265649,1.15693151902412
"35",1,5171,4327.54667788188,0.588454722405107,0.733610924077605,0.480542645824702,0.63297815770932,0.23746188695423,0.727807993434912,1.07952266904332,0.547957057626753,0.817622022681232,0.244454041041512,0.700210606204535,-0.912719590779058,1.04786672343024,-0.960640811148071,1.03766678037543,-0.838302564368053,1.05046032991844,-0.437588790567512,1.28632856415734,-1.00898540172602,0.786365213262311,1.52970447530775,2.16536919297842,1.30025693700297,1.66850577197335,1.05975777818153
"36",1,5176,4332.75797483794,0.53540052565308,0.63829083000329,0.469716703500219,0.636629736761494,0.21518528202046,0.633911446267816,0.829169551058643,0.532065642282311,0.825537887749659,0.220347305309947,0.64907046574951,-0.62430550793604,1.18700598127319,-1.12185047248224,1.1790814952123,-0.688280012119559,0.776939496894998,-0.373917411300691,1.34968940568349,-0.942257860428594,0.863124276858093,1.40184372170935,1.68752214440279,1.28309384769729,1.68151280411017,1.04855293495735
"37",1,5181,4320.9771087773,0.510880502884977,0.711746168465524,0.578242544812467,0.638378694538969,0.360466656409854,0.594287756207522,1.01325303044767,0.708747899622079,0.829362192403193,0.386446653583213,0.713888640397133,-0.850393862285339,1.06574436355307,-0.865115071798457,1.16089287484693,-0.801156363509454,1.1384992136786,-0.483673203478347,1.25748024830435,-0.829321734353354,0.958715364156416,1.35317793717817,2.02668170371139,1.50232358521871,1.68784164618783,1.14934101606566
"38",1,5186,4261.94538137897,0.527007999278825,0.661100833928745,0.600100402144098,0.661052851136564,0.408598440165938,0.620111311217525,0.881118777894985,0.750196125630748,0.881005185549639,0.447673997738468,0.719371577834436,-0.795369071928306,1.14404036559561,-0.787576347326946,1.13445634745948,-0.559268094094919,1.00537455669576,-0.264099233959744,1.37948156087353,-0.58109325393945,1.16644913435475,1.38453803829992,1.77637030075915,1.56279422691139,1.77617013696535,1.20041200825114
"39",1,5191,4173.98072995802,0.482932691467519,0.742090202189908,0.679447852512027,0.701222628677674,0.333584687660488,0.551508671631334,1.10710154805171,0.926026730851346,0.983561444435678,0.353853359730575,0.754691403837044,-0.742708258472565,0.952104485441156,-1.01680733653374,1.2005483855861,-0.607791218126312,1.23839363252271,-0.395349547906629,1.42437348776568,-0.903289670777478,1.10950783435526,1.30416181488456,2.22567383769848,1.85752550625123,1.9673931149804,1.12521220019262
"40",1,5196,4244.30973636406,0.495704517323226,0.63485577421405,0.617781009423493,0.69897142083919,0.387946285531976,0.570765133023958,0.821680787732771,0.785630900507033,0.977377906876302,0.420911216977985,0.718949441136253,-0.892817071471386,0.907854314385588,-0.779425577639452,1.22981018957511,-0.557260365971077,1.2897346581871,-0.447666135459006,1.31072364623801,-0.850649433144143,1.11604389498093,1.32577283707586,1.67515931692915,1.61721591183149,1.9552675728499,1.17716625257789
"41",1,5201,4248.01054088689,0.568096534705288,0.570181690771272,0.638900703293872,0.713198393402381,0.344687489336572,0.690307192348025,0.694058148370023,0.830507816211318,1.01745623394332,0.367189800247854,0.72154989527477,-1.00179104484616,1.00901130410089,-0.793095577715724,1.07921378558488,-0.701863462293577,1.13102598948597,-0.477848620367887,1.45143980746646,-0.844811919545824,1.15009648509679,1.47652401980741,1.48171671331882,1.68974323278809,2.03521718799012,1.13482834940606
"42",1,5206,4320.16891213968,0.472773918182043,0.54847994634899,0.667714642147363,0.709606892190249,0.29959869504856,0.536521368876861,0.655948040276437,0.896962789520122,1.0071091522768,0.314023254898076,0.699373812438248,-0.986289854832842,0.942500461756017,-1.05980293434258,0.994268141870437,-0.718401861259686,1.03455274386804,-0.498506326330971,1.26083993358021,-0.850520228325839,0.983467946195808,1.2878551792615,1.4302678315425,1.80454224578372,2.0142688445997,1.09861060461678
"43",1,5211,4232.05545514263,0.52326690599203,0.399796647552345,0.593937536092036,0.678093512504097,0.362231976830291,0.614041345640773,0.43617168107516,0.738258916913188,0.922606787955244,0.388624235228928,0.6577255096185,-0.917381703160297,1.02545114208899,-0.987986350058006,0.939752893605844,-0.700772119565536,1.15741870070334,-0.542797086815675,1.37035188369751,-0.77031441404844,1.15962618197577,1.37704677415633,1.19024573537193,1.54502622840183,1.85120328518109,1.15102879620727
"44",1,5216,4199.51255686852,0.624193875749032,0.419844907447558,0.502054177669396,0.672034744258814,0.169119839609143,0.798948236327353,0.462590150263129,0.580519402980012,0.907517814830345,0.171591530663026,0.630538707775794,-1.04573883147187,0.948706610918851,-0.923546991187826,0.958918684421218,-0.612984918680249,1.112832028107,-0.536566619893749,1.33740704916702,-0.87222371337707,1.28759635231625,1.63831828433059,1.21398964712046,1.33700277723627,1.82358858423444,1.02944365339528
"45",1,5221,4369.51442512875,0.588767431417786,0.453761185875406,0.456253966544915,0.605841373550374,0.172466433200003,0.728399875468894,0.509201332159743,0.512731549708306,0.761503824757963,0.175090088930294,0.590820464180975,-0.811250401954762,1.04480858725795,-1.01648872216353,0.728669201096557,-0.430943677283908,1.01634255733749,-0.502690285749593,1.30676690825873,-0.884476440795277,0.948868076358157,1.5305663785831,1.25928599667326,1.26289364206628,1.57988807512101,1.03065653924162
"46",1,5226,4305.1756345931,0.607960713907256,0.314251803059511,0.48849032734596,0.588872148538697,0.250975889345526,0.765725313974594,0.331021460305887,0.559829828944027,0.728598191320635,0.25927439726989,0.583094012901605,-1.16617582735036,0.957337637775346,-0.815681447790367,0.954122602785675,-0.808360336065088,0.971684220151973,-0.491535264728058,1.61720694200307,-0.830441553882916,1.09514541012307,1.58633525646149,1.10957520718304,1.3134094373755,1.5308553243957,1.06722321307967
"47",1,5231,4307.12707779135,0.690552558249314,0.391207936597383,0.390500368629252,0.685604724032557,0.416475235461189,0.954748427054413,0.425086333448769,0.424179006300068,0.94179835073472,0.458094463917619,0.672453697585148,-0.931950721568734,0.8856077310961,-0.971812607857799,0.972943375939931,-0.465623465439627,1.06930532358711,-0.612290842552123,1.21167269110735,-0.977459883780905,1.05913492286961,1.91154455896287,1.18069839088492,1.17992782938571,1.88698413344664,1.20985053787197
"48",1,5236,4180.35916533152,0.705528248047068,0.269327345490992,0.507378756318821,0.670872598459196,0.368307055104003,0.995550118210241,0.27966119267548,0.588795546190265,0.904662034122331,0.396155091257032,0.667024301212129,-1.10022055905009,0.969416400823241,-0.902511224353164,0.99701796410879,-0.796596444120785,0.896411315229729,-0.614495017083382,1.23042049527036,-0.82527799738981,1.10810047738529,1.99112003786842,1.07821038268867,1.34668019521349,1.81841339598235,1.15693885632887
"49",1,5241,4359.48565204853,0.680391322022714,0.419697598638045,0.452241800131485,0.637316040475442,0.334062920081035,0.928419533924734,0.462393133902516,0.507057009641978,0.827036004703807,0.354424322350091,0.654750334809325,-0.856214241606731,0.973036150155552,-0.767731576115834,0.9889188574646,-0.481591137287374,1.2000524636541,-0.490093516400237,1.07164287023971,-0.767840691224314,1.12685658119974,1.86196283097302,1.21380741028019,1.25710681102706,1.68398855307644,1.12561660027332
"50",1,5246,4390.10377243337,0.61535614881558,0.446539935888421,0.366047066801212,0.661534575630508,0.164296363442818,0.780661933371948,0.499059063288703,0.393346773171063,0.88214647110283,0.166559740032072,0.597035912336567,-0.936429095398368,0.937819205793188,-0.731861667864726,1.11872222442595,-0.634007386985989,0.968971412077069,-0.457328485471071,1.39560217478558,-0.941581394532128,0.968597833461016,1.60943305421603,1.2490599486506,1.15472168396409,1.77818239647918,1.02774214699955
"51",1,5251,4340.88916652371,0.572957113403546,0.505189137151113,0.462111096246748,0.65806972170867,0.296276901384231,0.69908169209009,0.585381311308849,0.521086615126756,0.873980483808818,0.310204432841177,0.641281667077429,-0.992187392353911,1.11623061414612,-0.848344045264182,1.11711745750432,-0.794585975474858,1.0562231525043,-0.370558025049074,1.42181065010244,-0.935404343067216,0.776953582984011,1.48871521221554,1.34267127962967,1.27153126046426,1.7638418860787,1.09622679015432
"52",1,5256,4332.2603376609,0.562119827736024,0.490757386468481,0.466304056674147,0.607381704287095,0.302935161036189,0.67966372586095,0.563249728215962,0.527120886317597,0.76456942859199,0.317871574746801,0.619384462684757,-0.8824356299942,1.14850192285321,-0.737889637475421,1.19904862794884,-0.652131310355038,0.978804714889184,-0.535557370117785,0.973067056028534,-0.881789838659104,0.846471669002199,1.46194278025119,1.31725025633535,1.27785642879225,1.58456641113748,1.10104233803201
"53",1,5261,4385.3421962857,0.556582726503246,0.557362536095937,0.386396007211259,0.604737080208738,0.288494321128715,0.66994217199862,0.671303370387998,0.418933308986281,0.759314367591315,0.301305340162604,0.614105360143018,-0.777013133474845,1.05661096046544,-0.856755384226247,0.930880940773346,-0.750936061435259,0.814720540856245,-0.61837933066423,1.09447822776981,-0.973141682270331,1.13239477201456,1.44882251382223,1.45064821509429,1.17550511737819,1.5765583088306,1.0907849080105
"54",1,5266,4326.47197276673,0.553098379064096,0.580796079421379,0.293768183548215,0.559462745861964,0.365499984309187,0.663891239012287,0.713465673675462,0.307328534485302,0.67498224653746,0.392668166281383,0.602396837307952,-1.09769827509173,0.947272966470606,-0.974963344299458,0.836660147599736,-0.537014360476627,1.09281692849832,-0.768132693217368,1.15266729397022,-0.887400201024196,0.91498909530251,1.44075157723727,1.50903326751318,1.09445082810888,1.45560103314076,1.15418828881078
"55",1,5271,4263.72670497849,0.599841972392583,0.449711763141725,0.388058192944729,0.573912368869687,0.486608350860368,0.74969142089595,0.503498639656205,0.421054155358375,0.700818966652243,0.557002152701869,0.632272017503591,-0.882981124316578,1.00102940655629,-0.991119127738193,1.05126186287742,-0.622017688592908,0.775299405631374,-0.54960577426434,1.01374664925587,-1.05682948065456,0.997140979500694,1.56203722656499,1.25351088013565,1.17728660174455,1.49114722401952,1.31025139811452
"56",1,5276,4191.65800942359,0.519728297774089,0.456767403090676,0.488169057145561,0.673895240852774,0.464792289973742,0.608344924715641,0.513460553507816,0.559346395801724,0.912115179966602,0.524940054593622,0.660400272240954,-0.936763374815123,0.920976686427231,-0.799354344207491,1.03399589370074,-0.703771486121099,0.886419447438348,-0.491883921105574,1.37058252288186,-0.892173506822306,1.1372164616066,1.37008354742728,1.26364174000855,1.31286839049638,1.83195410152551,1.27556206091675
"57",1,5281,4359.36787175942,0.505347419503275,0.543382522672757,0.531776258038503,0.703541003114792,0.375584963166397,0.585627607105179,0.647280630959453,0.627920354189204,0.989989983804372,0.405254466622931,0.679528505093272,-0.993291141350701,1.04685169514745,-0.819957454575293,0.901438597417245,-0.785517074656105,0.969438116369732,-0.59443042892623,1.32133739976555,-0.959771833307503,0.856945764329745,1.34295969420374,1.41897221521527,1.39428397120509,1.98008016803298,1.16423118271784
"58",1,5286,4209.32855605088,0.540845254639329,0.53692646315881,0.613710707410045,0.738985028373355,0.333040183267477,0.643004440954907,0.636448523764353,0.777310483483294,1.09686962220681,0.353203649072499,0.71094763478697,-0.92508429864205,0.923926465441337,-0.722568123012145,0.988030924001091,-0.526175403437093,1.16756660353185,-0.560883521792476,1.48686501560094,-0.867324572133404,1.10669980177823,1.41345471108773,1.40506672340182,1.60421158773303,2.20312296812012,1.12475281771813
"59",1,5291,4292.2884526131,0.584340251057925,0.630277028117274,0.593610214995427,0.734154087503548,0.301431608292753,0.720066471658478,0.81182525270639,0.73763059500766,1.08125563934802,0.316135778732117,0.72894229034969,-0.806684890487297,0.946051481737298,-0.849206703911365,1.0201924386304,-0.503486637147621,1.18236595411843,-0.562686785658622,1.19012237755131,-0.628610421320993,1.05424539651951,1.51849572360669,1.65906024093179,1.54409889469135,2.16911375762189,1.09994183059456
"60",1,5296,4212.51769273269,0.652404505857327,0.602372083789329,0.562434601262426,0.74465602064664,0.231946144386501,0.860838530637178,0.75464850860902,0.680220350396923,1.11567573412675,0.238448974790111,0.727093219329828,-0.793282725068704,1.03500008155513,-1.1426354161237,0.983013308570158,-0.654272372844082,1.05900117616822,-0.46845973940283,1.29054374069714,-1.05929520400788,0.950084913946967,1.74104297582957,1.56949437154582,1.46269972509411,2.24473234371925,1.05685791357846
"61",1,5301,4327.09940065015,0.628254165133247,0.568103926744827,0.638801649766818,0.732257442159426,0.0913824177012792,0.807516159622377,0.690320454960959,0.830290280097453,1.07522380845323,0.0917663798512946,0.709569849299698,-0.733260916956209,1.05170988483439,-0.926758506731243,1.12092281712071,-0.749255551489005,0.999321374636347,-0.506420244372376,1.33290313661075,-0.871299025123299,0.960990114803625,1.65208234805127,1.47654233053751,1.68938194922431,2.15610623826467,1.00842106847101
"62",1,5306,4182.07332555231,0.65355704894495,0.481302833727125,0.561728964984803,0.742776066691908,0.350814815049681,0.863491460447277,0.549084967628858,0.678973151086826,1.10938278060927,0.374624104515547,0.718857951981405,-0.664516690114134,0.933654423245327,-0.589666940986119,1.19288049003628,-0.942277371705098,0.871611791610291,-0.511802211898651,1.32167821425474,-0.857615939842019,1.0044019426785,1.74561750226537,1.30149430167598,1.46100453989677,2.23073015391236,1.14034321968408
"63",1,5311,4234.29587840811,0.663548845546197,0.634413007181611,0.575877123131129,0.74106618538069,0.356181646450454,0.886939727039487,0.820721491127134,0.704405602748479,1.10370998589266,0.381180722788922,0.752306987791358,-0.701823269411643,0.947858889234331,-0.828558673589828,1.13125588694202,-0.781580050645834,1.16544864853096,-0.328788578283638,1.55135559701241,-0.754981542726398,0.994719565091991,1.78666207940088,1.67358376599795,1.49618725318345,2.21817573295918,1.14529874342589
"64",1,5316,4226.78393356443,0.679325248039539,0.615957589643808,0.566873954112124,0.739705978469841,0.387286381175385,0.925716412321238,0.781891043089249,0.688117055171631,1.09923134554621,0.420068772001407,0.754026800667181,-0.937930475820146,1.04139868305917,-0.742611355354703,1.13801751771945,-0.653158091275585,1.15025332701804,-0.435267708896824,1.6449375692891,-0.738007735242686,0.986180918699366,1.8569508760409,1.61135360326319,1.47350508161808,2.20830955103134,1.17645777321077
"65",1,5321,4250.95453173503,0.690022634831706,0.630405417935834,0.41782359687905,0.743322052050769,0.376325875871935,0.953349373082723,0.812099669884047,0.459890633119227,1.11120433239143,0.406185654121965,0.736953212450824,-0.703518787172138,0.978358968886355,-0.764262576976212,1.2402552883008,-0.723771613946011,1.00799863774481,-0.538332310113963,1.6582583130405,-0.831613202956517,0.998938784968763,1.90887502715722,1.65950587382578,1.2114993944308,2.23477506832548,1.16498678561449
"66",1,5326,4196.7908985783,0.626328296681719,0.68167087262801,0.434623382323768,0.756644395054812,0.483882622250381,0.8034388312888,0.931678442758764,0.482586549346492,1.15725539874893,0.552924724280979,0.75524117128406,-0.956837143722853,1.1217062199806,-0.773441410619997,1.10429830944295,-0.461585847664935,1.30256628742647,-0.421590132317928,1.7298448408076,-1.03841342576676,1.02087081790201,1.64551395562271,1.86802472070139,1.23288977761015,2.33924005793354,1.3057257507212
"67",1,5331,4201.62526769087,0.615005844819881,0.668588004416407,0.387795608963004,0.767498994399072,0.48489589702144,0.77994706089875,0.899083256433176,0.420718793699599,1.19725265727968,0.554438016419903,0.747902401961952,-1.01074112569959,0.849734303690203,-0.891902173257429,1.00437286527749,-0.71273541003596,1.04190009648644,-0.503324603971778,1.58959856012894,-0.912605039311639,0.93367908776831,1.6083174178046,1.80835070199848,1.17700430337205,2.43341392536325,1.30740151405164
"68",1,5336,4236.95698415151,0.692070491885753,0.674090942232803,0.436749176693075,0.782333738030916,0.453669482606861,0.958772242800242,0.912600606164245,0.485501637351953,1.25603570743883,0.509071752377932,0.772631521290436,-0.831922232725823,1.06199125869969,-0.992662249443345,1.01640712227419,-0.625504316843555,0.936759720320864,-0.664467437605884,1.60750017305491,-0.816722107082915,0.843213617501212,1.91924421356421,1.83283986637135,1.23571183987143,2.57762569836137,1.25915404906914
"69",1,5341,4262.49331139928,0.698120202685489,0.602360128189631,0.458602853990292,0.781653809952382,0.420169548413682,0.975054670282843,0.754625001260507,0.516071935792045,1.25322768269281,0.463024494068535,0.758424626909735,-0.871858497995235,1.03693232789294,-1.15907048716486,0.965245309940524,-0.641744277185287,1.09963385553332,-0.467093203051974,1.52589626579959,-0.891048526060535,0.913065059624896,1.95073161004038,1.56945889252742,1.26633024291215,2.5705796246676,1.21439168210742
"70",1,5346,4248.27735354376,0.754729971734518,0.584801686452794,0.541635415119657,0.737148905209925,0.393666693350629,1.15044062497325,0.720930440660702,0.644333462624712,1.0908921240609,0.428246181419752,0.765037115810954,-0.713676395663844,1.15253062323003,-0.978226124994695,1.12274520048447,-0.785900052186777,1.06423931190251,-0.604492196029196,1.74619843228865,-0.976458589251428,0.854261520317284,2.32351363158884,1.51974070027123,1.41516561105795,2.19004562633811,1.1833947919006
"71",1,5351,4320.77069674461,0.75655819598015,0.587806688251773,0.538435862968137,0.709240474676461,0.35220393177503,1.15694706900697,0.726583011922855,0.638966739850823,1.00606247832463,0.37631709608848,0.753062758430751,-0.81969336292499,1.37785178452712,-0.870247866920831,1.03537682753421,-0.783395671155461,0.936010223017091,-0.435351732969511,1.68255773070466,-0.820597381921124,0.881147893405366,2.33852652048382,1.52792287321489,1.40827849463559,2.0121617102927,1.14161455680847
"72",1,5356,4162.9506189798,0.783577580661288,0.662395457531832,0.58975083431262,0.710106300782044,0.351640497679272,1.26120265269164,0.884190884130098,0.730264484698132,1.00853836736188,0.375630067358175,0.783981086699628,-0.992176982047719,0.963021761884382,-0.820595670960167,1.11244071678461,-0.813008537181664,0.838039998694923,-0.538269749746441,1.53035215527374,-0.954777250107398,0.885743134098707,2.59063213115642,1.78179351957876,1.53328621761143,2.01714963844097,1.14109794750351
"73",1,5361,4148.48756443593,0.809079273414183,0.652604377131226,0.468771009440131,0.734299594714322,0.27849353853239,1.37668866785437,0.861297847677849,0.530692335890235,1.08172064582267,0.289965108389537,0.774191120538313,-1.10907324610363,1.004433057999,-1.07904865482972,1.0703694888388,-0.802144651968725,0.773228288272008,-0.656695831508832,1.42187818917309,-0.874737691533964,0.933739356638294,2.89527168819865,1.7418339824145,1.28163435537263,2.17011955559902,1.08407976408336
"74",1,5366,4190.67285358495,0.823155648346827,0.632707702691649,0.466796217240165,0.737723585302474,0.365287161353251,1.44968782768154,0.817039382256067,0.527832134335797,1.09275726197009,0.392404305408233,0.785555085623564,-0.940154753817643,1.28982643707279,-0.707975213629744,1.30219523906958,-0.777252702669447,0.917641742386616,-0.70781241710775,1.27694943652666,-0.868820776164294,0.982968024816835,3.10159479772803,1.66755335215738,1.27860676203748,2.19411843358837,1.15398113890292
"75",1,5371,4134.08998848391,0.856123168859298,0.586484792252089,0.407974580704578,0.764668176721943,0.269156287591144,1.65667539605491,0.724090843165371,0.446853867013593,1.18659129985515,0.279469693879026,0.786650257631648,-0.876019531446834,1.14024397908862,-0.73690234725873,1.06226978739941,-0.706634114269485,0.935870841437908,-0.628529760540235,1.4307111641584,-0.791807207292738,0.924724973390516,3.74457336789371,1.52430754915594,1.199678378465,2.40799891289192,1.07810330979684
"76",1,5376,4232.35117598856,0.870285430171486,0.582860635790548,0.475283469307761,0.739270367445674,0.338714302894129,1.76690576470528,0.717303250535989,0.540197535119475,1.09780335400631,0.359993798626371,0.800718608976046,-1.16352141121182,1.34790752863694,-0.898045103283816,0.978277193505209,-0.686162264415698,1.04398488645373,-0.702187911305588,1.50968144064114,-0.856694534455656,0.876747657885329,4.12195598134874,1.5145239532295,1.29181337694916,2.20517220406751,1.12959553504944
"77",1,5381,4107.6807727974,0.841831192975534,0.636472564088014,0.533895711864776,0.707383360253119,0.457016054847482,1.55969500933168,0.825195263792215,0.631418012420081,1.00078274306925,0.513813835092769,0.804145065098926,-1.06389571378259,1.04836956585604,-0.778775742771143,1.14583915549459,-0.753060291825739,0.872708339129456,-0.42121576683997,1.65954651915918,-0.781519153678664,1.08175584815692,3.43264852213414,1.6809472233851,1.39868870640853,2.00156609882521,1.26400465713274
"78",1,5386,4240.75361598133,0.821397327778789,0.604430421090383,0.449847973541243,0.717943341901367,0.364098043556849,1.44014745704872,0.758707588565139,0.503689824058507,1.03137731754574,0.390931325202468,0.772876105971585,-1.3472074666399,1.22691752676821,-0.547857798280846,1.1989314805778,-0.669393151327428,0.832207061096631,-0.653728711270889,1.60030250569332,-0.58844098635921,1.19575976587146,3.07402469804389,1.57563720494633,1.25370343886009,2.06373917114785,1.15282730102456
"79",1,5391,4195.1019620803,0.827467114363883,0.628732283417306,0.348786925298361,0.727930294633214,0.362815055175547,1.47363529441653,0.808532189308376,0.37215766403032,1.06166277845799,0.389344537339225,0.77120636324454,-1.04499743062977,1.38830490104629,-0.671355697332559,1.06061941847676,-0.630096504975395,1.13550545035435,-0.504878336307866,1.4578631640681,-0.806754700331292,0.853371816666785,3.17160098095008,1.6537243011478,1.1385013268965,2.12712785516314,1.1515891687559
"80",1,5396,4208.18987099346,0.810777251867239,0.574157436506848,0.523149867312758,0.71680926906024,0.396989241814796,1.38510394858313,0.701265345307972,0.613852243031903,1.02802356664328,0.432533427589521,0.775906125673811,-1.19430013736352,1.1816552112034,-0.455456982960142,1.17371583182344,-0.743022984611882,1.0241277479943,-0.615274814429422,1.47689467551592,-0.870491326556217,0.958832891807011,2.91851294838057,1.49177308452991,1.3768145762753,2.05683245357397,1.18708516598234
"81",1,5401,4269.07492237055,0.757232831157403,0.550711267382365,0.569895948978251,0.710744745054561,0.458899725940338,1.15936398228269,0.659774805274796,0.693542962037977,1.01036995031899,0.516495093239015,0.765455742904119,-1.04658094178689,1.09666548378957,-0.88352240420737,1.02175705638953,-0.784183359730337,1.32461191779579,-0.4488185395428,1.39005411906859,-0.586307178300913,0.848489983281309,2.34412484341438,1.43530279367539,1.48100184019241,2.02084743650759,1.26676718133998
"82",1,5406,4260.64868264028,0.724252647324729,0.520873331622993,0.606594176066391,0.742083480844903,0.488797908102929,1.0503498186045,0.610183455221566,0.763000372056461,1.10707923077297,0.560292943003811,0.769961693921166,-1.14834570889303,0.910358816895383,-0.741671845189826,1.02832471190958,-0.840362556773406,0.974082591264025,-0.703505882667221,1.42930727853206,-0.651863670472938,1.05335332433474,2.10323474144251,1.37232384902613,1.5821695677583,2.22562442320888,1.31392818197987
"83",1,5411,4248.19429983691,0.725490064091297,0.660025666540631,0.514746705862024,0.694592768595131,0.515392258492055,1.05413492737201,0.878578067284485,0.600398117016254,0.96551255426062,0.601423210897989,0.770751404006213,-0.911290184486666,1.1522276122393,-0.731088124423366,1.01728148390255,-0.86115074446536,0.974209147366188,-0.644440774078854,1.29696170350965,-0.770333836649224,0.994109538446158,2.1112004451056,1.77189942031334,1.36047789891666,1.93221449243487,1.36170987860685
"84",1,5416,4313.45737839541,0.702396044814064,0.684533897529175,0.555759553516306,0.709945173140005,0.515859375855222,0.986807421925603,0.939028409097874,0.668508063731719,1.00807691495176,0.602165830799358,0.779527339238902,-0.940854776638595,1.1011229362208,-0.687660139647072,1.14237277786464,-0.638975731146366,1.06396661098503,-0.585210274009427,1.24210844891356,-0.84628915067985,0.908391442762502,1.97378888796745,1.88177435309288,1.44690303127433,2.01621906645866,1.36260368778228
"85",1,5421,4168.3516025883,0.736472054323088,0.663119759627344,0.567580749000377,0.742173891465888,0.485008600938619,1.0887020346532,0.885915781799137,0.689382391051919,1.10737948875524,0.554606516083328,0.789155479519024,-1.0318523763383,1.07769102602022,-1.08876654685221,1.13311638972125,-0.753093692174312,1.23056535209188,-0.552361864620266,1.27763997062463,-1.05084807909186,0.889125553796108,2.18527212025802,1.78484677244078,1.47524808109246,2.22628933211582,1.30758838768209
"86",1,5426,4152.96462880897,0.798749149726815,0.658609709904596,0.565696198916706,0.756280524990644,0.323282368153073,1.32756638154221,0.875246625769042,0.686013554585221,1.15595481214664,0.341626860438118,0.79373428450796,-1.01859450415084,1.14773662314976,-0.861483713622168,1.38997309974863,-0.707586791587986,0.911208720789952,-0.458275974270567,1.45322372363857,-0.918500142619601,0.953310635588299,2.76243249740106,1.76605665592009,1.47061459707465,2.33623152772497,1.11670891177281
"87",1,5431,4193.67301687795,0.778066991867707,0.66277439472939,0.512044284528792,0.758415701878695,0.374296042238893,1.23860258419,0.885092755973444,0.596121880484908,1.16362270677298,0.403636689945464,0.786133091411477,-1.26585374485335,0.89344920405349,-0.920841727354006,1.25057699732712,-0.804084222483287,1.1508111077588,-0.720295876899641,1.66743915650265,-0.916589403201097,0.964278058034748,2.53413636156215,1.78338918667667,1.35536129639286,2.35401780371769,1.16292257747013
"88",1,5436,4107.43999644112,0.756725462287829,0.65680155136649,0.479201338040479,0.743428160292953,0.367301365210427,1.15754550095233,0.871016266423528,0.545970838431063,1.11155891276658,0.39490439774838,0.769101405654321,-1.1200185791885,0.870326618418844,-0.995806154493788,1.09873547934886,-0.487965861886618,1.07023181411014,-0.573225076499016,1.39072406549027,-0.939119345819725,0.688140408484533,2.33991158677498,1.75866933637438,1.29808415641712,2.23556321655082,1.15594948336101
"89",1,5441,4132.32910726372,0.751390527206456,0.701729394952208,0.471513527652819,0.707103065578888,0.240360938765608,1.13871589035557,0.984961354921945,0.534681416643813,0.999989490757345,0.247620277989489,0.75316673967845,-1.22853535163978,0.928141660525328,-1.05916880007208,1.21046820769091,-0.564451508502031,1.05636637152989,-0.459469435989801,1.65289457597771,-0.671310894088946,0.900971631317754,2.29667387894828,1.97014887068967,1.28588421730423,1.99997898162513,1.06131580207159
"90",1,5446,4286.21215125943,0.757735369450421,0.710427533097103,0.453006818583434,0.661802819110686,0.303421065995411,1.16116999987562,1.00945929672943,0.508135990601595,0.882782825837424,0.318433091879935,0.750676342163565,-1.04849616952066,0.989314368749373,-0.9287625763433,1.17254709188525,-0.680555519605223,0.948815422503235,-0.424343469366625,1.33638133472556,-0.755341307704205,0.886361551894131,2.34831576861114,2.01900807175348,1.25820218494466,1.77930551759351,1.10139963400421
"91",1,5451,4236.94426501957,0.700235083663202,0.65908551710473,0.410525386585563,0.658042459818246,0.287198989779168,0.980841828228265,0.876364257582981,0.450211943544306,0.873916624409058,0.299830569425581,0.707918526960715,-0.66271937492862,0.978458778109847,-0.619939930209121,1.2401858629862,-0.692443812009607,0.890236372211384,-0.439843229757367,1.45381088616827,-0.712486127340127,0.732189126426173,1.96205069200217,1.76801431196897,1.20269079410994,1.76373026641852,1.08989837036207
"92",1,5456,4274.1504874908,0.669765351920184,0.677579638090414,0.467183572381396,0.597132541052897,0.313846212479952,0.901952435917526,0.92131372908616,0.528392363227236,0.744421941197741,0.330547512084604,0.701345961899941,-0.703861944218547,1.1073451136486,-0.776507980825093,1.40103968078508,-0.697033148620589,0.900530201653344,-0.612035240914656,1.29359716625318,-0.739580341548998,0.89982881634744,1.81351819665756,1.84881898740265,1.27919848951686,1.55416402653661,1.10926165774532
"93",1,5461,4203.69258156521,0.579676016601207,0.681027757376256,0.430485765109766,0.595345976208358,0.18518094092841,0.711392421701073,0.930038495726968,0.476941082569764,0.740969019907563,0.188440118035398,0.650079743514502,-0.891396371049703,1.05326443361078,-1.03188433114197,1.05071174717281,-0.64942783562413,1.00540111533324,-0.708146033034215,1.19302827743504,-0.976598101351428,0.931493538449707,1.50607917765372,1.86497160353408,1.22747279624282,1.54903508846277,1.03550967808519
"94",1,5466,4336.70045188637,0.628821532105349,0.62949807130602,0.526709435302343,0.55487879692206,0.151901013670054,0.808722015861802,0.810162695461076,0.619625068755104,0.66697678515435,0.153684411960594,0.651774866849133,-0.964901212582829,0.878408254177113,-0.91885554394094,0.935857099213288,-0.811998906908159,1.00033528419039,-0.466790788645097,1.54832469839949,-0.976549877312379,0.778430774926999,1.65403129893958,1.65636359311676,1.38393522582977,1.44485803193483,1.02361889847967
"95",1,5471,4404.21274413206,0.592837493146758,0.5576366384802,0.570199572091179,0.607643640721859,0.306048239554927,0.736149527133085,0.671782441961436,0.694090400409596,0.765092096540611,0.321473838391262,0.670338988691255,-0.956522137569565,0.90702708186476,-0.682104932023264,1.11181092851675,-0.827216142821878,0.905960732372319,-0.414239171972577,1.08413260937225,-0.881180895060898,0.610795501245396,1.54191612629826,1.45129164932767,1.48176148394075,1.58536591618891,1.10334542877001
"96",1,5476,4344.50764469635,0.478954889213371,0.618573939819048,0.538467249113558,0.55817356795548,0.50285420414532,0.545606436060679,0.787263590558385,0.639019194780368,0.672721803051883,0.581757210214928,0.675523827540921,-0.841607559904809,0.803635162723044,-0.810745498145868,1.07435522893525,-0.810536504311079,0.983419420676462,-0.547026548930776,1.35203594347875,-1.04347970865322,0.868706632165528,1.29768638307084,1.61978396101888,1.40834553129775,1.45255462430138,1.33844145163706
"97",1,5481,4319.09654399763,0.381921429221825,0.550441916271359,0.51507396591946,0.504214595344623,0.367397538576966,0.413247759739551,0.659311789890972,0.600917609896348,0.58386661720431,0.395023931267498,0.584546956786224,-0.710473161775863,0.854243668834602,-0.787303251608273,1.00413875067471,-0.889151672234068,0.867101021865627,-0.666624435058573,1.01221966380324,-0.7962619900346,0.898842301738159,1.17077371092976,1.43469203628924,1.36110197388354,1.3409002266856,1.15604390627403
"98",1,5486,4348.1560415888,0.403738837900084,0.482768959407237,0.45231583301372,0.611312681145143,0.1907233634596,0.441305265769752,0.551264854743864,0.507161363941619,0.772455209687066,0.194289780727798,0.548879216622864,-0.813034442810726,1.06628035127002,-0.530646273607173,1.13733896641557,-0.910963831710488,0.891491751084938,-0.353682605691523,1.28008098015124,-0.962674160949708,0.906646751878499,1.19475033759611,1.30389294007577,1.25721264907512,1.59668705097269,1.03774851889526
"99",1,5491,4421.43524706311,0.557126435406945,0.57242084004912,0.483674547778935,0.55713448918427,0.29291434321065,0.670890972817598,0.698108259482093,0.552614331841346,0.670905036479048,0.306351314292921,0.626961625563179,-0.985183309032017,0.815058407345793,-0.831384490741869,1.09141198784378,-0.751727493109372,0.855205146560188,-0.60942084047211,1.13066860783992,-0.740690685549298,0.911199479515626,1.45009469740814,1.48735514195712,1.30538259975646,1.45011356797295,1.093851127769
"100",1,5496,4309.88463064004,0.595336114095054,0.472127915603952,0.497669506724816,0.658405071797208,0.328178450466341,0.740950006675622,0.535577788776567,0.573770567437879,0.874766518313728,0.347420051377474,0.653743536610659,-1.08064397796709,0.721850755916601,-0.691200604181445,1.21945034543467,-0.673344627916743,0.895527082937199,-0.586138557246857,1.3841842308545,-0.903617700605185,0.857018357465102,1.5490069123926,1.2868435678308,1.32921266405799,1.76521646156272,1.12070069209913
"101",1,5501,4285.26831688579,0.677899246971914,0.38739490169847,0.558095172712962,0.691258067240564,0.391100010619392,0.922117664925928,0.420207258874276,0.672584573698837,0.956615608818015,0.424947880573454,0.697629940332844,-1.00112924839585,0.869414267091014,-0.855824960235969,0.995965983349565,-0.924416006548148,0.88634145761157,-0.42672609366931,1.23718873667541,-1.0622715704604,0.69500582775648,1.85030098796845,1.17657414041063,1.45237000877765,1.91511342303426,1.18058070120387
"102",1,5506,4320.09930662473,0.685933366404432,0.277527013210659,0.594057147573313,0.702901368301543,0.450115136798464,0.942650769607773,0.288874634500252,0.738488663024109,0.988210162368498,0.504064941401407,0.705665000446063,-0.940543996559152,1.0043708246223,-0.825133847919493,0.884913639475991,-0.651283869175671,1.10705011936993,-0.561783633861002,1.26526850415868,-0.763412781235199,0.823609852071306,1.88859047344213,1.08344855445765,1.54536550541514,1.97655932500837,1.25408146515
"103",1,5511,4282.54363115976,0.737819155957886,0.377790509083071,0.547792887786531,0.721555226904844,0.406247826959619,1.09306794351596,0.408029096079505,0.654773767428272,1.04217238797259,0.444587771054025,0.726308742197805,-0.947191032365894,1.07213503095554,-0.800539161682304,1.01275097746353,-0.74168444275541,1.05542943626207,-0.589277519535484,1.33911637026549,-0.752485121617015,0.786117324958301,2.19479752914221,1.16648774324746,1.42872868651221,2.08612328625249,1.19765828617079
"104",1,5516,4269.46945798185,0.704320767143274,0.385280960006024,0.547149802498875,0.765623891964106,0.514162241389329,0.992166169559326,0.417513268990455,0.653676365740117,1.19017194817232,0.5994712254755,0.748054998749518,-1.09315793147824,1.18688787709018,-0.684893573107369,1.00327680656415,-0.682608261247483,1.14462532154198,-0.39739731230416,1.57264458173787,-0.917757439884937,0.831031667752544,1.98439370801802,1.1743173297831,1.42729279112721,2.4165092662163,1.3593657501731
"105",1,5521,4210.93414562413,0.699279624573564,0.34306499918238,0.51865640884903,0.787911202154785,0.56316640455959,0.978221089671655,0.365230212199289,0.60662791074421,1.27951516378175,0.681516095896274,0.753655568167963,-1.11189030081987,1.43111769501964,-0.914653273910612,0.826520228544381,-0.336039904648975,1.10628672104636,-0.534196519746513,1.60015626460922,-1.02880053291645,0.798138171065791,1.9569165002784,1.13339310790314,1.36799742209389,2.63715905434743,1.4644641889657
"106",1,5526,4168.64499797903,0.728991558474164,0.291992252361066,0.333983098768475,0.80680221891398,0.637105713923369,1.06496332899463,0.305296881676897,0.35432900212746,1.36555975579163,0.826576536140929,0.754187884776272,-0.931920605399193,1.03038438681343,-0.816423107910083,0.989546096819387,-0.596367526105643,1.01680554535302,-0.689034855917477,1.56952582804659,-0.882334332516412,1.1921969442852,2.13414689210333,1.09320618596164,1.12554904174864,2.8647534466377,1.68322877009874
"107",1,5531,4030.14613927489,0.722074222607235,0.381943597299215,0.259214516146977,0.811818956199861,0.610629090103547,1.04373799630583,0.413275842767322,0.268388081602871,1.3903170600122,0.771077391765419,0.751332683259367,-1.02111899942125,1.07873702321901,-0.826132474520165,1.00732687847674,-0.662947693852881,0.967141134571225,-0.677117879044939,1.53890219462449,-1.20116867194622,0.887577687412724,2.08938900493252,1.17079692221504,1.07203216234647,2.93298152736098,1.59456034409176
"108",1,5536,4218.83289896864,0.671935720440803,0.326336578822334,0.201206512065454,0.806483793087386,0.622492625208959,0.907274005163351,0.345237051961584,0.20540732921843,1.36401748688641,0.795389996808652,0.723528495555156,-0.98196268185264,1.16233130532999,-0.823197523140309,1.15337045834938,-0.609783746222674,0.90095456431106,-0.493779143931985,1.602239009405,-0.996599155504179,1.12899550247361,1.82314612044515,1.11918862204713,1.04219217089665,2.86054370453192,1.63264524702327
"109",1,5541,4054.20569085264,0.699271672396792,0.340775852715475,0.165338501109669,0.790301262330227,0.62163709816812,0.97819932072679,0.362471754334112,0.167645831091266,1.2898277270935,0.793607594329375,0.720681065480933,-1.11678890935577,1.13773023268488,-0.879308856165525,1.02358121537311,-0.558691246436461,0.929832031398088,-0.623409791250007,1.71621061163558,-1.09370354919059,1.06530280838931,1.95687391107035,1.13138577269005,1.02810512468228,2.66365556557918,1.62981301377726
"110",1,5546,4288.86170837064,0.734173114592047,0.269881349667703,0.0815391446767028,0.755191980082768,0.57067797372125,1.08131642702834,0.280281594681466,0.0818115657403739,1.15207893448149,0.694953823360222,0.684084376106428,-0.797851316737323,1.24089587104331,-0.801425051716205,0.95157701843661,-0.492609867675885,0.961032654897864,-0.625056628297886,1.54479582025141,-0.891042373499365,0.850473127410384,2.16924521536133,1.07855777231719,1.00669313228889,2.327285871276,1.48296081660299
"111",1,5551,4280.97187633375,0.695998461279278,0.372221329351801,0.0641022695500312,0.773925374284252,0.494626626656481,0.96929876993884,0.401038340977447,0.0642343781742079,1.22209650661639,0.569121451962413,0.675445172852139,-0.884847485304682,1.20035893191675,-0.890585367787574,1.13919140335255,-0.541297200470949,0.948871688270611,-0.464051617759186,1.35161029607706,-0.99367086349997,0.924211233726526,1.93954010540495,1.16083175093394,1.00412605533943,2.49351987148399,1.32389922708381
"112",1,5556,4287.32476046637,0.683956458543968,0.455805486758311,0.0203055170828929,0.789394332701751,0.569450006131791,0.937539482359395,0.512095304107886,0.0203097045025653,1.28589630547148,0.692739680925544,0.704014288025173,-0.800538116865965,1.04228353978206,-0.756724327941171,1.10706962260775,-0.493439558544399,0.960283670280044,-0.45471762826524,1.48640247778132,-0.604400784547655,0.876853505169189,1.87898028098272,1.26224160048935,1.00041248409698,2.65352930842521,1.47988826552882
"113",1,5561,4303.28194873904,0.629360467066757,0.465285679189688,0.00792668863641948,0.80709800159827,0.611858451593785,0.8098694225972,0.525651157934587,0.00792693767456205,1.36699540821017,0.773557223468775,0.708255046761972,-0.68813601144695,1.1144735639815,-0.679939853469485,1.06747005082579,-0.514732373624773,1.04754095088446,-0.62666555961685,1.40956170661464,-0.724919915135569,1.23005195757801,1.65588848165792,1.27630913983797,1.0000628363409,2.86867644606769,1.59839077798072
"114",1,5566,4299.10320776839,0.617485667326986,0.316255766906944,0.0191946891905857,0.834844252061537,0.619694793099227,0.785023765573163,0.333366128850392,0.0191982261761277,1.51655795677195,0.78957814395676,0.703426664886402,-0.702009070296268,1.16306285107606,-0.815260984818123,0.837893449612769,-0.554888539776399,1.07271515922886,-0.569928266251535,1.67996012705007,-0.842030121661897,1.0016182237494,1.61626231251467,1.1111329758647,1.00036857188831,3.29994803624831,1.6234336454142
"115",1,5571,4253.08925445862,0.646406626688931,0.352133640124382,0.0997250419924026,0.83674882213852,0.657969167709645,0.847198520403553,0.376231359819791,0.100224658602906,1.52806582531511,0.873744971937754,0.735156753944593,-0.751999302829421,1.49466199137619,-0.765487780498706,1.07716413750622,-0.598023765886008,1.16458505448815,-0.609168361910906,1.41916404472853,-0.805340749173032,1.13974085061774,1.71774533297397,1.14155003611185,1.01004498219207,3.33498516649596,1.76343027598651
"116",1,5576,4256.9578148392,0.634847403091072,0.49040252414098,0.100544328124544,0.81848466363332,0.689313498890312,0.82166263834004,0.562713421839626,0.10105642349981,1.42462008339391,0.951481755341143,0.748888168758186,-0.456491118799514,1.24963109195077,-0.772104248812403,1.14951188167941,-0.624316070771595,0.941918983315137,-0.628989088665532,1.62182294082997,-1.05837661234332,0.829233762896243,1.67512949124392,1.31664639511846,1.01021240073057,3.02954238200926,1.90531753074706
"117",1,5581,4263.07740393691,0.587044080570191,0.477622246924834,0.0785533720542842,0.842166838418347,0.664398480117513,0.725144188119614,0.543638868999596,0.0787968614842405,1.56183276099249,0.888971863522067,0.742635848271543,-0.745468600264655,1.05234020547777,-0.961445662652109,0.952466376855371,-0.590098519908362,0.972804068903556,-0.896237560325752,1.64871563446556,-0.922916338521417,0.920800149879845,1.52583409356365,1.29554321988716,1.00620894537977,3.43932157330942,1.7902709741339
"118",1,5586,4188.04380916968,0.675952911303645,0.554326933220855,0.211966991583086,0.834219388350848,0.663448026415726,0.917236808928195,0.666018970269211,0.216895546851487,1.51282178730916,0.88669899786511,0.779125074006547,-0.765384032343173,1.12261257150397,-0.850965129077819,0.884735112868281,-0.724580378421143,0.845842555704795,-0.776559942399775,1.48776729180665,-0.809525343668475,1.05194409481696,1.84132336365278,1.44358126875846,1.04704367824401,3.28862976015727,1.78623511281499
"119",1,5591,4387.71388135923,0.704868199965281,0.508422551437572,0.174840793255672,0.771589211774549,0.566295540368291,0.993698214498084,0.590428512420362,0.177576047194507,1.21295957478841,0.68708321937244,0.728384581631238,-0.758093484049264,1.12975168465712,-0.81454037227445,1.00312420867642,-0.612110730913514,0.653902762201931,-0.555271773101085,1.43455685711695,-0.789095986466053,1.06583255677627,1.98743614149668,1.34860582827892,1.03153325253723,2.47127093007088,1.4720833503432
"120",1,5596,4332.43554293273,0.669977753760324,0.570529956443905,0.0106483293281939,0.737662859981693,0.555975037844071,0.902471366509931,0.694686568668254,0.0106489330701561,1.09255993070869,0.668883198866565,0.694224117676906,-0.747639858183221,1.10115125890289,-0.858127713507524,0.961280445291571,-0.734982096373077,0.855512859509484,-0.459680473936117,1.31175935697157,-0.651369038632673,1.02409922190789,1.8144545673703,1.48258942868807,1.00011339977553,2.19368720219018,1.44740473372597
"121",1,5601,4341.32600073784,0.711749345929004,0.537142328772782,0.0842209383352441,0.67164122090541,0.459087555540307,1.01326219817893,0.636808136454784,0.0845212333822349,0.906549432541745,0.516762936291452,0.666051249754773,-0.751865903742733,1.20565515472868,-0.793384252788218,0.840672208139961,-0.526868206624591,1.03619175482526,-0.589220504573402,1.20858903559985,-0.723934449535714,1.0984253086566,2.02670028225839,1.40552460265501,1.00714383889245,1.82183187364176,1.26704393232456
"122",1,5606,4313.22645836356,0.706759076464488,0.564764083325265,0.130336795972996,0.716069796632939,0.564627870791001,0.999017267211506,0.684353151397609,0.13145816336124,1.02584580131081,0.68411083483037,0.71304131110692,-0.800865025931942,1.07775434376259,-0.604187926630922,0.966773680642542,-0.639852153670361,0.807835978010068,-0.46537153437081,1.34506766955649,-0.739526852505096,1.09784096168053,1.99803550018675,1.46833923582784,1.01728124871431,2.05235960806702,1.46800763433231
"123",1,5611,4198.82730583497,0.691657258539906,0.588212573455907,0.238166985298485,0.723706609139843,0.599091672899445,0.957674417062658,0.727350007705706,0.245223482067397,1.04868635487231,0.748228185370267,0.735334065330271,-0.759577299981042,0.924886780206815,-0.894775608092768,1.0009170549025,-0.918181854485674,0.893136449939466,-0.435179696707209,1.2376676805563,-0.772399955580659,1.1546986387329,1.9171402890963,1.52903803370949,1.06013455615726,2.09974307089536,1.55984541738248
"124",1,5616,4237.20134645968,0.691072353422816,0.63839784943365,0.410953150656667,0.660598097932159,0.512098813660895,0.956123596632896,0.829404196414028,0.450776325272125,0.879929575058263,0.596207927509926,0.733790826767186,-0.985921708049318,1.22151995655368,-0.681599568178257,0.892602774382854,-0.71620589636265,1.10313732764519,-0.535214528803248,1.13659424889327,-0.824596056633964,0.937901046252758,1.91417233203823,1.6879113210292,1.20319929542584,1.77427605706221,1.35546389282568
"125",1,5621,4233.03567643768,0.70052296342631,0.598906495686748,0.464826002629488,0.56553881917252,0.578856910620193,0.98163348012629,0.747867526029345,0.524988623505882,0.685732938946818,0.709880092023606,0.7271226362856,-0.985296184227932,1.05965357466634,-0.546675805712234,1.14323211878837,-0.752099912433877,0.980919056659728,-0.51741053426614,1.01307642207408,-1.08670438711305,0.839898803217572,1.96360428930485,1.55930583648925,1.2756130548106,1.47022966355664,1.50392974505144
"126",1,5626,4349.38576232072,0.585534502194415,0.600462666103839,0.423581358041603,0.482803438836404,0.578281971397428,0.722304715953209,0.750904233243915,0.467602348111355,0.551316192526574,0.708820502979162,0.672046590457526,-1.0329799133508,1.10785378727985,-0.754268132553888,1.05267053638689,-0.823223922569648,1.03999989595959,-0.361740980803994,1.29843832767828,-0.969026511647062,1.040214989038,1.52172410268825,1.56385716750363,1.21865195595925,1.303949544142,1.50242650544363
"127",1,5631,4291.94506967292,0.452009478008937,0.624072626840043,0.383691425155478,0.351093361103087,0.660979343027647,0.506729621594816,0.798694025234755,0.415492667299766,0.374963356974895,0.880831202925348,0.639270659087992,-0.766253911173032,1.18408148416344,-0.791302370991084,0.910995578928463,-0.696030274732636,0.990955749808931,-0.476431304374891,1.01981251504789,-0.770974893820719,0.868815361519773,1.25677490940163,1.63791214594569,1.17263415657987,1.14059751907388,1.77586360804692
"128",1,5636,4389.76974636255,0.561010844643511,0.650863765352532,0.515451838090107,0.419363971108812,0.650294849926516,0.677706109066218,0.857308273125127,0.601517889468562,0.461947091770348,0.856009389243063,0.704727185635436,-0.907326647865692,1.14619790169427,-0.896490655266492,0.988922620019477,-0.71581102285122,0.707646438185759,-0.464174696135813,1.04991635121187,-0.951353567060106,0.890759046422532,1.45928557026567,1.73497747516879,1.36182377135071,1.21339511559508,1.73275207447228
"129",1,5641,4344.47663759257,0.480511508645808,0.524667244342061,0.471925086778521,0.374182275928992,0.674956013099757,0.547910892890632,0.616307630738277,0.535281757189492,0.40349402817142,0.914750592552064,0.645560611338814,-0.803139593071865,0.881257237188358,-0.933537743520423,1.03330941365579,-0.748634775302782,0.865125652328869,-0.523500319909926,1.06589351620257,-0.890408462642012,1.00010456180529,1.30020634654821,1.37983509570623,1.28652655957987,1.16280743077,1.83676864657435
"130",1,5646,4273.22751143293,0.44743766656612,0.43101120987015,0.524332420988356,0.463697987218825,0.681307813473263,0.500313207694264,0.477655950594606,0.615765132060846,0.523365100780281,0.930752145597801,0.650090251974755,-0.938176822937332,0.905961236181303,-0.862505856777982,0.964757713905451,-0.776993097129363,0.945263668783921,-0.631812712690139,1.13318012961044,-0.897112736430886,1.11434727711639,1.25031330579332,1.22815520713844,1.37916669786191,1.27391102871475,1.86629955653491
"131",1,5651,4300.78823340736,0.366550471630801,0.383962500085426,0.421553605868563,0.503266913761352,0.731024858775792,0.393971617833575,0.41583694797413,0.464878679469305,0.582396539653295,1.07133284833171,0.63169280409391,-0.821235123233953,0.874989342504531,-0.92808082018877,1.04864922504472,-0.843778095496645,1.03280792459407,-0.593759732674229,1.02878863852006,-0.942539762668125,1.08130020314955,1.1552136356584,1.17292036730044,1.21611218662513,1.33918572940013,2.14775407191454
"132",1,5656,4307.10995007253,0.354560806308559,0.262433410933519,0.406874152875596,0.471248125145708,0.749833116222658,0.379196051703308,0.271965783119665,0.445409064662683,0.534294512815269,1.13331697024124,0.604452417879289,-0.669724603850309,1.05336201249345,-0.643572679550409,1.04874038963434,-0.565427444017843,1.13327287850741,-0.413458884802344,1.12433418964366,-0.941935417829034,0.956741736868498,1.14378964562738,1.07396538718789,1.19838923488369,1.28547062642451,2.28440735503679
"133",1,5661,4445.25820968944,0.38588159114138,0.530431650152809,0.4666176177873,0.459533475220523,0.736897391154531,0.418277919904839,0.625709937319402,0.527573958142235,0.517399164936999,1.09007746175907,0.669011946863701,-0.843313851138424,0.836740847869792,-0.924813142306262,0.949241378569454,-0.601773957180342,0.945713413008779,-0.497615438370035,1.1535497976885,-0.947038643208141,1.01270941655097,1.17495641827992,1.39151292566025,1.27833428130987,1.2677018958775,2.1882688726351
"134",1,5666,4364.96140929558,0.369573388547418,0.513886094636344,0.545773049283286,0.401907382922494,0.720477214370108,0.397732215036871,0.599033684493487,0.651332533220931,0.438916696622641,1.03893213604182,0.66151140196373,-0.72750117085107,1.06717574193836,-0.821850156604303,0.948208554771868,-0.579240626556384,1.10853043504597,-0.432924044799517,1.08185792316745,-0.979725895421169,1.07975900815859,1.15819091487814,1.35884135515784,1.424234068832,1.19264786657413,2.07937998330041
"135",1,5671,4336.44911613201,0.384168525354575,0.520770648605074,0.349573541815038,0.237314803974482,0.683555325632104,0.416098696196983,0.610018397543239,0.373113684231258,0.244293587897131,0.93650711080954,0.571057073297844,-0.809708585820345,0.987288347412318,-0.971915456628131,1.06333599259401,-0.628297978068038,0.938118734931627,-0.385700320375036,0.991584752015364,-0.790022982413669,1.01431464932462,1.17313812497683,1.37212244534122,1.13921382136062,1.05967935708765,1.87704556859683
"136",1,5676,4334.59193876205,0.366911887451984,0.683080505711687,0.387412257757877,0.102964675475227,0.648652763083183,0.394420466937884,0.935287153611408,0.420229409460779,0.103514855559909,0.852274321800845,0.594187278476888,-0.677714382478858,0.94845053425083,-0.789343124720552,1.1195476981965,-0.604042508389212,0.964625983919752,-0.471880187078928,1.0335426524735,-1.00921090780596,1.08601451895658,1.1555675047395,1.87476205971053,1.17659275657576,1.01071532532159,1.72637151960109
"137",1,5681,4465.19796706373,0.256808013394886,0.698770315578139,0.320817493819367,0.237175681196099,0.681356914234869,0.265719600960418,0.976828297991086,0.338721988355043,0.24414183493841,0.930877344618686,0.603084176303118,-0.820477067252471,1.00066917221584,-0.882981804917917,1.08677775615643,-0.633493334845487,1.00864833074865,-0.562449362340355,1.0759582039284,-1.01918271812111,1.04425454785429,1.07060690633456,1.95419352375616,1.11473258539519,1.05960523556709,1.86653263072434
"138",1,5686,4317.83960155628,0.344670232506605,0.715577875836575,0.51355613594512,0.24742627663859,0.752957707862346,0.367168938442576,1.02440101094942,0.598511212911848,0.255366456643924,1.14419279887001,0.696779718659677,-0.600470828954712,1.12601277535627,-0.596792009761778,1.28662081904178,-0.390246418890784,1.08386429448224,-0.409708889883373,1.07072243196627,-0.754079724186161,1.15165999726819,1.13481302935705,2.04939743123418,1.35821567198121,1.06521202717887,2.30917716098599
"139",1,5691,4423.51307350478,0.308246195853166,0.662949682017637,0.380454496132371,0.243248355194458,0.667477246701289,0.324024021068279,0.885510350332672,0.41139126701725,0.250780797347208,0.896387565920847,0.605128415308103,-0.859591894563285,0.949018460499105,-0.723274261776502,1.42278104266432,-0.499107223703158,1.09086100305395,-0.4724547994094,1.17585630196152,-0.720689277713672,1.32822596679137,1.10499156622926,1.78412858054629,1.16924277457806,1.0628910083181,1.8035106683375
"140",1,5696,4398.86569010602,0.259625636597005,0.530778367901036,0.401342833984899,0.325304348465869,0.626480608426867,0.268844491731226,0.62627927998284,0.43818168570653,0.344015572120108,0.803760410550389,0.551801248086673,-0.714409489227814,0.809506818568317,-0.674270425047867,1.12221007147836,-0.628595615086884,0.94296628041284,-0.343137082649134,1.30544356269764,-0.670900910439728,1.18551328074971,1.07227736073422,1.39222573653582,1.19200318968862,1.11834671386113,1.64603079756813
"141",1,5701,4505.62053583589,0.279561154812672,0.565416881791461,0.272156873631722,0.338411470597573,0.559388931087366,0.291170747560843,0.685515594475532,0.282833000267076,0.359630292955231,0.674852627833266,0.51278673589486,-0.793072568744523,0.926176120929124,-0.685358957916471,1.2409685043664,-0.834999685916699,0.760276709119109,-0.480100683971256,1.353306389607,-0.574321079960445,1.11343008026442,1.08478040423514,1.46993163026914,1.07999450604008,1.12933394761107,1.45542606929346
"142",1,5706,4452.63760694107,0.328196728416462,0.587819769265399,0.230135815044867,0.234247965548267,0.503366835012181,0.347441736722051,0.72660771785249,0.23648337873287,0.240952001424374,0.582551408105247,0.476665053979152,-0.67082771645435,0.989535407727487,-0.626598465463162,1.17003156137271,-0.739779370817261,0.948006090973807,-0.441348366550929,1.20765936588183,-0.908998190788008,0.865389377859084,1.12071576041644,1.5279587756428,1.05592438841691,1.05805786699041,1.33936614308541
"143",1,5711,4319.54212166122,0.528141353733466,0.631148080546177,0.2316259972513,0.215522167735615,0.451724964228188,0.621959994908523,0.813689191524487,0.238101179714833,0.220709062926375,0.506328861650249,0.535479362429535,-0.767558779264322,1.10966304268604,-0.627632009778885,1.19163419454947,-0.829081553334523,0.797368332730021,-0.476094004570138,1.27457930143082,-0.86380734231746,0.987580359894272,1.38683423526661,1.66209010040377,1.0566921717816,1.04871249045784,1.25636891614004
"144",1,5716,4384.04565262108,0.544371201126188,0.623679030507047,0.218431517745077,0.381118100788329,0.318002927362321,0.648953697292662,0.797869460020693,0.223836662842476,0.41223064763463,0.335414377917971,0.539093972161407,-0.79233340397577,1.01268513017401,-0.861754530909397,1.09302592307473,-0.664221721920524,0.831868500492511,-0.471909588797773,1.20481702336203,-0.82596301950269,0.925974915810298,1.42114090122982,1.63659567523371,1.05010285163246,1.16993410684927,1.1125028049141
"145",1,5721,4295.84068212038,0.55905521327695,0.656332427049405,0.247226448535323,0.409431729840083,0.313769579085381,0.674266911014405,0.869923036562579,0.25514678380653,0.448770622463641,0.330457985567742,0.570778578483738,-0.903039497162185,1.15600679371593,-0.728604439378565,1.22634772205054,-0.716185287981087,0.956981593935209,-0.339395439637613,1.17969142598708,-0.864046124639215,0.855166680512479,1.45463586728891,1.75676608954226,1.06509988128682,1.2013950715864,1.10920248022549
"146",1,5726,4296.56939376964,0.607371272723283,0.658995909917445,0.306537218160161,0.54037963145984,0.274225171949313,0.764548621636054,0.876153635696722,0.322040683945789,0.642222406838301,0.285156500684759,0.625546822426259,-0.865434443886884,0.953617321361315,-1.08313031687466,1.21026177006755,-0.733585821402895,0.929628842264083,-0.573739060330217,1.11630320327048,-0.941962809347077,0.768350088624103,1.58453459484559,1.76764519334458,1.10371020211627,1.41244961984518,1.08131422988278
"147",1,5731,4358.2964933625,0.497230165884492,0.661247307505446,0.521971048036671,0.601019429953351,0.198787987451867,0.573097584488755,0.88146565179572,0.611950253466693,0.751993934655059,0.202836085076662,0.646105805673327,-1.01247573725335,0.959318152008978,-1.02791262607244,1.23959396847937,-0.655146762226202,1.16589374045038,-0.847603965911372,1.05832490002443,-0.816632955057428,0.773047200477796,1.32844084134685,1.77698169529565,1.37448311271795,1.565494877758,1.04114247740923
"148",1,5736,4241.29224713104,0.501821582887498,0.719280608892567,0.506855873097403,0.633662473210821,0.375305971990835,0.580159904752912,1.03535375568694,0.587978834393037,0.819098474377567,0.404904061970041,0.701451938141558,-0.904870603771776,1.00930854865766,-0.858485425797542,1.18934936185267,-0.734126719558984,0.86048957570113,-0.624384946752942,1.04692716432987,-0.929326819754131,0.942436309306421,1.33658551508291,2.07195739941505,1.34571910969419,1.67092231072766,1.16394729939984
"149",1,5741,4271.50605321091,0.46320716146231,0.691776673913509,0.520008908599734,0.661060866670326,0.474586288226293,0.52265968165276,0.957991479107671,0.608795072600022,0.881024159834863,0.539174556272609,0.71127651723633,-0.941912946151763,1.2050054261088,-1.07335993233986,1.10894553522025,-0.816752878141324,0.846318206044926,-0.631363577449156,1.12900255907104,-0.929418184561547,0.833680976926192,1.27317314282536,1.9177476740429,1.37063144042207,1.77620357021273,1.29070920213177
"150",1,5746,4175.2385650405,0.439173965922026,0.710884242856485,0.577168239401735,0.644012899776335,0.497137248003079,0.488839011684448,1.01077081538676,0.706772450159552,0.841830827904517,0.572955327815143,0.72395304917624,-0.682957011560286,1.07709067633892,-1.04402423879328,1.0901865830807,-0.815862469150719,0.864809477727262,-0.830580343027088,1.10938995911244,-0.825099780376487,0.891557438618287,1.23896357934463,2.02165764123762,1.49952729630454,1.7086791428104,1.32827780767176
"151",1,5751,4229.76389495007,0.354289959311528,0.783304018835816,0.665036117852583,0.66452833028862,0.490349291195378,0.378864789613889,1.26006292111117,0.890501001758203,0.889282978785568,0.562633002252322,0.760204561645757,-0.823381328763638,0.855478473282363,-1.1060428748304,1.25468031908588,-0.869501754450394,0.981638141912445,-0.545353957269803,1.34063737507727,-0.849958056210404,1.09769152088654,1.14353852880918,2.58775856515922,1.79299203413236,1.79082421635773,1.31655589522346
"152",1,5756,4337.67685815886,0.261937173348829,0.769155583542073,0.602255854556701,0.629513159368481,0.411681331499151,0.271413598839593,1.20357039365306,0.754420010062289,0.810194859993038,0.451737894094639,0.709123611606686,-0.645233501856777,1.09752728849485,-1.06574799501143,1.23664777240973,-0.832330814170947,1.06601609544748,-0.681835826176996,1.14134831670125,-0.74476891366751,0.816993215043899,1.07366534163506,2.44858169247819,1.56914955158238,1.65641571115914,1.20406712496106
"153",1,5761,4347.41540836698,0.279095633742934,0.796837449477051,0.595460115368892,0.618445652044663,0.421693893610451,0.290644899611248,1.31884425927215,0.741189107286986,0.786999174886349,0.465066839356994,0.721909623147854,-0.868418998960192,1.11119514190475,-0.956763415350156,1.34368313855196,-1.05198489560516,0.918678491589199,-0.471682571113618,1.54998961402244,-0.711796645693842,0.885744447682683,1.08447445767003,2.7393501802151,1.54936129276088,1.61936770127179,1.2162871650695
"154",1,5766,4180.73073918441,0.340999646202996,0.75390463221962,0.481381919607851,0.631297049217834,0.313452868073897,0.362741106045487,1.14752380777907,0.549202401840825,0.814008476596636,0.330088065717348,0.672406570742479,-0.849671171146799,1.17943991439325,-1.22979160398175,1.31068209913916,-0.773761340051955,0.948799843506729,-0.559299596991843,1.41208287682678,-0.896421581614471,0.876471123888478,1.1315811100151,2.31681088941978,1.30162327818773,1.66260979997118,1.10895813112902
"155",1,5771,4409.03447922734,0.181483276057824,0.685980939865059,0.296644861965499,0.630672016633521,0.381082596343286,0.184547872275233,0.942774253863137,0.310626838577196,0.812669844629215,0.412185719900154,0.586453129578639,-0.76678406585286,0.798852400852592,-0.918244161919965,0.933130772689129,-0.589388636283684,0.898041088040749,-0.50490659056551,1.25025580168563,-0.709241451185345,0.927596906947394,1.03405791716132,1.88882329374719,1.09648903284446,1.66043227636967,1.16989706768961
"156",1,5776,4317.5777992217,0.00411871117562941,0.694511321310059,0.2549912105543,0.556321487176664,0.519023167857271,0.00411874611053261,0.965293834301769,0.263708525469536,0.669486739361808,0.607214965091898,0.557491208556741,-0.675030350166851,1.00248532326294,-0.920319344013285,1.20180511643297,-0.789689291375994,1.10975898631687,-0.41594719496606,1.30680768380738,-0.821644527524418,1.0286344430098,1.00001696406952,1.93179218654101,1.06954218640532,1.44821249418131,1.36871001383155
"157",1,5781,4287.66695241437,0.254135297172484,0.671000990287143,0.260878509698285,0.439532929897265,0.516565304967841,0.262762125248111,0.904976938262535,0.270236351378311,0.489334194965253,0.60328950129225,0.561554728597391,-0.86431499234991,1.00073477456171,-0.845196328387857,1.17907986156764,-0.594174880504415,1.01089258932385,-0.420920074129137,1.11091092494592,-0.67148983284208,0.879197358695927,1.0690439344649,1.81898325878703,1.07302768560626,1.23944795436229,1.36395822236945
"158",1,5786,4342.82441421381,0.385615587983064,0.71052245326073,0.288177582482639,0.413820457522812,0.339733912517879,0.417939199866226,1.00973166359288,0.300944558184663,0.454568667101665,0.361218620288396,0.564231612949495,-0.709494591423941,1.11790302919173,-1.11857022792204,1.36113689540056,-0.684753966443763,0.880195267014867,-0.533597345461024,1.38827563595429,-0.886097619190766,0.859715359931084,1.17467317478482,2.01955803246204,1.09056762710096,1.20663267311058,1.13047889164305
"159",1,5791,4323.77116831518,0.450932522004386,0.698593255817064,0.253796426728055,0.453627629447548,0.344505404020884,0.505213666950306,0.976344778739495,0.262387612090962,0.509012619233672,0.366969698343277,0.578557856224824,-0.841970667109889,0.936914462258158,-0.812318717072338,1.41712097013198,-0.629732188251856,0.716258373270205,-0.518795410753966,1.17937101822064,-0.862045550699302,0.923294656227691,1.25524084927337,1.95324912697187,1.0688472589788,1.25909384653912,1.13466675950216
"160",1,5796,4244.20725054353,0.521228905593497,0.711477791759515,0.458736650870043,0.244101017648895,0.435553736734205,0.610755303118989,1.01247915500105,0.516262621033232,0.251715458190513,0.483861108328634,0.623098015053559,-0.807974423022189,1.06576948313723,-1.13338138562651,1.370345328208,-0.491109941996818,1.10701244912369,-0.41680939897439,1.13100675615133,-0.922341215937014,1.10289009398777,1.37302204028797,2.02511403931163,1.2665270938761,1.06336067189206,1.23412157215301
"161",1,5801,4304.84240828862,0.57210290797059,0.737106321679421,0.272258467266958,0.291707001632391,0.298403403353793,0.697531784972044,1.09075412484189,0.282947030044261,0.304970879431776,0.312647681640329,0.591166661660056,-0.700977267511068,0.969962392501025,-0.59547274914249,1.30499057401013,-0.667299325339337,0.939270614063983,-0.537176283010088,1.2090086147224,-0.885102247114958,0.788856628140971,1.48655059104629,2.1897445608596,1.08005902181087,1.09300723730139,1.09774857283507
"162",1,5806,4356.77731496872,0.288656826539384,0.715055378337745,0.233615351469748,0.272684999585052,0.305706059506931,0.301490484241535,1.02286983603587,0.240263664686403,0.283425886045924,0.321077335190703,0.484807638598152,-0.680985910937091,1.00787619047387,-0.940728595235462,1.27451770106283,-0.466359963367425,1.09913474731365,-0.395018633000217,1.23038057762147,-0.954320800157435,1.05820684152083,1.0908965120882,2.04626270147205,1.05772662856854,1.08033023288092,1.10309065517316
"163",1,5811,4420.40521257035,0.447585507074152,0.679630603719554,0.0355189478180477,0.373435153857946,0.190828728488157,0.500519924418765,0.926489551507366,0.0355413743152614,0.40255767065538,0.194401171255286,0.458966983253362,-0.806485262172007,1.07871471127866,-0.709414434721395,1.35757171748077,-0.585570492247908,1.06272881401817,-0.382429570876046,1.11411743476847,-0.978449106927715,0.905071336110521,1.25052019474017,1.85838288905232,1.00126318928822,1.16205267820349,1.03779181538543
"164",1,5816,4403.94552598811,0.445905344004179,0.694617641099229,0.0463309537825767,0.343262147080266,0.178961752475426,0.498173664250155,0.965579361613023,0.0463807600038943,0.365468122339061,0.181898313071928,0.458482219528247,-0.670879775186348,1.07067449829082,-0.795011359215081,1.29443442214472,-0.54581112176201,0.941416733563538,-0.477416084782957,0.92297462242488,-0.934689999989172,0.978248322159625,1.24817699975243,1.93234350357301,1.00215117489854,1.13356694844604,1.03308699629841
"165",1,5821,4378.45837291073,0.500626849994295,0.685315444642536,0.253341090274952,0.427847561824202,0.271772946794135,0.578315973537821,0.941048929175264,0.261884545491461,0.473360770068115,0.282402168895047,0.562800700041355,-0.732813955632641,1.11125952063303,-0.924219241167369,1.25647857836145,-0.681718865752546,1.13601346453971,-0.586689985913188,1.1381202296612,-0.858127690859219,0.878883787339194,1.334449365249,1.88557308710191,1.06858351516727,1.22407041863948,1.07975098499663
"166",1,5826,4381.60597455442,0.58338534166281,0.676626192176936,0.260868324906808,0.347837437233053,0.106222112422787,0.718281911132229,0.918921180413807,0.270225030850506,0.371004889129257,0.106826491056662,0.532249650962555,-0.841180917773994,0.999945751707813,-0.57898376476871,1.33960258996081,-0.541636840760414,0.964463369260104,-0.513063021931862,1.01680913069844,-1.1407265852466,0.643592246797648,1.51592890385977,1.8444161358131,1.07302156729816,1.13764462775781,1.01141189919148
"167",1,5831,4332.38827497441,0.516959059128736,0.57317687896674,0.27150593499282,0.476735935688027,0.0872110897557112,0.603916992404718,0.699480992017477,0.282102621982674,0.542332977055082,0.0875446476178029,0.495352229700677,-1.00903116991869,1.015987714368,-0.743358726418365,1.18830472443036,-0.375552175450051,1.08576992374094,-0.590504255416257,1.20383718403639,-0.922082087310678,0.787208153783829,1.36471573371516,1.48927365819375,1.0795818893295,1.29412505800143,1.00766406532653
"168",1,5836,4397.18233602743,0.612017707954199,0.530763347093844,0.22733063210596,0.339076658090083,0.170633360690081,0.773879124760971,0.626254605359746,0.233442714774094,0.360428918884973,0.173173013764839,0.484358644441453,-0.547755334606421,1.24076274035429,-0.550560049993291,1.308073834053,-0.542013734901359,1.06796294190462,-0.70052880699905,0.959560790354882,-0.834930882081804,0.947378959066191,1.59888889974081,1.39219483073429,1.0544955010811,1.12990900556859,1.0299888926964
"169",1,5841,4305.88399706681,0.647496118442012,0.506172269883569,0.289953864846162,0.385655862536546,0.261240941266411,0.849655782609583,0.586912404673106,0.302969234044467,0.417990476345239,0.27063926183472,0.541115827075193,-0.672294572412876,1.16328964113344,-0.42449882489727,1.37452009390227,-0.588106294413255,0.912069230720367,-0.487861310457099,1.08261558469273,-1.05879547309636,0.912215156146243,1.7219149489219,1.34446617075917,1.09179035677749,1.17471603831532,1.07324561004644
"170",1,5846,4364.69779414356,0.625921557977065,0.595497938339436,0.311317860923743,0.434901950632896,0.282426880621708,0.802580816176911,0.741262054284403,0.327597545791684,0.482967979795917,0.294412769268445,0.583896929886957,-0.71043396232303,0.983564033000012,-0.548983135929684,1.37265287855355,-0.738790966209687,1.03531446092385,-0.553949456711809,1.01071401053479,-1.1203449636467,0.676112968943138,1.6441359664952,1.54946943312193,1.10732015200873,1.23325806950815,1.08667887870831
"171",1,5851,4389.09684179238,0.62211265004321,0.620533579101646,0.410429920307011,0.464775426010863,0.249100407857859,0.794597784607316,0.791315358190779,0.450086036429711,0.524915760230708,0.257208211367407,0.613655518568985,-1.06666397971609,0.975906770835662,-0.69957720218204,1.29140930125871,-0.745686488095456,0.887375971733471,-0.747197895455249,0.947779166967562,-0.744479145987998,1.04144736237931,1.63138563930285,1.6261799961086,1.20257744018901,1.27553655533858,1.06615606399482
"172",1,5856,4240.6499767686,0.686522077613533,0.714202405807109,0.470473438174175,0.414748317771642,0.206607415653414,0.944180469743519,1.02037773675997,0.533166240130558,0.455799353392086,0.211163495194137,0.667005115486332,-0.722857927089018,1.18379716730291,-0.772983989223027,1.55601057865086,-0.726721122702845,0.965022151440062,-0.592832719662311,1.05315902084509,-0.892105380833145,1.06196208539436,1.89147675944509,2.04117072567541,1.28426623961496,1.20775305055264,1.0445900217026
"173",1,5861,4274.0406057935,0.702158615558996,0.691700053379137,0.506918662316104,0.405868952676831,0.170296855573844,0.986149353680188,0.957788025139922,0.588076861144444,0.444091322233109,0.172821289780519,0.664783651831597,-0.692887785991946,1.0812012249723,-0.630371242543196,1.25493747427598,-0.984755903832858,0.924627226607441,-0.519488185497107,1.19850500525821,-0.84393562381542,0.730290137717645,1.97249054776385,1.91735790110143,1.3458343946135,1.19721710248275,1.0298671982014
"174",1,5866,4249.87018418652,0.664662835933439,0.653682031202997,0.60566157300315,0.461043370065814,0.0232547805033779,0.889605400472905,0.863779773897761,0.761146865699321,0.519557140419009,0.0232610709709357,0.651504572970626,-0.678182245475225,1.34596592850448,-0.774716887567776,1.18134379585714,-0.846683620022432,0.883284166331194,-0.291730464462981,1.48257601617503,-0.529483234025812,0.992449728518085,1.79139776855056,1.74611549779487,1.5793445511639,1.26993962216038,1.00054107742271
"175",1,5871,4235.44036919172,0.739360149227612,0.664503457807849,0.675479051277616,0.508901098120175,0.204376162048688,1.09809742172298,0.889223374256654,0.91605387291474,0.591178347478046,0.208783065770808,0.732830315332016,-0.751019187275082,1.15210072587591,-0.823187802488208,1.28844179171475,-0.85956936039944,0.942166276219704,-0.501181512623466,1.20312039810562,-0.816126709223324,0.927235294268433,2.20581794759465,1.79071820932439,1.8391546980821,1.34949183852687,1.04359036855266
"176",1,5876,4231.40926053909,0.79195417089466,0.688106806069314,0.64451039869148,0.386770489071272,0.147053750128338,1.29705112417466,0.948315707659845,0.842942917609714,0.419410704606706,0.14867001582504,0.7278051098169,-0.889547874521957,1.16615789499623,-0.714072874090761,1.13181414299147,-0.751872993889863,0.986707297244289,-0.484235963476052,1.2541108426815,-0.776933135532124,1.00277992988662,2.68234161872274,1.89930268139439,1.71055276234838,1.17590533913869,1.02210277360542
"177",1,5881,4230.66500365251,0.768873706621276,0.640692443752944,0.513854549598728,0.408844194404969,0.099603525230527,1.20249123376325,0.834454839568989,0.598983719039913,0.447997274929022,0.10010130856395,0.669706177911646,-0.839569131510953,1.31456380257861,-0.799435076063657,1.31688853787001,-0.780726548361187,0.60506962767709,-0.343317185385854,1.25203865803081,-0.812265429445946,1.10234864234586,2.44598516727747,1.69631487928011,1.35878149567488,1.20070155834383,1.01002027197622
"178",1,5886,4218.31963559145,0.758299548874037,0.669438710654081,0.412797468603567,0.480900467000515,0.288893810306624,1.16320332456103,0.901155183942298,0.453213785895231,0.548487765488391,0.301760533232711,0.694043932691674,-1.19900817613915,1.42040425416318,-0.984645299729455,1.17173132001781,-0.765036277692339,0.955060868594479,-0.539317394282127,1.25019658661517,-0.944773146359685,0.857664143812206,2.35304197426984,1.81208066554608,1.20540273572549,1.30083882889045,1.09105941941689
"179",1,5891,4211.43312712965,0.789136571162749,0.66746434116912,0.423692848131397,0.551032113895099,0.191422574117156,1.28478303054016,0.896356309167134,0.467752348815044,0.66032672752254,0.195029107609256,0.710643973702464,-1.05674781316971,1.16181941868686,-0.853256181391768,1.23610444517272,-0.705869339568461,0.868776989926769,-0.49789614060142,1.23548685661361,-0.907239766744132,0.796937561082238,2.65066743556395,1.80345463298373,1.21879225982199,1.43603138708063,1.03803635281486
"180",1,5896,4291.92586232446,0.742595743271945,0.69739429986467,0.407346094715039,0.563250996132035,0.398069877761218,1.10878225971714,0.973079831817027,0.446028413499431,0.68166602663673,0.433932159351358,0.726402336122548,-0.976131841206519,1.17361939737252,-0.967400778049453,1.28585882549445,-0.688125180935534,0.860275575356874,-0.471739498420907,1.24206108900835,-0.839814369722637,0.903498405486314,2.22939809946345,1.94688435908905,1.19894134564882,1.46466857187071,1.18829711891933
"181",1,5901,4241.47637386239,0.758235719053942,0.772248965739464,0.426984632977191,0.506981249716582,0.349676075250968,1.16297297152132,1.21552750524996,0.472192910816532,0.58817458535405,0.373238365146832,0.744011857965726,-0.852561620516034,1.42987212740439,-1.05996094535897,1.28411507372684,-0.588664448841321,0.846322118338951,-0.390988427018973,1.31760490406205,-0.803464385565558,0.972767755051941,2.35250613248913,2.4775071160192,1.22296614502539,1.34594934285641,1.13930687721748
"182",1,5906,4289.73880989961,0.711654670100872,0.829092260794195,0.370371670854151,0.536193695933708,0.276706966194562,1.01298909015988,1.48287379495464,0.39872773404866,0.635229108352529,0.287950168893927,0.744576946903979,-0.835014654551389,1.21013989980793,-0.833560235010711,1.50721263205867,-0.512453796386224,0.897503238695565,-0.274233789981871,1.51567983079028,-0.612504537431449,1.10786703493714,2.02614689678293,3.19891469176317,1.15898380589958,1.40351602009835,1.08291529976604
"183",1,5911,4255.22756094629,0.680105666599284,0.798263037063679,0.37988700631989,0.556413938978735,0.138736262889938,0.927694157647906,1.32533806679096,0.410674049680609,0.669647882695858,0.140091032258551,0.706999571872442,-0.738288923331863,1.12193404987309,-0.88430789092047,1.68884363368505,-0.333984740383733,0.970091222901869,-0.380459029350998,1.49793738962308,-0.81941822446234,0.795259761066955,1.86061645013406,2.7565209912852,1.16865317508107,1.44842828679905,1.01962549731927
"184",1,5916,4297.8513903428,0.665189221693746,0.759934898078332,0.398000829403131,0.539700020691164,0.201573748147342,0.890868683940069,1.16913206425222,0.433842721852237,0.641082466589928,0.205798095655348,0.690602427306803,-0.884829162579878,0.83808017715308,-0.85067899770766,1.28862905259696,-0.415904583742465,0.944751541155667,-0.332436281912446,1.31413374560456,-0.850400969411378,0.886792958470975,1.79364701202511,2.36686978366265,1.18821950730416,1.41098672896903,1.04235285617537
"185",1,5921,4281.11741043413,0.5386374483669,0.652161239796971,0.39830718828204,0.619221856360906,0.142151489211207,0.63930371005114,0.860279911483792,0.434239611623994,0.788600580114246,0.14360985966161,0.621617707311095,-0.655499915713969,1.00312623435025,-0.823674003894324,1.47665624747988,-0.501673185831788,0.930839531153523,-0.391276665414098,1.46268501893226,-0.678393362559869,1.05111098617436,1.40870923368515,1.74008152610256,1.18856404030336,1.62189087495653,1.02062379179203
"186",1,5926,4271.14782055631,0.481069810015507,0.709805305463166,0.376185685435085,0.666281713143324,0.18921511440245,0.548739053373739,1.00767660761802,0.406009391650015,0.893498189720605,0.19269604119728,0.650204828693218,-0.682683840599446,1.02445550604789,-0.956668017181026,1.19629373245538,-0.366080760998954,1.0841616006529,-0.281211536319353,1.68148420561587,-0.782929679187742,0.951959994614227,1.30111454869751,2.01541214554056,1.16484362610802,1.798339015034,1.0371317642931
"187",1,5931,4331.83797831709,0.523615135158144,0.681649120655267,0.363345195422803,0.721446352908584,0.250670382184618,0.614604272168964,0.931622909323961,0.389999899748886,1.04184442306103,0.258937613613716,0.676965606755593,-0.85196037969071,0.782010935083808,-0.932423659197296,1.16699101113984,-0.643923392004239,0.929584167796334,-0.333792199338066,1.65167541598358,-0.914156895141115,1.13706256589242,1.37773841136834,1.86792124517724,1.15209992180414,2.08543980186337,1.06704868774397
"188",1,5936,4388.97002070893,0.46903072684035,0.672536770530479,0.386820927646905,0.745544928791802,0.308339640321264,0.531069255679553,0.908755236912192,0.419475023165136,1.11867195199013,0.324132566806865,0.685611528480465,-0.701049114349287,1.00255910261155,-1.0465510940803,1.0465376984308,-0.605296028816641,1.06994714220792,-0.217646676724695,1.68908037005906,-0.863611042447658,0.954318394556263,1.28203455432803,1.82583608061533,1.17595929505939,2.25142693616941,1.10506192086481
"189",1,5941,4293.40326245737,0.385749419746514,0.661282554581169,0.303000132789135,0.695913626020747,0.352097816501049,0.418109601704595,0.88154914949414,0.317946640998648,0.969069656828326,0.376187667756154,0.637117257480043,-0.704720424594493,1.13862212103228,-1.03192954683795,1.11254676931594,-0.514478107757918,1.1177875356287,-0.194193197018902,1.6477950403651,-0.759754790954084,0.978685648025137,1.17481563903757,1.77712890297384,1.10109006652232,1.93909599978537,1.14151716137181
"190",1,5946,4257.75037731847,0.451096641471739,0.718584245162747,0.308513312547214,0.674624775852749,0.244939576519771,0.505444507034445,1.03328012139278,0.324334333209374,0.913926542703127,0.25263526460482,0.647355924179029,-0.754035224067243,1.15361374463641,-1.01471938011321,1.36198868601861,-0.581304252694098,1.09806006702771,-0.444193032750794,1.67462504188853,-0.766290273738199,1.04714347563008,1.25547414969129,2.06766780926548,1.10519275969837,1.83526172545729,1.06382457692195
"191",1,5951,4362.21658124386,0.398343149196346,0.722632366209292,0.32733285371443,0.655652239432387,0.166696062531003,0.434286210527324,1.04542580815668,0.346417295079477,0.868341099260963,0.16906151582094,0.621206815453603,-0.615936111616357,1.17369500023375,-0.882997015584418,1.14550684845504,-0.566788476068023,1.01472607712613,-0.609220120438581,1.52375638084083,-0.594789996591436,0.972653672957064,1.18860451265418,2.09291512036006,1.12000494233018,1.75401626466574,1.02858179613167
"192",1,5956,4329.363320253,0.453481845602598,0.694873854038731,0.428993752918997,0.676941208280601,0.342881994787462,0.508806678469686,0.966267937301091,0.474914438155126,0.919710726274342,0.365009418829799,0.676654666118932,-0.869312868775903,1.17586732187707,-0.789714538194348,1.34930781325041,-0.593863546112725,0.855456504733501,-0.284008066120901,1.39755720391911,-0.641217268424515,0.981186859658441,1.25888423605535,1.93367372665611,1.2255437235682,1.84586782002408,1.13323187583447
"193",1,5961,4232.77512994029,0.44901478448378,0.702772640766488,0.251812482564168,0.65591088661397,0.287921154191187,0.502521051537704,0.987852544052737,0.260197060898783,0.868942206592199,0.300652551790531,0.630378894055226,-0.780875491971399,1.00031083050313,-0.947985098783484,1.47813884795465,-0.533173709492045,0.949405378522054,-0.542863039348063,1.44238457027665,-0.736200373787602,0.882438022497272,1.25252740723856,1.97585264879146,1.06770251050037,1.75506055839732,1.09039195689816
"194",1,5966,4254.54319596678,0.49385010361254,0.715702022927868,0.268101948667082,0.644231316786361,0.367720969322672,0.567939483704095,1.02476534055153,0.278289993228595,0.842318843678983,0.395426029645613,0.659035017147154,-0.627273578581324,1.23822083993273,-0.826427398393253,1.5083229711017,-0.718985998011777,1.01500065345496,-0.549961331462792,1.34523578942604,-0.965501732277256,0.923597197855427,1.32255525715007,2.05014400319569,1.07744532033117,1.7095010344167,1.15636174492129
"195",1,5971,4264.04260931873,0.472271106960314,0.715136910754962,0.0259290462051986,0.62865335578925,0.327424956037344,0.535786844528188,1.02310853477627,0.0259377668517307,0.808364359051344,0.346526469901275,0.600194703892982,-0.964871404168151,0.908359802160582,-1.01346061994703,1.3384354554758,-0.652850425968812,0.966677495978853,-0.399841734827157,1.63735384259234,-0.758613386460911,1.01093275336447,1.28706754276947,2.04675107393204,1.00067276774925,1.65345293698449,1.12008059434224
"196",1,5976,4209.34885020806,0.527987492753824,0.730981723381564,0.289234303066009,0.664992613461025,0.185391578385719,0.621708753091795,1.07119709000303,0.302148639302455,0.890396561761811,0.188662087467226,0.653983346559569,-0.887039159118786,0.829931646530267,-1.15705253632076,1.32035930755431,-0.534898084897712,1.0339479386983,-0.407509285273382,1.24591940707275,-0.819849563432707,1.23972665441669,1.38652177367095,2.14746320563097,1.09129380023232,1.79280603719726,1.03559338324749
"197",1,5981,4220.47320937448,0.570578615635199,0.759867407927701,0.365011452100445,0.69325025359108,0.210957468899771,0.69477441488244,1.16888635422696,0.392062582791648,0.961916459928662,0.215814318102204,0.702178988294402,-0.807234138126219,1.13585196462271,-1.1285397802427,1.29234116954226,-0.545036620196855,1.00550146661269,-0.384966634973113,1.62785186205411,-0.971210789031872,0.955680330475508,1.48271148757524,2.366295309098,1.15371306882526,1.92528327588169,1.04657581989792
"198",1,5986,4245.51999158439,0.662350810031573,0.813545328099889,0.251688828075291,0.682302202699242,0.112370192514817,0.884084702622923,1.39904251758027,0.260060645427121,0.933292261153254,0.11308643531932,0.720435933700909,-0.917437071737997,0.891922539681481,-1.09428345943854,1.04495207614748,-0.67738901730903,0.961282774604566,-0.375559957780107,1.40666575051909,-0.840709752459586,0.945102934309823,1.78160576141186,2.95731996599733,1.06763153929997,1.87103444472855,1.01278854185323
"199",1,5991,4240.7295502984,0.623172718930854,0.761664352735633,0.195872993193895,0.662653702604252,0.10769631674259,0.796810222044542,1.17545916173615,0.199742143785251,0.884805376851511,0.108326360424409,0.667069111016609,-0.807971269544843,0.864612516735984,-1.11217835222353,1.11010101498265,-0.706910425754061,0.768758958344182,-0.643306136338667,1.0617073657925,-0.820356112674599,0.824106519652981,1.63490652995467,2.38170424090945,1.03989692400393,1.78288055490534,1.0117346003628
"200",1,5996,4266.71520444698,0.592559999455429,0.74909679962267,0.408364984463659,0.640904601579752,0.0993301529886737,0.735618423759119,1.13077947930883,0.44736700690314,0.834923727464,0.0998238285860596,0.678515166835876,-0.696714144207311,0.865205699949844,-0.974557598348027,1.0895218626121,-0.53650590128178,1.08990312692588,-0.650976925942073,0.920839679818747,-0.911439827065897,0.908960424928923,1.54113446537385,2.27866223082595,1.20013723886547,1.69709763068238,1.00996479675358
"201",1,6001,4227.53686776391,0.624948753415738,0.781748500685653,0.470399006397426,0.635370050990606,0.100799532996986,0.800533047192003,1.25361805413798,0.533057919372432,0.822796719533741,0.101315557802282,0.711472609457161,-0.785999758330655,0.948149208424746,-1.05102234277919,1.27991464350045,-0.682891842901494,1.03953712445649,-0.662246925463654,1.18576907614901,-0.872108779463237,1.13596223522558,1.64085315964651,2.5715582256607,1.28415074540567,1.67699444167548,1.01026484225279
"202",1,6006,4136.30224582276,0.600243832288104,0.82759884974686,0.601334415842463,0.58888468547327,0.212402499224323,0.750476398317877,1.47437976159756,0.752611185549053,0.728621937839094,0.217362212670719,0.754823499992846,-0.803562300555485,0.920918512063459,-1.38407562437466,1.29608747940529,-0.714041691340436,1.14105913541612,-0.694757045390617,1.13358512519044,-0.857604394530806,1.01977778340902,1.56321482443217,3.17379568140847,1.56642359661355,1.5308899283004,1.04724633149711
"203",1,6011,4209.60217269104,0.580438543130023,0.825693527523187,0.498383324779555,0.665440383200669,0.264034905853835,0.712803206571628,1.46368689800713,0.574865247285692,0.891472290345508,0.273749417174988,0.754173831652178,-0.886623968295816,0.862317504606344,-1.38954530128439,1.53180775166423,-0.752864424507277,1.13285180748859,-0.520215137651529,1.28394368716192,-0.890236962293771,0.980848982895312,1.50808841129879,3.14237933539773,1.33047005253684,1.79472284445387,1.07493874340365
