noah-padgett/Padgett-Dissertation/data/study_4/posterior_draws_m3.csv
"","chain","iter","deviance","lambda.std[1]","lambda.std[10]","lambda.std[2]","lambda.std[3]","lambda.std[4]","lambda.std[5]","lambda.std[6]","lambda.std[7]","lambda.std[8]","lambda.std[9]","lambda[1]","lambda[10]","lambda[2]","lambda[3]","lambda[4]","lambda[5]","lambda[6]","lambda[7]","lambda[8]","lambda[9]","reli.omega","tau[1,1]","tau[10,1]","tau[2,1]","tau[3,1]","tau[4,1]","tau[5,1]","tau[6,1]","tau[7,1]","tau[8,1]","tau[9,1]","theta[1]","theta[10]","theta[2]","theta[3]","theta[4]","theta[5]","theta[6]","theta[7]","theta[8]","theta[9]"
"1",1,5001,950.229380714618,0.965215082976796,0.718607609567089,0.604352361567309,0.955553685246247,0.248738226518804,0.801755506073805,0.0382677093811162,0.710235488021806,0.894744273825026,0.74482736380003,3.69167592732856,1.03334959158151,0.758553218953806,3.24117396333429,0.256809558752512,1.3415085815824,0.0382957601466107,1.00890857669991,2.00355265313269,1.11625223536438,0.954537688827308,-3.00012662378728,-4.29717093977731,0.410675461681187,-4.32869615026809,-2.57333639393841,-0.0542797079877091,-4.92750762135686,-6.21631362135376,-4.45206634618178,-1.76302692722229,14.6284711524172,2.06781137842167,1.57540298598518,11.5052086605961,1.06595114946666,2.79964527445921,1.00146656524521,2.01789651613864,5.01422323387506,2.24601905295598
"2",1,5006,960.181246713856,0.965865244342232,0.785910033753998,0.502186101312502,0.957745173823847,0.0046306739883346,0.817066445363697,0.0677646674162391,0.659604932364017,0.867209143008222,0.751611300625767,3.72856112499232,1.27099806094505,0.580723378851434,3.3299194753013,0.00463072363723206,1.41718088075471,0.0679207947063254,0.877586445492188,1.74157939767019,1.13948474471886,0.952486281238147,-2.12334214119634,-2.2568512390834,0.0791771363751968,-4.58537762225198,-1.99007033115135,-0.169154719224498,-3.47038356694839,-6.55504284166425,-9.7461079599628,-1.59249881533472,14.902168062804,2.61543607092607,1.33723964274463,12.0883637119909,1.0000214436014,3.0084016487767,1.00461323435354,1.77015796931161,4.03309879838926,2.298425483447
"3",1,5011,999.750703841819,0.952790820770964,0.81785630303503,0.352374402410882,0.951998963767105,0.194284139798404,0.809577193927719,0.365276766984224,0.754376702577734,0.759660391474513,0.73394109562423,3.13802556236071,1.42131440054298,0.376525053062626,3.11007869218005,0.198058077920856,1.37914594874504,0.392391420143583,1.14919059541806,1.16813323125263,1.08057555047143,0.94734634344493,-2.16863583518365,-2.63392886369508,0.347432289312769,-3.41038560905303,-2.53462981715397,0.235563109638341,-5.47210048030309,-7.37156312395432,-4.87468335903162,-1.88315833150681,10.8472044300292,3.02013462519085,1.14177111558381,10.6725894715523,1.0392270022297,2.90204354793984,1.1539710266023,2.32063902459731,2.3645352459567,2.16764352027664
"4",1,5016,978.904640271064,0.949347715812783,0.792988776976516,0.252736456785509,0.945183505904661,0.36394428885644,0.736806717572281,0.486795470810091,0.691181177825457,0.753252713498085,0.818280804292311,3.02121154509808,1.30161129823873,0.26121681935861,2.89454441004154,0.390741027849768,1.08978401010303,0.557282844535604,0.956411861450306,1.14522877688195,1.42354592817477,0.944469979103484,-2.31999267127497,-3.43846390142111,-0.0113462862778712,-3.75990272938175,-3.75106448350525,-0.0988880558390136,-8.65078575845957,-5.0652082436763,-3.00921334241617,-2.39047110591073,10.1277192002339,2.69419197170272,1.06823422671583,9.37838734170275,1.15267855084509,2.18762918867624,1.31056416881369,1.91472364872284,2.31154895139854,3.02648300962297
"5",1,5021,945.963829601013,0.93974919035061,0.789889422086993,0.312702482246027,0.943829178428076,0.459008736560427,0.628111342711105,0.348399679909274,0.659222642977315,0.793776952966163,0.836419261509367,2.74889231358776,1.28803966888624,0.329212099005685,2.8563338252674,0.516650530560079,0.807212946926618,0.371687351614305,0.876686700012142,1.30510563725955,1.52606145637021,0.94097262114942,-1.86498202284135,-3.41213738392559,0.268514633517474,-3.96966458730325,-2.21547151730214,0.116912965853657,-8.35560426341596,-4.72141563364292,-4.98759264459623,-2.21544517615355,8.55640895170189,2.65904618862458,1.10838060613173,9.15864292136672,1.26692777072801,1.65159274168595,1.13815148735006,1.76857956997818,2.70330072440665,3.32886356861876
"6",1,5026,940.630917302514,0.937081775485005,0.798702902844797,0.337377244638043,0.941970526454037,0.254998384047716,0.732734212586491,0.353122738712518,0.548386498118539,0.806607971369603,0.866389850913673,2.68420255077911,1.32735407982761,0.358389806930895,2.80602594213637,0.26371646013932,1.07673495072024,0.377438454561148,0.655788213555793,1.36461852942594,1.73497191831902,0.941177610880327,-2.11057222685654,-2.44858433174607,0.420726109962086,-2.9250147682958,-2.14161479587788,-0.0899222760724773,-5.50918617423035,-4.25986229492741,-3.78615272954199,-2.36845991214715,8.20494333360908,2.76186885323499,1.12844325371196,8.87378158794229,1.06954637134841,2.15935815410252,1.14245978698151,1.4300581810387,2.86218373085261,4.0101275573556
"7",1,5031,941.218836799225,0.947268304641622,0.699377703660019,0.187581797358299,0.94016906998485,0.533345844479845,0.721301280624373,0.552366959022271,0.682470783552042,0.786647668947968,0.818566039414004,2.9561348506169,0.978489637906737,0.190971739496178,2.75945486108402,0.630508994880446,1.04140766715478,0.662627459857692,0.93372385093905,1.27412520004168,1.42504931549551,0.942918005688433,-2.56170996961311,-2.19714571638447,-0.164193456228557,-4.18469763600545,-2.87968317345137,-0.313855601317297,-3.37333012822172,-6.92436849190857,-5.21253519825935,-2.2928663544262,9.73873325503182,1.95744197149086,1.0364702052862,8.61459113036024,1.39754159262515,2.08452992920876,1.43907515055746,1.87184022981245,2.62339502538125,3.03076555159423
"8",1,5036,928.815218779063,0.933771875174572,0.732261779953304,0.212479777030168,0.926506388426264,0.717912317843528,0.673219242994087,0.44900522753979,0.737021081360217,0.832735971314229,0.842699895610393,2.60925749665797,1.07523754187024,0.217445033438768,2.46228543757469,1.03128534655399,0.910441107940777,0.502507654882006,1.09047797446619,1.50402860689274,1.56524068924087,0.943875211224434,-2.76021409878677,-2.04031339151026,0.232741529115549,-3.72750930807736,-2.65943556967891,0.46844362497268,-5.23256581926084,-5.32437385347553,-6.05065407704368,-2.4298880296767,7.80822468386581,2.15613577144715,1.04728234256719,7.06284957609239,2.06354946601699,1.82890301102843,1.25251394321501,2.18914221279587,3.26210205035172,3.44997841525523
"9",1,5041,935.245399144657,0.938857490349232,0.785018665167847,0.249073667576211,0.924903241731482,0.769390357445216,0.614347581405818,0.128496424983016,0.726245284475313,0.821643271785512,0.821636627003066,2.72681139822904,1.26723810841369,0.257178774436858,2.43265910667264,1.20447053332815,0.778605737152432,0.129570568611563,1.05645564614654,1.4414742467561,1.44143836773602,0.941929073947305,-2.74639270645462,-2.97078037005949,-0.193428865984474,-3.64888367852454,-3.40703275732333,-0.111834104379209,-3.65053239337796,-5.139798321675,-4.38330154439704,-2.35908531689317,8.43550040151184,2.6058924234159,1.06614092202084,6.91783032927735,2.45074926565579,1.60622689392668,1.01678853225032,2.11609853227491,3.07784800406107,3.07774456798148
"10",1,5046,963.936340038742,0.919819966194731,0.691719717523041,0.388710439989227,0.926435955041083,0.784916003236522,0.653649154522265,0.210930174279807,0.606438120533748,0.719198521139145,0.827405306617218,2.34444183719852,0.957840234313001,0.421887701609157,2.46096429897373,1.26680638323684,0.863703920861383,0.215785094807945,0.762689872370951,1.03510897907491,1.47328627059025,0.93302047228034,-3.05191456470788,-2.83803320602836,-0.335476525533181,-3.85345529974439,-3.75010542915462,0.141738880915128,-2.29608420737434,-4.10505518041008,-3.88965461014552,-2.89573089375536,6.49640752800675,1.91745791446878,1.17798923276906,7.05634528082325,2.6047984126096,1.74598446291133,1.04656320714127,1.58169584141722,2.0714505985615,3.17057243510972
"11",1,5051,907.129637865702,0.913193983634536,0.573573419722619,0.587792001964917,0.942422390342505,0.693049185890654,0.628630345875356,0.220527248954601,0.608347049228021,0.752992204053545,0.862965846907713,2.24082852951307,0.700202050052022,0.726555275173445,2.81803863099232,0.961379540024797,0.808315438970066,0.226093486535719,0.766497638342077,1.1443138575968,1.70795628826783,0.936067256767559,-3.29392256962527,-2.40290039144289,-0.339759034867464,-4.10160313196532,-3.60599571094448,-0.201983094325371,-6.09894588973978,-5.35105584536747,-4.93045771647608,-2.63834926809699,6.02131249867969,1.49028291089705,1.52788256788236,8.94134172576509,1.92425061997829,1.65337384887737,1.05111826465388,1.58751862958398,2.30945420468808,3.91711468263361
"12",1,5056,910.345032772695,0.918315062713854,0.7206726716368,0.600547107062498,0.948703800154375,0.766526247212679,0.552249273608972,0.309594911442999,0.643203093607705,0.743179307892279,0.863317654677217,2.31985451308107,1.03951846782383,0.751069391559026,3.00064852266427,1.19357015581551,0.662424323848308,0.325591705510013,0.840024518838375,1.11072762197203,1.71068860172393,0.943759930488738,-3.33986139080166,-2.85889288604713,-0.30361467889415,-4.78644054707896,-2.84749485036106,-0.441121913558088,-3.58088690477397,-2.99716815953394,-5.5323362320564,-3.93868491665791,6.38172496186261,2.0805986449468,1.56410523093684,10.0038915565673,2.42460971685347,1.43880598482589,1.10600995869692,1.70564119224964,2.23371585021165,3.92645549206818
"13",1,5061,925.369959802071,0.902443777348342,0.637279595241863,0.699525144275144,0.939637897640694,0.774575252691237,0.537824741150218,0.0151424307846071,0.762777819003395,0.853438768776817,0.878642287125502,2.09477195589379,0.826956366040625,0.978893545485544,2.74611054147702,1.2246602203096,0.637946131827591,0.0151441671114902,1.17956429953199,1.63747128777172,1.84016329020586,0.945580226010622,-2.72852759907752,-3.58004700891436,-0.0650069136292911,-3.7022626415993,-3.71705103510406,-0.00411008278409493,-5.88702784562091,-5.46266860996123,-8.64413056724989,-3.5360137014589,5.38806954719908,1.68385683133512,1.95823257339326,8.54112310601121,2.49979265520876,1.40697526711379,1.0002293457975,2.39137193673038,3.68131221827678,4.38620093462126
"14",1,5066,922.862494255303,0.924219585244707,0.823313418405312,0.741614744822466,0.953673176038074,0.831363531689404,0.701407117963224,0.0721824307419981,0.583410467291625,0.845480852451045,0.879941171441303,2.42030090484784,1.45055014020134,1.10552468938586,3.16998602025214,1.49598741458785,0.984070744494837,0.0723712149592508,0.718328808629392,1.58328046386475,1.85218540611603,0.956634734901427,-2.4984667693096,-2.80107788414384,0.139322957056379,-4.43375015414979,-3.0521799864814,0.104243184107291,-3.22594110344102,-3.8364944587978,-5.98942874880393,-2.40319716456389,6.85785647000729,3.10409570923813,2.22218483884169,11.048811368594,3.23797834460524,1.96839523017062,1.00523759275468,1.51599627730692,3.50677702725576,4.43059077862919
"15",1,5071,917.09065201746,0.937529253960102,0.886194302966919,0.631530914134969,0.957284903668471,0.876725308289571,0.751063055658381,0.328272577453575,0.534681070676693,0.859481467159737,0.873461803371536,2.69477399425239,1.91273030072908,0.814510022332654,3.3107279242415,1.82274630098919,1.13757707143925,0.347531730289278,0.632718278302615,1.68141061966073,1.79395141111477,0.963069621991441,-2.63388642171928,-3.71550793483247,0.0771828362665002,-3.37608211498144,-4.444347015374,-0.060499200231782,-5.71401283428518,-5.3153320663998,-6.79606339486913,-2.97010088670424,8.26180688009896,4.65853720332714,1.66342657648034,11.9609193883524,4.32240407776977,2.2940815934643,1.12077830355786,1.40033241969822,3.82714167190788,4.21826166544067
"16",1,5076,897.441186657966,0.93597049167905,0.878498653364821,0.589797376854182,0.960718512844852,0.898413763117563,0.708972896472001,0.509005937962815,0.4636372138978,0.832155738011025,0.847966144279229,2.65841455935542,1.83884494570246,0.730352856225612,3.46174101903888,2.0458016433389,1.00529917630244,0.591342719790047,0.523277723558655,1.50061806104856,1.59978401474902,0.962203853586339,-2.38366566221204,-3.23680319789129,0.0224968120452372,-4.53220502890878,-4.33715076646357,0.0565348478653743,-6.06011952593419,-6.82506376029978,-5.22279441151058,-3.35530710130828,8.06716796939287,4.38135073433548,1.53341529459691,12.9836508828964,5.18530436388813,2.01062643387437,1.34968621224869,1.27381957597273,3.25185456514515,3.55930889384651
"17",1,5081,926.601642874057,0.906944834010039,0.882995965488727,0.611651599179588,0.961353205379215,0.865172857360132,0.783176924384032,0.597297995998392,0.422163460567975,0.830419939302991,0.855114321974311,2.15298776862583,1.8811940907423,0.773139341824603,3.49179174813068,1.7252604923951,1.25953405657212,0.744742586648787,0.465696938228289,1.49051038509775,1.64940046406461,0.960696461719749,-2.65497629121708,-3.65285438554885,0.334468148588442,-4.05152844455173,-4.53412566750579,-0.575091207562928,-5.84455253461926,-6.05863662469308,-9.70399524071249,-3.1691398016486,5.63535633185244,4.53889120704374,1.59774444187698,13.1926096123135,3.97652376661937,2.58642603966501,1.55464152036833,1.2168736382752,3.22162120808425,3.72052189085656
"18",1,5086,938.503880509576,0.930984493732858,0.882812074905263,0.528555953574426,0.961449155492745,0.893769454624575,0.748712242939629,0.673277345212653,0.0663714870529507,0.820989211387871,0.874785317627905,2.55023214326606,1.87941783949928,0.622637424078519,3.49639786782384,1.99267856393373,1.12945802239264,0.910584830630301,0.0665181608081259,1.43795124381166,1.80550246338584,0.961909972986915,-2.66124934484738,-2.95236541530516,-0.168642912271223,-4.14019666032878,-3.8878379537618,-0.322765365594745,-9.20660288246106,-3.70201545083737,-6.43637128285279,-3.27264491695545,7.50368398454741,4.53221141542812,1.38767736186313,13.2247980501231,4.970767859161,2.2756754243471,1.82916473377401,1.0044246657173,3.06770377957951,4.25983914529235
"19",1,5091,944.768529300829,0.942928566625485,0.90118464841853,0.560240625877383,0.952787922194606,0.894031517993765,0.781868446007441,0.619912836563254,0.200343454322647,0.827342632939936,0.854974813814734,2.83165921896101,2.07916724853914,0.676349626612117,3.13792201430031,1.99558794684986,1.25411286016437,0.790029311481866,0.204489326741434,1.47293253023432,1.64839996565574,0.962812701349461,-2.39526506349698,-4.32139856415186,0.403321726129352,-3.80743255490504,-4.31324390357646,-0.568207414905574,-7.23364432482029,-6.80523588585486,-6.70469926188505,-3.25506414625909,9.01829393232688,5.32293644739783,1.45744881741835,10.8465545678305,4.98237125361243,2.57279906602965,1.62414631300051,1.04181588475116,3.16953023862247,3.71722244677383
"20",1,5096,925.89808794198,0.933225606639626,0.898812696846251,0.439630249712186,0.954069904459542,0.860665480204021,0.795409048552897,0.647934156116167,0.368079533738627,0.869651245157008,0.870812737193386,2.59740936316455,2.0505252644727,0.489468495659923,3.18464827474688,1.69032755682463,1.31239815561269,0.850646266408266,0.395872001172345,1.76161653520848,1.77133117188477,0.962873122153934,-2.60780337290536,-3.2664994956256,0.128984554161696,-4.43943756758061,-3.81226058542819,-0.777545114150666,-5.33889458678768,-5.74231554518475,-5.65262150272696,-4.1306527081797,7.74653539985485,5.20465386024083,1.23957940824359,11.1419846338483,3.85720724936073,2.72238891885558,1.72359907055432,1.1567146413122,4.10329281711993,4.13761412049067
"21",1,5101,916.952810587172,0.944343525033027,0.874094892000934,0.675516212705811,0.954291422560196,0.803366976679191,0.744643823017209,0.612517543810304,0.234016658763971,0.824287563200084,0.874612869754957,2.87068578985539,1.79945553213792,0.916146566539222,3.19291608498221,1.34909859787177,1.1156347128664,0.774890410067654,0.2407002829043,1.45589765916581,1.80398775409883,0.960135887508602,-2.42590665765006,-3.84853477370731,0.167153925664647,-3.83830768128026,-3.11495260513195,-0.356297837407386,-5.46636929353068,-5.38004777825127,-4.98674063293699,-2.97076117486668,9.24083690407769,4.23804021214175,1.83932453138161,11.1947131257381,2.82006702677959,2.24464081255249,1.60045514761482,1.05793662619021,3.1196379939645,4.25437181693855
"22",1,5106,903.835664760473,0.951352440844795,0.8869777635672,0.63755519930619,0.933137732663784,0.850440009590845,0.720911248955318,0.598740319140204,0.307850473529561,0.699256761101802,0.880588885935782,3.08775654790897,1.92064629450707,0.827558836982089,2.59551654908703,1.61658470084806,1.04023484998449,0.747544032488704,0.323564462108044,0.978158503233039,1.85824893335949,0.957424058253688,-3.3333729331508,-3.86803831398833,0.169786456566132,-3.71209329303968,-3.95086737683141,-0.677251446226968,-4.63421288674192,-4.10140205460731,-7.74008626591625,-3.64481910176369,10.5342404991547,4.68888218860375,1.68485362866715,7.73670615658465,3.61334609501602,2.08208854312225,1.55882208050947,1.10469396113927,1.9567940574471,4.45308909833168
"23",1,5111,950.753215511769,0.949264261064074,0.861493912834351,0.729229726319309,0.941549136369599,0.848938732345142,0.707631023254144,0.710613014488986,0.089675655435905,0.658413994629232,0.871956488801502,3.01852498712097,1.69662933867607,1.06570628154962,2.79494541209065,1.60634389066552,1.00148443191125,1.009991626556,0.0900384182349679,0.874787445287322,1.7810173553828,0.957116098740857,-3.74463273464885,-2.89484683405532,-0.0871752170622652,-4.29661662915171,-3.354530482186,-0.36314951484092,-8.2770800102907,-4.0236337879402,-3.35437155575895,-3.91712415187561,10.1114930978736,3.87855111285639,2.13572987853431,8.81171985656655,3.58034069507843,2.0029710673606,2.02008308571324,1.00810691675826,1.76525307443232,4.17202282017473
"24",1,5116,909.903527041982,0.959417891720145,0.86609144234194,0.656365048802639,0.945481092229608,0.901668384417134,0.795424609868308,0.643871363965605,0.252273524145162,0.60967613583565,0.874687764585232,3.40233424039658,1.7325792973898,0.869998999668262,2.903125214464,2.08512867880986,1.31246805824179,0.841514777991137,0.26070580138448,0.769161240158931,1.80464524023504,0.962322942204258,-4.34741753281729,-3.33147751707804,-0.250325667598924,-4.77530650012003,-4.53670703071057,0.0608543881265675,-5.22737780084177,-5.07086277174327,-3.63746427778699,-3.51187492072736,12.575878283375,4.00183102174372,1.75689825942378,9.42813601085663,5.34776160719534,2.72257240390496,1.70814712157747,1.06796751487552,1.59160901336283,4.25674444310297
"25",1,5121,851.552678070079,0.94241179102583,0.887838115805114,0.657171938394463,0.935663747047955,0.901932265454531,0.798092184088975,0.786648114206223,0.31723709649911,0.564381857899138,0.785870902248601,2.81775528065828,1.92942882506367,0.871880658794389,2.65141044604833,2.08839829060707,1.32455658350644,1.27412709198497,0.334516105171208,0.683673395787256,1.27083256386893,0.958755773638568,-3.21194087204888,-3.29698068412187,-0.214338769854081,-4.92906782370876,-4.6200690014441,-0.586771798341752,-7.48274065626932,-6.83170772256865,-3.95836769516998,-3.83880576053421,8.93974482167763,4.72269559098658,1.76017588317974,8.02997735341421,5.36140742021055,2.75445014291025,2.62339984653008,1.11190102461891,1.46740931210728,2.61501540538968
"26",1,5126,898.990267421774,0.930238560115636,0.876546821086674,0.743851142206067,0.944749517708073,0.910081654719772,0.768980269772799,0.835557589149314,0.359927924548292,0.234146072699251,0.824646927664811,2.53501846051514,1.82114396050553,1.11297425207286,2.88215150149252,2.19598940373957,1.20289900667187,1.5208467820063,0.385783062224012,0.240841111678562,1.45788052817895,0.959315233437721,-3.36282090376719,-3.25707928901905,-0.30306134247406,-4.30160878597739,-5.11171327975552,-0.2178173491421,-7.43333653676714,-4.04863492608478,-3.74097310412257,-3.2776599048521,7.42631859515255,4.31656532488576,2.23871168577715,9.30679727755559,5.82236946133645,2.44696602025218,3.31297493433892,1.14882857109894,1.05800444107457,3.12541563444332
"27",1,5131,849.806431913747,0.931259998532627,0.882221686397316,0.762924628273567,0.923322458169582,0.899565931431371,0.623265748002163,0.848774142150584,0.445270676400776,0.233572743831167,0.790152701321891,2.5559114731511,1.87374150519981,1.18010742313611,2.40432546904292,2.05951654544119,0.797004722145338,1.60522968653439,0.497289097390612,0.240217315644189,1.28918219434349,0.954612142492615,-2.92288904668737,-3.58389301184522,-0.346796973699164,-4.1160149200317,-5.73705697254529,-0.523922925850816,-4.84208848586294,-5.02140051815568,-3.22357728352143,-4.0122693333251,7.53268345858545,4.51090722830846,2.39265353014095,6.78078096108847,5.241608400946,1.63521652712197,3.5767623465313,1.24729644638357,1.0577043587353,2.66199073021229
"28",1,5136,844.414409926599,0.923555339870844,0.900605338595675,0.666300601600478,0.912537909854007,0.895383211784038,0.635978965730096,0.853705683545524,0.315223221230732,0.0188611425067082,0.827122765168995,2.40844650227285,2.07208236867198,0.893543742887929,2.23118696197514,2.01075770244652,0.824120381126552,1.63935894593367,0.332157418350866,0.0188644982589217,1.47169293881498,0.950804707931186,-3.70458815178629,-4.47998475580644,0.0283106680562582,-4.09138522843783,-4.78674952000493,-0.964604580778766,-6.3642446424976,-4.08981082459649,-9.69604460795043,-3.66623083745955,6.80061455431034,5.29352534256128,1.79842042045417,5.97819525928785,5.04314653794802,1.67917440258817,3.68749775361276,1.11032855056551,1.00035586929456,3.16588010615788
"29",1,5141,857.142922103393,0.941034119692442,0.904985844304012,0.66507703849634,0.912532580919963,0.896807563896731,0.679585882899466,0.821560492671672,0.286032578112471,0.0967596047314452,0.855787069273698,2.78155974247106,2.12716781295056,0.890599253845625,2.23110907289926,2.02704641669879,0.926376265632361,1.44102740352398,0.298504111696183,0.0972157623800997,1.65424391793367,0.954446328840863,-2.4962331678103,-3.46178023498793,0.260839863617477,-3.42109315293718,-3.8007287348223,-0.816005824669604,-7.03537282292075,-8.48617266183449,-7.78542718597245,-3.99695195156511,8.73707460093568,5.52484290445289,1.79316703095038,5.97784769517339,5.1089171754514,1.85817298552696,3.07655997770707,1.08910470469953,1.00945090445514,3.73652294002055
"30",1,5146,867.913593855982,0.931330922459241,0.91474594890646,0.632302709445346,0.899796986108059,0.927231430539367,0.679995324639432,0.715414635443746,0.01298674952587,0.113865623690001,0.830470023816359,2.55737884982799,2.26405724095647,0.816167838499163,2.06229384108601,2.47599230714621,0.927414172473983,1.0239222585008,0.0129878448088436,0.114611035538513,1.49080005439895,0.949734148643641,-2.83954205007674,-3.48480906622256,0.380931857301817,-3.97910401079677,-4.93186340472929,-0.333824686478118,-6.23126043792114,-6.58871777758046,-7.15659075695378,-3.15962792343844,7.54018658154756,6.12595519032744,1.6661299406004,5.25305588698129,7.13053790504721,1.8600970473056,2.04841679145337,1.00016868411278,1.01313568946721,3.22248480219591
"31",1,5151,864.266010072547,0.940881759060854,0.911067262028494,0.771434478414164,0.923975545828119,0.909546192327136,0.712797860198171,0.77814109404953,0.114400515927721,0.0198433403214703,0.856909082707538,2.7776323278365,2.20994580326605,1.21235871608356,2.41592833803692,2.18849847935687,1.01629431400222,1.23890158417294,0.115156552150429,0.0198472482141198,1.66239181526343,0.956659132915052,-1.93112249736573,-3.1521660237992,0.22077214188636,-3.75790185096159,-4.8611447890866,-0.646381501047612,-4.6720814752569,-5.43727926200478,-4.76793441408896,-2.79924547697322,8.7152413486424,5.88386045337323,2.46981365646378,6.83670973452986,5.78952559414733,2.03285413267324,2.53487713526622,1.01326103150317,1.00039391326167,3.76354654745484
"32",1,5156,871.325415120079,0.949354857165762,0.905375003062685,0.731600520398983,0.92500905360814,0.869508703526776,0.715360382748459,0.809695035369216,0.113368733122631,0.0805732932401399,0.874376511941039,3.02144173841427,2.13223628091514,1.07314725041809,2.43458632361559,1.76043265079504,1.0237632219231,1.37972876861118,0.114104365890814,0.080836116782637,1.80191641731269,0.956464463271355,-2.05008843693712,-3.73967844223784,0.269408700538816,-3.47542978410575,-3.78849730062915,-0.242420691108792,-7.55543666388085,-5.19216352109904,-4.13832171946635,-3.66611357582594,10.1291101786318,5.54643155765081,2.15164502107992,6.92721056713609,4.09912311798526,2.04809113456237,2.90365147493332,1.01301980631534,1.0065344777765,4.24690277498101
"33",1,5161,931.925736906348,0.923377140251184,0.906765608353308,0.784243333594561,0.906375907170534,0.879089620313534,0.657052323395896,0.841396477434322,0.328389642906494,0.0508616545419539,0.848683468320129,2.40529149258784,2.15059342728883,1.26398430884855,2.14540985443722,1.84428321175172,0.871601385363673,1.55693549971942,0.34767064120843,0.0509275696648639,1.60461657735681,0.953010836201402,-2.40765120002682,-3.51026937803673,0.257140337045705,-3.91123207777245,-4.48519091892959,-0.446145495870348,-11.2629046313928,-3.59131380051526,-4.7175924568871,-4.05632679736972,6.78542716431545,5.62505208949794,2.59765633301535,5.60278344351631,4.40138056514926,1.75968897496788,3.42404815028657,1.12087487475828,1.00259361735197,3.57479436032828
"34",1,5166,876.811888419647,0.908612849719929,0.916494974690046,0.665311702274362,0.906440088458804,0.881588071912517,0.613495508098645,0.878062704359236,0.196724264903657,0.283544445695199,0.842477215543408,2.17559165946842,2.29097283485,0.891162968800328,2.14626143663925,1.86769391330647,0.776873368821513,1.83485693349655,0.200645100181202,0.295679395453675,1.56381513267103,0.951742429735178,-2.11543032908936,-3.23927167449425,0.315360193849724,-3.74471119686639,-3.93832961063027,0.112252909510272,-14.0700656888884,-3.04469517682737,-4.42697104476707,-3.73429917180014,5.73319906874855,6.24855653002063,1.79417143696101,5.60643815440476,4.48828055380205,1.60353223118409,4.36669996640037,1.04025845622672,1.08742630489585,3.44551776917092
"35",1,5171,870.719676711224,0.929678265144762,0.930353095998046,0.752200925828553,0.896812158732004,0.901692288175172,0.712384911677169,0.862160519631295,0.566626557326621,0.516476796830529,0.860650644291162,2.5237447991086,2.53733915395745,1.14154246352974,2.02709947788493,2.08542434341534,1.01509849423742,1.70173824997013,0.687674683880064,0.603148525616926,1.69021517614551,0.96246485510647,-2.03049153365575,-3.73255054560991,0.278292455786316,-2.38955190091275,-4.65436319064605,0.119831843000792,-7.17187374188714,-3.18252576162919,-3.22665581287376,-3.17854813280511,7.3692878110277,7.43808998220549,2.30311919604155,5.10913229324135,5.34899469210931,2.03042495300307,3.8959130714114,1.47289647084955,1.36378814395387,3.85682734167259
"36",1,5176,937.831389857657,0.922577394295062,0.928202769388342,0.732664204186071,0.895924160571983,0.916627181747413,0.514455529444735,0.829355567315764,0.0772440330366027,0.389698801058317,0.884082405582555,2.39126111306285,2.49466746048727,1.07651284229863,2.01690669113114,2.29304020280057,0.599936203523809,1.48438186276963,0.0774755131153814,0.423152213173656,1.89176907063181,0.956050919202566,-1.78203609463247,-3.84495617826555,-0.0366887364962113,-3.30417752424983,-4.89242658991897,-0.288025105643651,-10.5531178034095,-3.15011113990536,-5.04378148617337,-4.02056464550519,6.71812971084658,7.22336573841401,2.15887989963387,5.06791260072958,6.25803337165966,1.35992344829856,3.20338951451943,1.00600245513249,1.17905779551376,4.57879021659915
"37",1,5181,910.77125964283,0.896246774397041,0.915596837470106,0.768308575827973,0.881956002446809,0.898189084622825,0.466322648576176,0.804051195480982,0.294718480440352,0.415486490218633,0.832926686431709,2.02059546719185,2.2770515799988,1.20033280270581,1.87120010467111,2.04315288859497,0.527147743109405,1.35234644586858,0.308417096056753,0.456779669519836,1.50515313189132,0.948435705089677,-1.90111232393059,-4.31830300434788,0.337909932242926,-3.48247272392892,-5.52079964449512,-0.0478991375335039,-6.67664642634355,-4.2157789918412,-7.89739962575997,-3.42685858360275,5.08280604203625,6.18496389797505,2.44079883725158,4.50138983172116,5.17447372617399,1.27788474306534,2.82884090965338,1.09512110514008,1.20864766648665,3.26548595044225
"38",1,5186,901.25442965751,0.91324874998438,0.902111892706973,0.750075552679949,0.916109906385167,0.927634922419571,0.458389645277135,0.69423694837271,0.148484431715823,0.359901891645862,0.876244031146287,2.24163808529721,2.09063112637893,1.13415455528461,2.28497804634315,2.48370596978555,0.515768165864282,0.964557555683227,0.150148870179651,0.385751007029229,1.81843312317157,0.951913443314491,-1.5712504221627,-3.60316324715939,-0.136826993052835,-3.09595677795388,-5.52722852445291,-0.489900256625761,-6.2967920138366,-5.26544876044644,-9.08849436465655,-3.16502564307438,6.02494130545495,5.37073850658444,2.28630655527284,6.22112467227014,7.1687953443484,1.266016800919,1.9303712782256,1.02254468321623,1.14880383942406,4.30669902344751
"39",1,5191,908.413138743269,0.907256100251307,0.910774647939271,0.702158188883057,0.920179538024056,0.919752256962839,0.193382658480012,0.635570628237598,0.0806164798727483,0.31937448232012,0.860113819188094,2.15716176518095,2.20577933082864,0.986148171672873,2.3504149154763,2.34332138247836,0.197103296418451,0.823232450441902,0.0808797276383038,0.337024955238967,1.68615990943392,0.945467188548261,-1.53363923491985,-2.66014581187594,-0.231023676356613,-3.83803202982329,-5.65976800251686,-0.157185083654148,-4.55470530477372,-5.3629888376955,-3.32504476130716,-3.19743158201581,5.65334688115859,5.86546245631084,1.97248821649375,6.52445027489347,6.49115510158032,1.03884970945902,1.67771166746058,1.00654153034285,1.11358582045383,3.84313524018222
"40",1,5196,951.904745333094,0.923897642831734,0.890201677688299,0.757885359052762,0.91339983027403,0.926680732819743,0.529967491689816,0.26206323689991,0.224583929375188,0.366856177998952,0.8683549371829,2.41453676999192,1.95405365323815,1.16170997010191,2.24387515242322,2.46556353575688,0.624948429978961,0.271553853092106,0.230471378490336,0.394351266874955,1.75091594554314,0.948071802782672,-1.59489635501551,-3.39618907388061,0.0916804969189982,-3.4616787975391,-5.04215358478987,-0.553138452036257,-10.593825931595,-5.94177817289128,-4.806942741605,-2.69856210300685,6.82998781364301,4.81832567973335,2.34957005463419,6.03497569966234,7.07900354885397,1.39056054013317,1.07374149512917,1.05311705630324,1.15551292168588,4.06570664835723
"41",1,5201,931.688741102517,0.941530498675534,0.88778182918098,0.827676251501182,0.904812909798669,0.934579479980142,0.463231493329315,0.475674327295736,0.570802837081398,0.55270697374686,0.83439788747345,2.79445801550451,1.92885134576245,1.47481753736909,2.12492497051161,2.62703559202904,0.522694637190321,0.540771618622643,0.695179350276768,0.663214677486909,1.51388710156223,0.956819884511843,-1.80549235227981,-3.15800429632057,0.0923235323051883,-3.15546358677647,-6.00191772202761,-0.327821867937443,-6.74894509788357,-7.03638147072241,-6.78064608234724,-2.62622465239111,8.80899560041742,4.72046751404962,3.17508676853141,5.51530613030377,7.90131600178738,1.27320968374752,1.29243394350775,1.48327432905123,1.43985370843406,3.2918541562765
"42",1,5206,921.511298018075,0.947571063690853,0.879074358833575,0.751064673126461,0.909201538008308,0.940147780282256,0.560264973626232,0.671960668389316,0.675928992694412,0.420156422319417,0.779202525399184,2.96537491915183,1.84414230183194,1.13758269162701,2.18371032651325,2.75891670371661,0.676392467822558,0.907335421932403,0.917177048785416,0.463006928211993,1.24319887186887,0.95796809498972,-2.089738576854,-3.1378443706579,-0.0519741219034492,-3.81923746844398,-7.00040341188819,-0.346889595110525,-5.46579240980378,-5.77106600529274,-5.05821491040865,-1.56358583260357,9.79344841113472,4.40086082940601,2.29409438028935,5.76859079012058,8.61162137804653,1.45750677052709,1.82325756789325,1.84121373881873,1.21437541557231,2.54554343501604
"43",1,5211,894.580325437132,0.936938134346497,0.861088085455522,0.800282394022564,0.906850538516285,0.93158436756952,0.486463562357469,0.782083383299043,0.640503681093148,0.532630825142993,0.827759256040062,2.68083221228755,1.69353574341185,1.33464194515521,2.15172722115342,2.56264045783829,0.556785029667877,1.25500042967441,0.834037929686048,0.629328625230014,1.47528729881589,0.958375776010949,-2.27170571185703,-2.67425712274648,-0.586741191108857,-3.76278685587656,-5.17259457673936,-0.0496502541046276,-6.7778704453108,-4.45951811691021,-4.58415096958372,-2.93197900309219,8.18686135043854,3.86806331421352,2.78126912176767,5.62993003425263,7.56712611614963,1.31000956926226,2.57502607848296,1.69561926815499,1.3960545185339,3.17647261404748
"44",1,5216,955.929993670936,0.95168631862687,0.833640542376317,0.801083804506497,0.916762415028673,0.928577958288983,0.0856992998896729,0.7196649270339,0.48503671839691,0.400755154861394,0.735960042612851,3.09922960329917,1.50937786992529,1.33836915516155,2.29515976482381,2.50197888725935,0.0860157477265621,1.03650094607149,0.554648559137663,0.437417192949225,1.08705006560962,0.951096389956184,-2.72920145127721,-2.76375854108058,-0.543812633794863,-3.86395246844659,-5.02882412485396,-0.238117539895338,-6.00549817432511,-4.10715867371981,-4.47141468469453,-2.58581917898446,10.6052241339659,3.2782215542202,2.79123199548784,6.26775834606608,7.25989835229152,1.00739870885696,2.0743342112071,1.30763502415349,1.19133380068758,2.18167784514189
"45",1,5221,924.087885651409,0.949656881428487,0.84587638739732,0.750868067177365,0.928383175112086,0.938518704240315,0.369285133336485,0.690501463773251,0.609968432673168,0.497256478101771,0.751798140038561,3.03122077377251,1.58588249203807,1.13689989245564,2.49817617968818,2.71854438783881,0.397372989625741,0.954613404395499,0.769748409743045,0.573137873081489,1.14013610981225,0.956371831839875,-2.63054745195127,-3.08194031222232,-0.138912487767798,-4.73115825774724,-5.83478211127249,-0.0379240088613534,-6.58270630000773,-5.36743116425321,-5.33472684872757,-2.08286736995388,10.18829937935,3.51502327855288,2.29254136546565,7.24088422476142,8.39048358864989,1.1579052928841,1.91128675185156,1.59251261430195,1.32848702156037,2.2999103488978
"46",1,5226,907.246898682336,0.949851490264678,0.804209941348253,0.732175719283832,0.879609070298297,0.953794376775298,0.299985629426377,0.782454872088737,0.510983213143475,0.49089958833244,0.70026670744495,3.03756741456881,1.35310214778756,1.07496512727281,1.84909425326318,3.17444578097761,0.314468896788692,1.25653718928911,0.594449449664486,0.563464742653442,0.980928745772024,0.9527437622358,-2.5207005767024,-2.01531961254429,-0.528429718665049,-4.13423045263425,-5.49332998748168,-0.517876611991204,-5.25307356909831,-2.93310960161534,-4.83644361786892,-2.56192938051141,10.2268157980503,2.8308854223473,2.15555002485265,4.41914955745092,11.0771060163666,1.0988906870475,2.57888570806657,1.35337014820641,1.31749251621351,1.96222120428188
"47",1,5231,944.779164757394,0.949521832449855,0.811720203767661,0.725292547007902,0.879517301510189,0.958781853496894,0.4489790096818,0.789295373125406,0.079880553951197,0.274723408226298,0.729458473514567,3.02683754940334,1.38982120049281,1.05352930506907,1.84824219214082,3.37429105345567,0.502470904534023,1.28546868483526,0.0801366351560854,0.285716850892961,1.06642062562196,0.950876790431081,-2.34714488696619,-2.60652014908431,-0.00812511831980001,-4.56929695313673,-6.58560528229552,-0.604088968346854,-8.16241111839032,-4.02270473940694,-6.92740148647366,-2.15021164105255,10.161745550478,2.93160296933928,2.10992399663933,4.4159992008095,12.385840113431,1.25247700990324,2.65242973969209,1.00642188029414,1.08163411888419,2.13725295075193
"48",1,5236,952.723680343211,0.93563101681737,0.840635452539855,0.706584789059525,0.873509953397882,0.953435052818401,0.376335789193637,0.814343623681693,0.33348715975547,0.0378473675134739,0.772977170422252,2.65066595344902,1.55212950085175,0.998525215753688,1.7943686765353,3.16127348719007,0.406198119444783,1.40311411655855,0.353736958733781,0.037874503393672,1.21837317760482,0.948537123397356,-1.84350873545791,-2.56581492320105,0.0259322713908972,-3.48940898378734,-6.3884051624874,-0.510003254400453,-6.56434597458519,-4.54321881573241,-3.59641296481645,-2.08940721311974,8.02602999677379,3.4091059874143,1.99705260649595,4.21975894733105,10.9936500608109,1.16499691224048,2.96872922408587,1.12512983597422,1.00143447800732,2.48443319990686
"49",1,5241,966.973252476119,0.918689847628079,0.807501017878829,0.756982000041932,0.867584721029078,0.962948837289696,0.186867067700736,0.746852148976456,0.126953329170251,0.220105718381091,0.806475282635698,2.32591661367474,1.368956299093,1.15846435499504,1.74462740038815,3.57065427746503,0.190217712944525,1.12310261441065,0.127988927067652,0.225639291015276,1.36397631386841,0.945719421843448,-2.37617288806306,-1.92237498083638,0.687651642422087,-4.21606806455261,-6.9553387786795,-0.348218949975373,-4.79483421681277,-4.58117504688614,-6.33009695427695,-2.51152546705755,6.40988809376818,2.8740413488264,2.34203966179407,4.04372476618513,13.7495719691793,1.03618277831785,2.26135948249603,1.01638116545193,1.05091308964988,2.86043138479406
"50",1,5246,967.771669997563,0.911651506107351,0.859245445356742,0.755766642987365,0.885685015647545,0.959538807174653,0.406025937754889,0.640865201473262,0.0809313879514899,0.366010383911324,0.855857178582459,2.21832368899636,1.6796455632708,1.15412230204339,1.90762559823883,3.40773855979015,0.444296990573761,0.834836625144405,0.0811977429411822,0.393301256611916,1.65475046901049,0.949943369570076,-2.3445030797686,-2.60549850058581,0.275873971061967,-3.7184258604773,-6.89794496892466,-0.157997313080576,-7.51604171668124,-4.75441681878471,-5.17416035591016,-2.54801450564915,5.92095998916244,3.82120921821529,2.33199828807394,4.63903542305604,12.6126820918806,1.1973998158329,1.6969521906825,1.00659307345874,1.15468587845251,3.73819911469045
"51",1,5251,935.255498443332,0.920487286756636,0.778194822860526,0.743551418356052,0.876696408012518,0.955443016380495,0.179005617722993,0.589420260115903,0.0861361497306756,0.117821510868024,0.855897299649517,2.35555793243659,1.23911846024993,1.11197103804506,1.82248663282057,3.23686298810356,0.181944373843744,0.729637135774336,0.0864574797436167,0.118647918691519,1.65504050357126,0.940189432525899,-2.32992418446109,-2.48541783924751,-0.00515927308857361,-3.23909642514138,-6.60873020483897,-0.0693088194099415,-4.81763925952924,-3.7392369781199,-3.19456213265115,-3.5740632015209,6.54865317306496,2.53541455853216,2.23647958945101,4.32145752680965,11.4772820037547,1.03310375517339,1.53237034990098,1.00747489580362,1.01407732860983,3.73915906846139
"52",1,5256,918.524692184364,0.89983090678626,0.728207650120257,0.722234057600956,0.861749668101052,0.951059972879967,0.0571124569132802,0.428059047715565,0.271736124140641,0.131790071897721,0.776630590377897,2.06270233634698,1.06252378621992,1.04422089714725,1.69858541617367,3.07780068185048,0.0572058310443294,0.473647229532818,0.282360855255527,0.132949705928877,1.23283250584407,0.925240254872249,-1.93467680803032,-1.9950343649915,0.0304019359918049,-3.33408046649601,-5.9774303324474,-0.216975262114715,-3.09320345806609,-5.57493952590843,-6.21152294973125,-2.59558890514757,5.2547409283713,2.12895679628311,2.09039728203901,3.88519241603787,10.4728570371993,1.00327250710547,1.22434169804411,1.07972765258063,1.01767562430657,2.51987598746576
"53",1,5261,914.069897663601,0.891283146938942,0.73070200322002,0.726814339097972,0.826873210667105,0.924493413272717,0.0410381698933954,0.563898414556088,0.208757637070575,0.0215135931110823,0.827842812097083,1.96557211341202,1.07031740644276,1.05820964010932,1.4702885683078,2.42523142821864,0.041072770438448,0.682814556628425,0.213460730487581,0.0215185734585408,1.47576049231024,0.915729089941768,-1.70559666391996,-2.52057410472256,-0.317370939115904,-2.8707390959784,-6.40137903853362,-0.168116981407333,-4.98870840035562,-4.90968950894627,-5.13260803205044,-3.77098813747538,4.863473733023,2.14557935053435,2.11980764242029,3.16174847409661,6.88174748041943,1.00168697247149,1.46623571874367,1.04556548346029,1.00046304900369,3.17786903066377
"54",1,5266,890.091532847953,0.872613753256932,0.860930520806713,0.829203491213538,0.803562235840502,0.952388443394448,0.132297519880856,0.699565333815562,0.616724938993681,0.203091132681535,0.776568022488334,1.78663845888008,1.69233801748457,1.48351047289306,1.35002391134016,3.12373952286792,0.133470720638922,0.979003685546313,0.78346240460077,0.207413666729246,1.2325822751947,0.942239488939719,-1.39206127703827,-2.67704423029519,0.0814717148377974,-3.4507034786555,-6.33945792581467,-0.351984698936849,-5.00812714643824,-4.01663818613426,-4.4658435777225,-3.75280506843593,4.19207698274937,3.86400796542361,3.2008033231834,2.82256456119018,10.7577486067271,1.01781443326787,1.95844821631326,1.61381333942282,1.04302042914607,2.51925906512414
"55",1,5271,918.844121788069,0.870680875109097,0.873079298672311,0.830461995126312,0.791281554203005,0.956372827741689,0.141081345828903,0.776551664109069,0.712309043864057,0.276959179323749,0.732892142645386,1.77022216164113,1.79064451716682,1.49075361174685,1.29410256770125,3.27357944517247,0.142506696813233,1.23251686752592,1.01487902861539,0.288234424262935,1.07723627028245,0.947056877852955,-1.51959036745536,-3.05616238985729,0.488851787610518,-6.00712130730743,-5.73741150244541,-0.327106608352842,-6.18530220678135,-3.76586196783411,-4.37374921528921,-3.16849028046517,4.13368650156539,4.2064077868596,3.22234633093629,2.67470145573098,11.7163223838557,1.02030815863662,2.51909782873591,2.02997944272333,1.08307908333019,2.16043798201204
"56",1,5276,876.366045208142,0.8810313021218,0.868877774161776,0.809966510028013,0.705245952784068,0.956444959950608,0.250737385554373,0.837334225548704,0.797742757506533,0.358082123681463,0.786470810801429,1.86241719756527,1.75521403163945,1.38107327262509,0.994757449813006,3.27647574244721,0.259011469425375,1.53163988783756,1.32296104115386,0.38351282268453,1.27337412567633,0.95172204386936,-1.45148037903548,-2.94137997649,-0.147402599971613,-3.31725454421079,-5.78394650153682,-0.165391880265468,-6.87250647015076,-6.94459235285573,-5.26876731541927,-2.96240790828122,4.46859781778689,4.08077629686401,2.90736338435938,1.98954238395848,11.735293290845,1.06708694129389,3.34592074601505,2.75022591641091,1.14708208516346,2.62148166394197
"57",1,5281,885.904858569977,0.867910032590445,0.890022125153234,0.765330180446677,0.745594879561284,0.939349874271576,0.276438353060199,0.865735986181547,0.811793945422852,0.494127755636235,0.777933884785905,1.7472772195165,1.95215679686901,1.18906952102833,1.11884071746063,2.73894584671165,0.287647500853334,1.72973894249511,1.39019144186497,0.568361899121821,1.23806583028546,0.951193289059755,-1.17889284638097,-3.59527750656207,0.0125547065255613,-3.76113061765002,-5.56814847550623,-0.275095638982936,-5.52954617707912,-6.72953614059637,-4.38538096693408,-3.87495228450449,4.05297768184131,4.81091615956188,2.41388632583853,2.25180455104783,8.50182435121901,1.08274108474717,3.99199680918412,2.93263224503461,1.32303524837336,2.53280700012043
"58",1,5286,849.346823422573,0.879728599579223,0.91071039987053,0.746623268713388,0.747686549456739,0.934346937839861,0.417301359377709,0.874446350486799,0.825111739301246,0.537908068299315,0.847081658484681,1.85020543520582,2.20486713106809,1.12232473719714,1.12594608349559,2.62188408834377,0.459194518491598,1.80252788379186,1.4604534114773,0.63808520946316,1.59386832785039,0.956783902925593,-1.54109414478353,-4.67120821680527,-0.194973575752155,-3.61441436322027,-4.76730927477347,-0.150977167673705,-5.71460527918101,-4.92111761450044,-3.8009333940221,-3.20945082967797,4.42326015246516,5.86143906566442,2.25961281572463,2.26775458293906,7.87427617271023,1.21085960581273,4.24910677184716,3.13292416709569,1.40715273453564,3.5404162465246
"59",1,5291,883.843781765536,0.919103637434314,0.934776516263188,0.83615783305198,0.805900402175755,0.916243504599885,0.472476753860085,0.852888952049957,0.808639363543951,0.403191726671345,0.911108784826382,2.33265640751678,2.63142134868926,1.52447538387335,1.36120068000177,2.28705343957015,0.536087179307088,1.63359783161529,1.3745248179049,0.440591066224616,2.21053862646382,0.963864871477581,-1.86974226975258,-3.89852448746742,-0.0420554979981007,-3.26848976636187,-4.30682312353608,-0.380916162981367,-5.22064767964625,-6.68285113933843,-3.91044978076073,-3.53581732962348,6.44128591552908,7.9243783143376,3.3240251960358,2.85286729123727,6.23061343544965,1.28738946381743,3.66864187545817,2.88931847503651,1.19412048763694,5.88648101908857
"60",1,5296,892.190548835166,0.916711776638064,0.932288219378489,0.76173901416922,0.753984457435866,0.908810349208497,0.549804897715319,0.862645656525968,0.764066471663462,0.40006961685431,0.916938209490575,2.29436551200656,2.57740179142138,1.17573364528166,1.14780536510108,2.17830705068895,0.658217927537363,1.70547799093836,1.18434665694833,0.436526211415929,2.29792245538256,0.960801777910231,-2.07123578301685,-4.97710537029658,-0.0210414933258771,-2.94688035315406,-3.78371409339566,-0.425559315895026,-6.26425717714994,-6.00957935226607,-4.02312938225292,-3.31789213115341,6.26411310268513,7.64299999442211,2.3823496046473,2.31745715615482,5.7450216070812,1.43325084013158,3.90865517757514,2.4026770038247,1.19055513325314,6.28044761095143
"61",1,5301,864.792606804736,0.915066963559386,0.938001602571777,0.829791959295284,0.824724265820009,0.880809236065809,0.581915438605578,0.873634920078277,0.747521346232651,0.532057689422093,0.905095536306189,2.26893768695656,2.70605290195091,1.48688824667071,1.45830797821453,1.86032226498107,0.715543732194035,1.79545266811946,1.12538214702591,0.628383838846098,2.12859346105567,0.963180322697476,-1.77017642352685,-4.1006524011251,0.0216277227248211,-3.25936134412401,-4.07080001081904,-0.393464293861875,-4.9683627555298,-6.12156394523014,-5.74547550381274,-4.23780518563983,6.14807822729178,8.32272230815695,3.21083665808751,3.12666215932414,4.46079892958431,1.51200283268217,4.22365028345728,2.26648497684465,1.39486624892296,5.53091012244898
"62",1,5306,899.502664753975,0.933737070249276,0.937808334878717,0.833644623963201,0.861753675619389,0.877255171361488,0.620882280736379,0.830960708877068,0.806799186891927,0.499637311089133,0.914960418053661,2.6084983881041,2.70142295616282,1.50940209659756,1.69861610660962,1.82752228032763,0.792038854379662,1.49364416054067,1.36554505439257,0.576792075475675,2.26731492821211,0.965941497603621,-2.05842891844004,-4.85332573675048,-0.000953044218345231,-3.29411495368472,-3.58534971203945,-0.222480630807572,-5.00329342941581,-9.53083990650205,-4.38802464716241,-4.20499868542175,7.8042638407417,8.29768598808349,3.2782946892131,3.88529667763361,4.3398376850939,1.62732554684705,3.23097287831724,2.86471329557601,1.33268909833154,6.1407169836935
"63",1,5311,878.270403116179,0.927742193710829,0.946743359682101,0.840039645416017,0.814893201165702,0.857547106941071,0.554183343137852,0.751841841447246,0.789612588019883,0.52073228073572,0.930798605010402,2.48576715877686,2.9402958701911,1.54838877288596,1.40593088791382,1.66706460687098,0.665769963321067,1.14028855405474,1.28684036339879,0.609956732487783,2.54641867658918,0.963713309164148,-2.07579872770209,-4.51721300220358,0.22988491065597,-3.39843461435098,-3.62653564079202,-0.343080027387854,-3.39258381943377,-5.29109684209424,-3.91566711551443,-4.41230667395855,7.17903836765356,9.64533980426286,3.39750779199928,2.97664166159014,3.77910440348191,1.44324964406053,2.30025798650825,2.65595812087233,1.37204721550717,7.48424807648218
"64",1,5316,881.01790476984,0.933918325150072,0.93590305182424,0.843492727482618,0.798655739533342,0.805833705597728,0.651386174131673,0.777609732830445,0.805387963496569,0.345205370829754,0.927506445067143,2.61245796895024,2.65687049031245,1.57033881910904,1.32713763804508,1.36087936867965,0.858503184893711,1.23676045309075,1.35873578886005,0.367816064630255,2.48124310972681,0.961628843371095,-1.9886222730906,-4.62752065907219,-0.0677298642869112,-3.48549916521672,-3.63126880726141,-0.196600741706898,-3.56106183169133,-4.17877211507134,-4.85483295957486,-3.96832133900282,7.82493663953161,8.05896080229314,3.46596400680077,2.76129431031589,2.85199265609794,1.73702771847265,2.52957641832924,2.84616294392915,1.13528865740009,7.15656736956679
"65",1,5321,894.11773600158,0.934964141299702,0.950563346326759,0.892620360686112,0.80554523729556,0.847262873203356,0.65851413668381,0.805358041737378,0.823342269752941,0.375540762079569,0.94551624530099,2.63561551072613,3.06109283905897,1.98004045918558,1.35949136974733,1.59507650104362,0.875022355986064,1.35859213010938,1.4507079437611,0.405198942820692,2.90414335148853,0.968812372281773,-1.49726211878247,-4.73140007920118,0.0276461907908986,-4.11564446137779,-2.70317675832791,-0.429412443532025,-7.62769620566696,-5.02997896027692,-4.54929470521915,-4.75634647496223,7.94646912038016,10.3702893693381,4.92056022001183,2.84821678441748,3.54426904418157,1.7656641234754,2.84577257599513,3.10455353809157,1.16418618326301,9.43404860599505
"66",1,5326,915.96108386912,0.891116860368697,0.92721964831281,0.893794119606568,0.846025796065275,0.818165589031701,0.617152914282253,0.833000541346624,0.693002870352251,0.532355224279659,0.937716650920358,1.96379052322189,2.47576799124271,1.99295195695072,1.5868677674141,1.42293956677497,0.784340367779449,1.50558907721185,0.961255922815324,0.628874159972197,2.69923386223922,0.96250356571925,-1.56948565548241,-4.51402267184418,-0.444741787894407,-2.67375438677931,-2.93392844186512,-0.391583311855234,-5.5964080656815,-7.10144857787532,-5.25558669280286,-4.29442580561546,4.85647321909609,7.12942714646194,4.9718575027137,3.5181493112578,3.02475701069375,1.6151898125284,3.26679846941963,1.92401294914754,1.39548270908074,8.28586344305887
"67",1,5331,883.389168769001,0.886668610911823,0.931193594661083,0.898506035707075,0.856202192721246,0.812296860734974,0.521766622063176,0.799984873923389,0.603407878594961,0.623164013492959,0.937441732208272,1.91751343833718,2.5545395977708,2.0468918635657,1.65724822749112,1.39272168496008,0.611620909532013,1.33326330873149,0.756688142612978,0.796792024020416,2.69269770801274,0.961296845492532,-1.84016766953303,-3.72152402015384,-0.546180322331282,-2.83990935556263,-2.78336169268288,-0.0476270431606395,-6.19138473227115,-6.56250626044121,-3.06174311274791,-3.83177376261191,4.67685778620369,7.52567255657898,5.18976630113148,3.74647168752247,2.93967369175805,1.37408013697677,2.77759105040965,1.57257694517108,1.63487752954255,8.25062094673709
"68",1,5336,885.828421289173,0.904963942335369,0.943010226314957,0.913348353561982,0.872705518400753,0.845416274741636,0.0630713291658001,0.908761021184349,0.537339834863482,0.604878002593418,0.937714530904663,2.12688343774815,2.83387306271709,2.24311230218135,1.78742648457098,1.58285650847487,0.0631971533253417,2.1776280605226,0.637137317888922,0.759593385823548,2.69918329898664,0.966213731878574,-1.88758560728593,-3.08571605278406,-0.267617077554075,-3.09606839457447,-3.00081038208419,-0.414098723432045,-8.78634334285554,-5.91335229588292,-4.09435944548712,-3.43605295160184,5.5236331577674,9.03083653559353,6.0315528001973,4.19489343774579,3.50543472642126,1.00399388018843,5.74206396997544,1.40594396184669,1.57698211178688,8.28559048152841
"69",1,5341,879.344859233934,0.917677042263659,0.935473740825975,0.898979685923161,0.858134121360957,0.856251535133934,0.299463640252884,0.900022561032264,0.481367907846034,0.372156291746702,0.942660337817816,2.30962594590427,2.64709614354953,2.05251037699428,1.67138948466516,1.65760612377515,0.313867749045752,2.06501406197342,0.54918159457635,0.400957001729421,2.82441970592126,0.96453587815404,-2.18748902242103,-3.28338622773776,-0.3251198092692,-3.30702109240686,-3.07800687222673,-0.0856321862677704,-7.73960492778203,-6.30457723802719,-7.4315109507108,-4.88503024487467,6.33437200999417,8.0071179931948,5.21279884766922,3.79354280944926,3.74765806157689,1.09851296389105,5.26428307614797,1.30160042382142,1.16076651723585,8.97734667519635
"70",1,5346,896.601866723244,0.917892951843395,0.930240113753835,0.891382232070156,0.864088975836304,0.856478510868432,0.208847868485222,0.815579452564867,0.215908077730117,0.231343103807195,0.921755613867648,2.31307457006594,2.53504990302805,1.9666355418514,1.716713422529,1.65925464371902,0.213557201637438,1.40946401640482,0.221123565801041,0.237793923600936,2.37705985925236,0.955479274904278,-2.51859929238088,-3.65640807636072,0.448071722649589,-2.89805458021145,-3.23431467273823,-0.0574615289358577,-5.57326229367707,-6.40483001600907,-4.56099178225671,-3.25576247505445,6.35031396668573,7.42647801084255,4.86765535447316,3.94710497509123,3.75312597270315,1.04560667837121,2.98658881354,1.04889563135257,1.05654595010153,6.65041357446886
"71",1,5351,902.347576375965,0.89509183149906,0.900081940084371,0.843314863242569,0.884315498256558,0.906230604344235,0.210170871555951,0.848921005315973,0.226832295119288,0.427196871967134,0.929055852022532,2.00746421099399,2.06573156780943,1.56919202314366,1.89405609087029,2.14348499296018,0.214972350181857,1.60622380604413,0.232903188670026,0.472480001460848,2.5113724958113,0.955872491699804,-2.24087502102552,-4.16104423826756,0.122636192779984,-3.26573786417506,-3.39751476498702,-0.0928806731359245,-6.39503808288906,-5.20705738996724,-6.39397386201946,-4.06628881599317,5.02991255842171,5.26724691024442,3.46236360549771,4.58744847536285,5.59452791504548,1.04621311134271,3.5799549151029,1.05424389529267,1.22323735178044,7.3069918127175
"72",1,5356,895.517124570386,0.892078566068835,0.853504548443569,0.830530182042098,0.835889664012882,0.871121935934721,0.127076014655776,0.782645269219619,0.242841502430605,0.124447038457212,0.908889032978665,1.97414781819546,1.6379360494448,1.49114814013901,1.5228520048625,1.77393786122136,0.128114642448355,1.25732615645893,0.250335036531298,0.125422037806818,2.17939120323416,0.938382166588019,-1.89047000080307,-3.84571803643689,0.133535398356995,-3.53328328333828,-3.10082575615293,0.0672328188848333,-5.97256387143616,-4.60750913844305,-6.66240762138666,-4.09846687811248,4.89725960808589,3.68283450207084,3.22352277584003,3.31907822871374,4.14685553547461,1.01641336160967,2.58086906371578,1.06266763051513,1.01573068756761,5.74974601673445
"73",1,5361,887.942011522165,0.865363208717379,0.799166163334235,0.792799441428849,0.858920453676681,0.870557602207461,0.146430891752209,0.839973695285553,0.119885345802324,0.170584516932306,0.91975762285119,1.72677140121354,1.3294836713529,1.30077451769913,1.67722186192042,1.7691868167927,0.148026483652248,1.54797588346237,0.120756270989423,0.17312195711797,2.34341012780285,0.936427286195614,-1.83502638238521,-3.75470830250868,0.318006648404769,-2.9086834293223,-2.98099504398877,0.173250191242463,-9.86251759260187,-4.47367918292545,-3.99147672777904,-4.12519567855086,3.98173947204898,2.767526832394,2.6920143458954,3.81307317410379,4.1300219927131,1.02191183986245,3.39622933578109,1.01458207698327,1.02997121203636,6.49157102708896
"74",1,5366,933.973007435159,0.873340323822626,0.801955275566673,0.808367713694415,0.843834152466934,0.841414108605111,0.186516150330725,0.812648516755671,0.142571392329921,0.130485499616505,0.909064946471198,1.79289966237813,1.34244501291349,1.37319194292542,1.5725452091989,1.55704721794755,0.189847616266199,1.39449634132901,0.144042859126762,0.1316107428017,2.18181989029416,0.931703855685459,-1.9480029359743,-3.69287182298024,0.229718878774243,-3.42247183185748,-3.42789476763094,-0.272120485794891,-5.23266944124727,-3.42895497841933,-4.18802929584807,-3.4420973542678,4.2144891993556,2.8021586126963,2.88565611211529,3.47289843497442,3.4243960389182,1.03604211740196,2.94462004597998,1.02074834526541,1.01732138762082,5.76033803368324
"75",1,5371,935.954105049614,0.860129625014217,0.825836080287491,0.757038331770234,0.880190593566224,0.848035818812562,0.122370905377191,0.752903082997986,0.346870102668037,0.195383939681009,0.905026543286701,1.68627900065244,1.46448141758858,1.15866628902423,1.85451489975422,1.60025202957385,0.123297555686801,1.14400114641506,0.369831782226099,0.199223610081209,2.12769649679994,0.932227150608752,-2.18631496482963,-3.44394082560421,0.506967310396967,-3.47801688388671,-3.57015645414964,-0.448066703175019,-3.72224233474214,-9.2176782858421,-10.3398633656779,-4.2398594172324,3.8435368680414,3.14470582246225,2.34250756932119,4.43922551341042,3.56080655815521,1.01520228723834,2.30873862299897,1.13677554714453,1.03969004681379,5.52709238249473
"76",1,5376,861.33756278595,0.906157828327494,0.776302587591355,0.730546774455593,0.919210305393043,0.875700900861068,0.183107404944928,0.752270265016326,0.276895267661535,0.406757315601439,0.917240951413116,2.14252250972192,1.23152173001034,1.0698297313439,2.33440184575996,1.81359375826682,0.186256458846647,1.14178486298384,0.288162386888105,0.44525580030893,2.3026999053189,0.943775588593346,-2.05009981793722,-2.43596563338331,0.254275091827593,-4.06634533097507,-4.26807707879735,-0.770655578356764,-10.0294190607747,-5.91227534286678,-4.39659904147523,-4.61932810213394,5.59040270466513,2.51664577148767,2.14453565406735,6.4494319774875,4.28912232002437,1.03469146846209,2.30367267333902,1.08303756121705,1.19825272770875,6.30242685395565
"77",1,5381,905.836864031565,0.920135408446144,0.774337976587068,0.726221880785955,0.901228239630474,0.834954424672932,0.343106588068327,0.648118242586503,0.0467226080323396,0.559281605869393,0.9345412017877,2.34967977029634,1.22372306655884,1.05638360763604,2.07970275179175,1.5172186990314,0.365280395436471,0.851062953657716,0.0467736894564701,0.67466420649255,2.62618579251046,0.942396766371778,-1.96907161978012,-2.51489506549839,0.175441833872701,-4.24024967570118,-3.74102783224183,-0.29047648413665,-6.40681710632231,-3.69366578511447,-4.02249857138928,-5.18745121811183,6.52099502293988,2.49749814362817,2.11594632648213,5.32516353581016,3.30195258069054,1.13342976729022,1.7243081510886,1.00218777802537,1.45517179152222,7.89685181678381
"78",1,5386,878.286578520817,0.918880796999613,0.809332516215685,0.762200364994737,0.881253176517108,0.894291775891925,0.31398457604164,0.698084918624189,0.27104372680311,0.399466254012898,0.910067059149898,2.32902065304433,1.37793736694393,1.17743222320852,1.86451581674576,1.99848738690472,0.330709172660268,0.974958543689998,0.281584260377392,0.435742753348216,2.19578437236722,0.943858587148838,-2.2176360276671,-2.73024622948149,-0.314886627846138,-3.22924495590393,-3.18151905492283,-0.430720310968404,-5.23745797494713,-3.42356679357258,-5.1679836888879,-4.12001278902548,6.42433720230703,2.89871138722038,2.38634664024975,4.4764192308951,4.99395183561726,1.10936855688164,1.95054416191412,1.07928969569228,1.18987174709548,5.82146900993211
"79",1,5391,912.451352693076,0.910024781051571,0.747633732256315,0.701159153165794,0.872833879111052,0.888888596938247,0.191983872075918,0.596003174558559,0.0193268153689247,0.560733130697413,0.920969401743594,2.19519073880387,1.12576573558143,0.983386304215057,1.78853010512781,1.94028196386415,0.195622832207796,0.742237207605292,0.0193304259124413,0.677216713459086,2.3636727210281,0.935379899125178,-1.79193864118903,-2.40366456820482,-0.323959600624553,-3.36369529843264,-4.93531059491178,-0.148880964840178,-5.24126470128616,-4.32977964350991,-5.11283561822216,-5.12185418402847,5.81886237973026,2.26734849140921,1.96704862331775,4.19883993694849,4.76469409929653,1.038268292481,1.5509160723537,1.00037366536596,1.45862247698833,6.58694873213239
"80",1,5396,919.89698283234,0.913583685714001,0.822767973985362,0.760232499498468,0.892722121822376,0.90161170633267,0.0915182861840469,0.477110043479714,0.117707164358587,0.40931830399925,0.910027195694046,2.24660507701832,1.44757336230752,1.17021660399581,1.98115192233897,2.08442803831565,0.0919039707641948,0.54288392624949,0.118531151556416,0.448621272735703,2.19522463245027,0.938255741823576,-2.1203860983673,-2.55530655747755,-0.150468545245597,-3.60877862191965,-3.95180683453677,-0.132799598724118,-2.9250552442216,-3.97292058570744,-5.30662906442069,-4.78520984820179,6.04723437208447,3.09546863926229,2.36940690026749,4.92496293938741,5.34484024691644,1.00844633984223,1.29472295738006,1.01404963388929,1.201261046351,5.81901118691642
"81",1,5401,887.756738992533,0.923296244922737,0.821072107996695,0.72089859484114,0.869790026258576,0.897642100888417,0.0145270095640099,0.233060796065722,0.197642088286244,0.457973546529931,0.875842753127597,2.40386273282252,1.43839679020754,1.04019683383144,1.76277092339383,2.03673899453637,0.0145285426531827,0.239660527768118,0.201619177811257,0.515175652175974,1.81485481957483,0.929333891351595,-1.7775396394608,-2.17449550665937,-0.265383887447403,-3.79794301019377,-4.18902980790557,-0.38321725815948,-3.79044084537015,-4.45583444992813,-3.93508984802599,-4.29788713802995,6.77855603825296,3.06898532607936,2.08200945311296,4.10736132836272,5.14830573186504,1.00021107855163,1.05743716857009,1.04065029286129,1.26540595259494,4.293698016134
"82",1,5406,874.928129856499,0.914793164559351,0.830272232384219,0.746847716261887,0.861373707314565,0.8969108911359,0.111936516565562,0.128762064407144,0.243388923258115,0.172144778511526,0.892799596887099,2.26477341590838,1.48965678346578,1.12308754073035,1.69571170964005,2.0282404506269,0.112644446384067,0.129842939768124,0.2509348408704,0.174753559066703,1.98199912707197,0.926793295773399,-2.18779952955398,-2.88746404273316,-0.182662286673183,-3.75612874010226,-4.81862750904461,0.0545911846207766,-2.75547078268114,-3.86878237553155,-8.03837949258738,-4.37089320098439,6.12919862540533,3.21907733252563,2.26132562414373,3.87543820221039,5.11375932555923,1.01268877130117,1.01685918900763,1.06296829436265,1.03053880640648,4.92832053971403
"83",1,5411,886.98793777884,0.910831904032904,0.865373319857408,0.757104258351893,0.817667919704309,0.907643981311927,0.0379310734672539,0.234238801852596,0.296519932314649,0.373826589542669,0.887065632690882,2.20659304975802,1.7268517412607,1.15890269488227,1.42032635047444,2.16239121011665,0.0379583899230541,0.240942028252372,0.310483406761062,0.403048137722267,1.9215389387911,0.930702694045352,-2.22765859229421,-3.38342989917932,0.176327426524882,-2.67669355373839,-3.71864815547282,-0.416918890643358,-3.77741004669221,-4.49240729864809,-10.604226277898,-4.04092351820848,5.86905288724038,3.98201693629512,2.34305545620539,3.01732694185203,5.67593574558975,1.00144083936555,1.05805306097837,1.09639994587395,1.16244780132139,4.69231189329041
"84",1,5416,893.499954539255,0.938613536257081,0.873393763689564,0.778509380800259,0.852369146718645,0.887048908194386,0.214837755782917,0.379630825898787,0.333308434030719,0.162377514304024,0.826348690523466,2.72085178471204,1.79336216153684,1.24038955731267,1.62995414542418,1.92136896263138,0.219974208025387,0.410350455774647,0.353523680098472,0.164561457486872,1.46734576562357,0.934265235789401,-2.68643799225647,-2.52547447766329,0.119111370984002,-2.66935930817427,-3.77021987537098,-0.233426592176837,-2.99917126828946,-2.72152500880964,-4.44399620961526,-3.4982438387194,8.40303443437067,4.21614784243208,2.53856625389032,3.65675051618546,4.69165869056319,1.0483886521964,1.16838749655446,1.12497899239037,1.0270804732902,3.15310359589343
"85",1,5421,931.10207969641,0.951696963380121,0.794170931346998,0.805411702175105,0.834994244788811,0.920641289654287,0.349367237073916,0.552894969522457,0.163794785315558,0.107895087499277,0.808127004553294,3.09959729630708,1.30685897339441,1.35884978276471,1.51745766182864,2.35814234696834,0.372862863419126,0.663539557602633,0.166037211839313,0.108528646744055,1.3720129969949,0.938225159072762,-2.86415330094961,-2.55867537020321,-0.142298700224463,-4.03508490648946,-3.84729525475591,-0.124535125976779,-2.47278946393998,-3.16494123211254,-3.67055674683191,-3.50284966081939,10.6075033992742,2.70788037634148,2.84647273211969,3.30267775544243,6.56083532856534,1.13902671491711,1.4402847445035,1.02756835571537,1.0117784671641,2.88241966392291
"86",1,5426,948.419746384144,0.949000973771731,0.823715470987398,0.782295813327035,0.816446875941508,0.918434522287204,0.27750414097187,0.474736850045207,0.16109484112388,0.482203253025459,0.849391287536494,3.01009143584382,1.45275233437727,1.25587877881674,1.41395533484614,2.32178241289461,0.288848840622444,0.539395365670918,0.163226757174457,0.550423029070348,1.60941613291397,0.94079527852961,-2.56346636955392,-2.34177396263158,0.0632399312582781,-3.00854719651806,-3.88216090218491,0.0710080750719827,-3.30439383599287,-3.43344753247542,-3.69854332381562,-3.23481645374783,10.0606504521403,3.11048934503861,2.57723150708222,2.99926968893987,6.39067357282673,1.08343365272893,1.29094736050726,1.02664297425769,1.30296551093098,3.59022028888377
"87",1,5431,934.066327523521,0.951841297587093,0.83409314735273,0.785390960780096,0.689806477351815,0.899217747938656,0.282666320045757,0.566870757177211,0.328236909759046,0.426979024433699,0.838662379893089,3.1045946438746,1.51206930315366,1.26880601145648,0.952779535478916,2.05534845362161,0.294684035282843,0.688111336969383,0.347489410249929,0.472185325567629,1.53981428350776,0.937389185360941,-3.36508100891889,-2.92720041391749,-0.0478814988822252,-3.24882560314479,-4.15052450623921,0.115714163556115,-3.04167571974181,-6.37665683309521,-3.67177606870373,-2.75185869993838,10.6385079027749,3.2863535775396,2.6098686947081,1.90778884322742,5.22445726580475,1.08683868065058,1.47349721206579,1.12074889023584,1.22295898168141,3.37102802769453
"88",1,5436,908.918118547616,0.936167543637901,0.816887663982331,0.828454568688065,0.74784347295707,0.886120719364219,0.468536227251002,0.567216139909979,0.138732628466343,0.434652613233313,0.825878830941403,2.66293971016015,1.41624861469886,1.47923451687472,1.12648219540318,1.91199076771751,0.530351755611713,0.688729371332609,0.140087290323552,0.482626565828957,1.46471986089392,0.934076591233347,-3.25578847467259,-2.85561894233236,0.894643113207149,-3.39269522831417,-4.40488251687407,0.0413579764417095,-3.40667475938072,-6.62226447267136,-3.9176825184388,-3.76139289272361,8.09124789994785,3.00576013863645,3.18813475591359,2.26896213656037,4.655708695837,1.28127298468043,1.47434814693621,1.0196244489102,1.23292840204385,3.1454042708971
"89",1,5441,873.973118846987,0.941760266482971,0.854385726021348,0.811337045809062,0.758739625923297,0.891054093998194,0.393413489423754,0.459287368289857,0.0325489662396471,0.653287976536,0.7950823539556,2.80048253597496,1.64418988332241,1.38790057716863,1.16479364717106,1.9631190454999,0.42792027861432,0.517047963579724,0.0325662217119815,0.862871173122994,1.31093224760254,0.936182271715866,-3.65471329989044,-2.75548944737967,0.516112052340931,-4.01488840519424,-3.81752778001886,-0.07064432238725,-2.24881449630407,-5.55841122013493,-4.12625059184123,-3.00834196617429,8.84270243430073,3.70336037241977,2.92626801210503,2.35674424049007,4.85383638680443,1.18311576484936,1.26733859664194,1.00106055879659,1.74454666140665,2.71854335780426
"90",1,5446,871.482084815581,0.936022097971374,0.851783459592306,0.847090511387326,0.699151627039833,0.878320343081779,0.22503250204963,0.0615242322957057,0.110914452154225,0.702921303658646,0.773956344664652,2.6595977050939,1.62586980713109,1.59392730509411,0.977870784970387,1.83721136108538,0.230956239152942,0.061641005631604,0.111603047708517,0.988265561995909,1.22221846305321,0.927482173984477,-3.53517119613219,-3.51626343422388,0.211621456030309,-3.00489843222284,-3.60170913214576,0.117804897350896,-2.53616291527751,-4.76597743040826,-6.29517868037761,-2.63552469092998,8.07345995294074,3.64345262974048,3.54060425392459,1.9562312720986,4.37534558530118,1.05334078440367,1.00379961357528,1.01245524025783,1.97666882102709,2.49381797142815
"91",1,5451,919.915592650607,0.923598413449147,0.788529925967985,0.889667147069335,0.781897356627326,0.88315073157144,0.50635259369618,0.106005898182562,0.251519449657102,0.74750853909176,0.788000453083729,2.40921070657184,1.28217001402536,1.94841952604108,1.25423217765077,1.88269206647127,0.587193567473691,0.10660657281199,0.259873809443216,1.12533844844644,1.27989749350813,0.936416546643626,-2.71452559201826,-2.80421842399497,-0.184262630462003,-2.49582655166033,-3.53862629355281,-0.045057484112352,-2.14832739867958,-2.66525994299352,-5.08459718627525,-2.79081492346077,6.80429622866038,2.64395994486578,4.79633864945814,2.57309835545458,4.54452941715386,1.34479628568248,1.01136496136672,1.06753439683453,2.26638662355184,2.63813759388839
"92",1,5456,881.833587716008,0.925678207343276,0.762522913244147,0.861526291908856,0.744839826968871,0.844566568262411,0.383432340253967,0.184988048564721,0.162349420593656,0.814394357085874,0.819447062009856,2.44686547726467,1.17862230669059,1.696876704215,1.11629418828644,1.57730072066465,0.415163732364133,0.188236871949038,0.1645322151041,1.40337367179589,1.42971314643529,0.931012693186409,-2.69528169509486,-2.66922959945822,0.593594437900277,-2.91748138769293,-3.13909263654196,-0.017110806648155,-3.01958702404331,-6.26962439105261,-6.54005740866949,-2.88339215922558,6.98715066382965,2.38915054182866,3.87939054930757,2.24611271480208,3.48787756340922,1.17236092467052,1.03543311996116,1.02707084980706,2.96945766268987,3.04407968108991
"93",1,5461,917.790669685333,0.904236016265498,0.775875189848562,0.852940022803174,0.760499791638309,0.829956083529915,0.664577111887882,0.355190422928776,0.348614053502069,0.754085714712582,0.833334096666109,2.11748484935344,1.22981752466202,1.6339567819459,1.17119217635795,1.48783314488594,0.889399894609019,0.379966532642331,0.371947683152255,1.14816268655873,1.50756124228058,0.934426087121088,-2.20449878032522,-3.25912160971018,-0.115355655991742,-2.89997577764051,-3.30728157899376,-0.0867921942232224,-2.46531227344735,-3.27795782335113,-4.89614442649791,-2.77211294328749,5.48374208724135,2.51245114396581,3.669814765267,2.37169111396207,3.21364746702118,1.79103217253053,1.14437456592824,1.13834507900233,2.31827755480577,3.27274089922658
"94",1,5466,907.299584397854,0.887407213163925,0.86191761526444,0.862093086267412,0.81342586192651,0.775285490572967,0.611607864120832,0.32554064093318,0.121014473669499,0.81484683846234,0.78629939951556,1.92501831096008,1.69987265161454,1.70121987837786,1.39843521483584,1.22747313845198,0.773051021054707,0.344295064900798,0.121910424737416,1.40569282851455,1.27264696644825,0.933725577229984,-2.2667846255194,-3.40388748780038,0.0431146550680833,-2.97056065682704,-2.67017704645001,-0.149934454804539,-2.52694151590265,-6.29760364283491,-7.59670556273358,-3.38851654468522,4.70569549753158,3.88956703170704,3.89414907458798,2.95562105009295,2.50669030562115,1.59760788115373,1.11853909171504,1.01486215165966,2.97597232813725,2.61963030120994
"95",1,5471,842.41108056681,0.902444991920062,0.82648407024374,0.847671166752524,0.827278492899417,0.841716651751873,0.629270390250674,0.0619555337424668,0.412589323035868,0.787432316108055,0.809948635584817,2.09478714655931,1.46810415256939,1.59780587023825,1.47257069402038,1.55896691059419,0.809677512197613,0.0620747849521601,0.452938364309699,1.27746735607784,1.38098466847222,0.936804780021562,-2.51517379344555,-3.00020365162343,0.206247652701977,-3.08957248401648,-3.50269255085039,0.0370546922878893,-2.58727636862273,-4.90986071387287,-4.9905172563263,-2.98014744703045,5.38813318939009,3.15532980279148,3.5529835989678,3.16846444888765,3.4303778283276,1.65557767375852,1.00385327892686,1.20515316186355,2.63192284584452,2.90711865455532
"96",1,5476,897.57125242395,0.87943613392732,0.842483920671829,0.848352037113195,0.861037577555605,0.884442554297371,0.417017157281522,0.00751938613921256,0.617471618681162,0.846594513726392,0.713427287215305,1.84748932075649,1.56385801728655,1.6023798366291,1.69315160290924,1.89530545222424,0.458815923863967,0.00751959872566466,0.784994899141633,1.59063023538101,1.01812114984907,0.939506887283979,-2.1790868849105,-2.85735247481571,0.25082459227426,-3.13988480566494,-3.79154946649578,-0.268768104565302,-2.63650739313399,-8.03816810936127,-7.23112422175164,-2.57824576334984,4.41321679030928,3.44565189823142,3.5676211408355,3.86676235043412,4.59218275723094,1.21051205199115,1.00005654436499,1.61621699167838,3.53010454570825,2.03657067577
"97",1,5481,904.550865809073,0.892105359668199,0.895469397212095,0.843131193977111,0.870057030270065,0.888255110481991,0.485573414640985,0.0920374608592729,0.428081165949067,0.775300532406234,0.746427506473719,1.97443824521143,2.01173435445488,1.56800967238027,1.7649967132455,1.93371980482022,0.555451493925431,0.0924297748607494,0.473677194372012,1.22753283797157,1.12166013020902,0.941823690571536,-1.582947345438,-3.60266494314377,-0.0633036548727259,-2.87331528369293,-3.54253362932832,-0.0262349335001875,-2.29363274467683,-4.13095342330836,-8.4093603771977,-2.51124890877113,4.8984063841536,5.04707511289401,3.45865433267808,4.11521339776741,4.73927228355394,1.30852636210399,1.00854326328081,1.22437008446814,2.50683686829853,2.25812144770051
"98",1,5486,881.964388999171,0.894578475868985,0.909004458902355,0.8311141578707,0.891893630960417,0.890982906414702,0.535121112652644,0.254247782803742,0.222380238942657,0.798201248447935,0.821036140360982,2.0016931348243,2.18098403363246,1.49453588876568,1.9721460067832,1.96235813874269,0.63344782916926,0.262886465084701,0.228091650631,1.32505534331985,1.4382034398087,0.947980026043483,-2.13139719565555,-3.66246205665845,0.242126512650252,-3.36730983082439,-2.87199857141903,0.0240180628885088,-3.4014654419237,-7.67918231555664,-5.60322537001577,-3.62027677366083,5.00677540600273,5.75669135495973,3.23363752280863,4.88935987207091,4.85084946468968,1.40125615227925,1.06910929352473,1.05202580108757,2.75577166286049,3.06842913427758
"99",1,5491,897.448439601135,0.893421400998599,0.917106499031062,0.770259069177289,0.880798929986819,0.892651376224921,0.631385615841394,0.489222883131835,0.0337075921991157,0.77747448758589,0.832463450410213,1.98883020463658,2.30057507490037,1.20781166119742,1.86022517239688,1.98037906149251,0.814198372745891,0.560933265489948,0.0337267578456851,1.23621655133799,1.50242475501726,0.947876998662082,-1.63170150007998,-4.37488022121376,-0.0853647217891242,-3.62394161834928,-3.11006840932576,0.157026822330999,-2.37867245290834,-5.60656874743284,-10.3279615011983,-3.27299746424108,4.95544558287479,6.29264567525286,2.45880900892446,4.46043769201901,4.92190122719797,1.66291899018206,1.31464612833322,1.00113749419478,2.528231361802,3.25728014448867
"100",1,5496,890.467614759806,0.887751229270257,0.931601937851931,0.78641830571227,0.885443142328755,0.907436030723461,0.715014945710162,0.456411898032339,0.028046691690902,0.713697541844519,0.781048444392138,1.9285375737874,2.56300626811136,1.27315130723785,1.90521245696457,2.15958371374257,1.02275149496063,0.512955720065583,0.0280577292040942,1.01890706976417,1.25073726038579,0.94915465874066,-2.22453718412948,-5.13369576408504,0.0935550674093935,-3.33134378004307,-4.22600397075822,-0.485427504268014,-3.42281813545009,-5.85446723819054,-8.27230683243678,-2.89306307020682,4.71925717350978,7.56900113037814,2.62091425112144,4.62983450617296,5.66380181666217,2.0460206204442,1.263123570748,1.00078723616809,2.03817161681542,2.56434369451736
"101",1,5501,964.986830025826,0.884773437223681,0.943849990678497,0.7745609424132,0.895705518391716,0.912067856842367,0.716678981746801,0.459126165933517,0.0892176732282562,0.761925775881396,0.857615560708341,1.8985681718703,2.85691083475113,1.22460366335666,2.01441593301508,2.22434255706585,1.02763935068661,0.516818005186972,0.0895748842579467,1.17642074055611,1.66756767318772,0.955751771312441,-2.01176554569352,-4.6902161041255,0.453045578636251,-4.1891317446812,-3.83001437959917,0.359309582635317,-2.72597104860765,-3.86270758989856,-4.32330028048222,-2.78816941620332,4.60456110323892,9.16193951771838,2.49965413230655,5.05787155118502,5.94769981117424,2.0560426350796,1.26710085048544,1.00802365988982,2.38396575881059,3.78078194466071
"102",1,5506,941.197177714225,0.870825042745145,0.949332515813913,0.670723948413175,0.908815680556798,0.876586232134118,0.671816925024344,0.453484925235921,0.315553751814447,0.806414442173579,0.859190110153444,1.77143474688773,3.02072174841222,0.904297627822887,2.17838046702215,1.82149748752413,0.906981632263305,0.508811028365433,0.332544198617601,1.36368204224204,1.67923234035305,0.954522730471636,-1.68567645328629,-4.60688769558378,0.0927156225850175,-4.03703823565391,-3.33841152976593,0.168751978080871,-3.21560564781363,-4.10962428714174,-5.57438017390534,-3.711827788923,4.13798106248119,10.1247598813306,1.8177541996861,5.74534145910363,4.31785309705673,1.82261568126301,1.25888866258629,1.11058564403422,2.85962871233343,3.8198212528876
"103",1,5511,920.447223749448,0.866701210220365,0.955814289609497,0.698923703194142,0.907114520636512,0.820956045841983,0.706973597920633,0.480216894392553,0.180850558485451,0.717675193239814,0.858274364666943,1.73747632367777,3.2513879416518,0.97724745635499,2.15526074616445,1.43777306630693,0.999623407224743,0.547474223938713,0.183882675799733,1.03058280794028,1.67242640926397,0.951410983439128,-1.74981854890292,-3.94571463891931,-0.117721155361293,-4.18801575416022,-3.47669879731625,-0.200250689058529,-2.80002543174149,-6.21451346798937,-5.33553827879284,-3.18595653452885,4.01882397534081,11.5715235471187,1.9550125909523,5.64514888395733,3.06719139019764,1.9992469562716,1.2997280258773,1.03381283845927,2.06210092402206,3.79701009440356
"104",1,5516,955.994120746319,0.88498506887905,0.95564561465782,0.785098480955316,0.90284934552731,0.867477304513594,0.730288765531226,0.235100383702486,0.245397944922202,0.786992879642842,0.837726972599437,1.90066192340585,3.24476694702633,1.26757394647376,2.09985941412932,1.74375443295298,1.06901994315425,0.241880015674842,0.253138298865665,1.27559359958587,1.53404759714535,0.955366221947935,-2.36538635656718,-4.34656996877102,-0.173130421865915,-3.62856072664421,-3.82002171560241,-0.227834165466785,-3.3723886316956,-4.34087271585602,-4.72569963748112,-2.86282452421519,4.61251574708483,11.5285125405146,2.60674370977907,5.40940955910751,4.04067952244318,2.14280363886151,1.05850594198286,1.0640789983526,2.62713903130443,3.35330203030741
"105",1,5521,924.425470271656,0.798720052420312,0.951363805603784,0.804285686507584,0.883281249884282,0.882920997328523,0.716554718754519,0.0168727568107605,0.0131753972718285,0.836164823363333,0.855199901696258,1.32743279937688,3.08814518055355,1.35346301770449,1.88395752016851,1.88046947821054,1.02727310651114,0.0168751590756116,0.0131765409865431,1.5245177487199,1.65001486813651,0.949870712533012,-2.38165008463866,-4.14123565172781,-0.157757448541365,-3.44570441383441,-3.89894729770984,0.117529956732326,-2.19722192374384,-4.11614821805982,-5.03878866095255,-2.86897120273023,2.76207783686154,10.5366406561761,2.83186214029374,4.54929593779949,4.5361654584814,2.05529003536104,1.00028477099383,1.00017362123237,3.32415436616198,3.72254906507155
"106",1,5526,956.016287281886,0.811570519581633,0.939544148491354,0.834071602418706,0.872364002622716,0.897021603637715,0.804100184143867,0.246479361459305,0.0600559099511715,0.816160849573915,0.840812243995523,1.38907026661214,2.74377305006479,1.51194095839748,1.78449775858621,2.02952171295299,1.35257956663834,0.254325811086744,0.0601645059907845,1.41247119979825,1.55324315991924,0.952055121746596,-1.75343094210991,-4.046437376863,-0.679387231591964,-3.60198102206154,-3.87818952513031,0.190495378733245,-2.61336131378684,-4.4058241017232,-9.92664538217397,-3.46985577569575,2.92951620558592,8.52829055026186,3.28596546167988,4.18443225039921,5.11895838334762,2.82947148408755,1.06468161818493,1.00361976778112,2.99507489025952,3.4125643138359
"107",1,5531,888.16465931531,0.762789130934914,0.932588034578697,0.800486911766422,0.907765115081141,0.908274844647113,0.806060954103617,0.120777267755145,0.147280194814233,0.773554474933268,0.900705305587629,1.17960613271418,2.58375720783469,1.33559122051931,2.16403077353008,2.17096386875916,1.36197474680573,0.12166792172788,0.148904021380373,1.22063766068934,2.07330075419672,0.953751252879713,-2.23666449358987,-4.63408515120256,-0.510446354814044,-3.58415109376812,-2.7960910483353,-0.399785087249638,-3.2746098052486,-4.27934384154168,-3.84183024930622,-3.8564614067591,2.3914706283369,7.67580130903773,2.78380390832826,5.68302918878519,5.71308411945772,2.85497521093655,1.01480308317758,1.02217240758325,2.48995629869314,5.29857601735269
"108",1,5536,920.544014548764,0.800638289052627,0.939660772838111,0.776141668344937,0.916496081029822,0.90407668210419,0.823364725175263,0.0263137229537373,0.00998164332631978,0.810270629146424,0.854720776663704,1.33629467906125,2.74668170036584,1.23087958014373,2.29099011558494,2.11544118229215,1.45083078872355,0.026322837656333,0.0099821406150303,1.38258251711629,1.64658152324927,0.952981095245,-1.96126998015178,-4.98780180268751,0.0489867130091804,-4.43733526983659,-2.9159246671954,-0.306194347575921,-2.81335178936307,-6.63721257444839,-5.56649588493531,-3.4741544929115,2.78568346928741,8.54426036312456,2.51506454081481,6.2486357097079,5.47509139573763,3.10490997750821,1.00069289178228,1.00009964313126,2.91153441663561,3.71123071270587
"109",1,5541,887.617934855999,0.760743965559714,0.935919239662469,0.748884671470218,0.910593297153011,0.901875954504371,0.837416182329541,0.0904168259875418,0.0971061648507533,0.763054483665102,0.908922913659073,1.17208460503068,2.65724090395032,1.13005021919576,2.20320690821456,2.08769952144062,1.53214166163983,0.0907886955564041,0.0975672649179475,1.18058818960299,2.17985844373105,0.953571306805765,-1.87090240539194,-3.76566815162855,0.0248202400547481,-3.23146711790709,-3.29833735462872,-1.01492955457848,-2.86952168472351,-6.48438420941017,-6.35525349433982,-3.97435118173578,2.37378232134992,8.06092922162673,2.27701349790439,5.85412068040434,5.3584892918234,3.34745807133246,1.00824258724083,1.00951937118357,2.39378847343008,5.75178283470554
"110",1,5546,870.150849187312,0.87532721535677,0.925195410480157,0.727244873848884,0.90564334186287,0.876500618370646,0.860999628289384,0.00404227485908297,0.0401357555399196,0.723265173010925,0.899114107315913,1.81028133469352,2.437990106138,1.05953974337487,2.13574851089303,1.82072971183741,1.69286310524163,0.00404230788484508,0.0401681215688079,1.04734457746066,2.05411172402269,0.952127802056284,-1.96168288005875,-3.58191022367995,0.273895140958559,-3.46010389909839,-4.48660007138164,-0.808043520495617,-2.71902090471929,-5.03612226996684,-4.43428787043203,-3.61753696697593,4.27711851073974,6.94379575762677,2.12262446779089,5.56142170178179,4.31505668356755,3.86578549308833,1.00001634025304,1.00161347799037,2.09693066393625,5.21937497476747
"111",1,5551,904.06544551049,0.836632313296759,0.929302051761732,0.767706345999049,0.871987220621137,0.870637564000729,0.83489082425222,0.139235136818494,0.224740803027186,0.689059065056272,0.86594236259594,1.5273565938108,2.51624762441343,1.19804021748433,1.78127928289983,1.76985824319367,1.51683719245321,0.140604718423683,0.230640925117112,0.950812936786776,1.73138676456902,0.946969715034522,-2.32109646181206,-4.17074970498464,0.168138629314195,-3.18837520848834,-3.45318425681261,-0.757374848912377,-3.4103944460256,-4.03163374219543,-8.06190285449327,-3.65035130055915,3.33281816465733,7.33150210736622,2.4353003627099,4.17295588368815,4.1323982010006,3.30079506840935,1.019769686843,1.05319523633888,1.90404524076109,3.99770012852476
"112",1,5556,929.636549533123,0.88795784559547,0.900864433593882,0.839623950093759,0.883624860940051,0.834185724396763,0.828843102012543,0.0274311173391494,0.0965968583968306,0.684560838261699,0.842544991460556,1.93065856806008,2.07524378853067,1.54579014605613,1.88729857911903,1.51262105030347,1.48144966373956,0.0274414436614634,0.0970507073861675,0.9390979568866,1.56424872873784,0.944625066811154,-2.59380321477841,-4.0116683625945,0.199225371259411,-2.97264446103322,-3.48463463609458,-0.25622991802945,-2.95550859705424,-5.56288737778023,-6.90137687458643,-3.68065433802976,4.72744250642378,5.30663678183514,3.38946717564423,4.5618959267447,3.28802244182117,3.19469310619406,1.00075303283023,1.00941883980416,1.88190497262859,3.44687408535796
"113",1,5561,948.373603523854,0.871532106220898,0.905051330438584,0.887977847402097,0.866501100239145,0.733116284937768,0.884933818528007,0.254026721199327,0.163886794883398,0.744965390113563,0.860306442792584,1.77740929804081,2.12801864261598,1.93086418709177,1.73586581342762,1.07794841426746,1.90015438678766,0.262642117897442,0.166133054566631,1.11671699938958,1.68761253294325,0.949995290318002,-2.32335119663073,-4.16227403934979,-0.053371355623718,-2.85834770787139,-3.21591288423036,-0.675544625626563,-3.48777957872592,-4.17836301946625,-7.30634531429442,-3.12439075409931,4.15918381276193,5.52846334332116,4.72823650899357,4.01323012222672,2.16197278382172,4.61058669362838,1.06898088209365,1.02760019181964,2.24705685672568,3.84803606134714
"114",1,5566,879.413658103577,0.870497386848771,0.931684985829471,0.888796435188986,0.847083477103862,0.760724954247664,0.859127738351292,0.279400233296514,0.175602599657045,0.783537592254831,0.881803914369968,1.76868158017568,2.56473715470273,1.93932400013429,1.59388044294495,1.1720150784193,1.67876684051847,0.290988947058459,0.178374334296609,1.26103593186942,1.86974892224577,0.95348671288005,-2.24124921642107,-4.32063851080407,0.203363644363945,-2.3694758358558,-2.315349013678,-0.718224226814784,-3.61031162460617,-6.12518105437668,-6.3573932341311,-3.67936286442219,4.12823453205274,7.57787667271267,4.76097757749687,3.54045486640238,2.37361934404219,3.81825810482438,1.08467456731019,1.03181740313576,2.59021162146577,4.49596103223922
"115",1,5571,928.312027658457,0.84681170214001,0.932822055607639,0.86144637097356,0.847592705883097,0.784252850619161,0.863062769160249,0.392457006599133,0.127648345271752,0.771072883704703,0.912931043021441,1.59207215526739,2.58874643802564,1.69626627985958,1.5972805924712,1.26402415499833,1.70870806076385,0.426690212739882,0.128701186667847,1.21095664544691,2.23695190358921,0.954299083325853,-1.52343250000263,-3.95318676583383,-0.156936777162019,-2.3034410385911,-2.24946886134532,-0.438368841314852,-3.11616835872891,-6.27082013669904,-4.69339547215639,-3.4190379109481,3.53469374757776,7.70160812039044,3.87731929218867,3.55130529108516,2.59775706441925,3.91968323691934,1.18206453764801,1.01656399544971,2.46641599715204,6.0039538189714
"116",1,5576,972.642707791316,0.829714598275716,0.92274969283743,0.809673928599009,0.763219616062887,0.638451475773981,0.866032040396403,0.17135695588492,0.0536617558370303,0.75915711189208,0.92583423408835,1.48644329252098,2.39426615532381,1.37962434320166,1.18120005727334,0.829521805329753,1.73210390229557,0.173929546035913,0.0537391848675865,1.16630580564877,2.44975154994843,0.942871007479306,-1.85903693600115,-3.50062628684739,-0.0626909254127747,-2.47355641041753,-2.46418884878383,-0.0703041730628134,-2.45468623995861,-4.21709811707472,-4.68130288023363,-3.33297684556484,3.2095136618806,6.73251042252907,2.90336332835462,2.39523357530254,1.68810642551753,4.00018392834754,1.03025148698426,1.00288789999023,2.36026923229002,7.00128265647475
"117",1,5581,967.425571828653,0.684140702532022,0.901328954872226,0.861913722112864,0.765998356542199,0.757215724587844,0.773596778860149,0.127678512316956,0.00708918841990878,0.725934214508752,0.91972961790057,0.938014195173059,2.08094129068866,1.6998427878398,1.19158008587309,1.15930258993326,1.22080389526379,0.128732106520108,0.00708936656585019,1.05549878115016,2.34294705356309,0.933255359338375,-1.54909936638349,-3.27454056414733,0.355604661621359,-2.49103127219135,-2.88372674096462,-0.200838929775337,-2.87559885934079,-7.37382846393407,-7.04146906590661,-3.49162721502758,1.87987063034616,5.33031665529298,3.88946550337097,2.41986310104933,2.34398249502597,2.49036215069125,1.0165719552491,1.0000502591183,2.11407767700948,6.48940089579997
"118",1,5586,901.761483459804,0.845817061590653,0.88314287892256,0.884550482845849,0.724260014971788,0.826620415270785,0.853466251805404,0.06083008958933,0.138916658361071,0.682758576806688,0.926056409731915,1.58549163217765,1.8826159937369,1.89636825032652,1.05037229195084,1.46886875937546,1.63766543215117,0.0609429476768116,0.140276771339567,0.934461285338436,2.45387634479292,0.945023753601756,-1.56717767788793,-2.57098381559467,0.458744209164164,-2.88749162960974,-2.85314190937046,0.242567025894182,-3.19766585331321,-6.05358095751808,-4.59410709323725,-3.09847287778966,3.51378371570534,4.54424297987396,4.59621254084645,2.10328195169805,3.1575754322692,3.68194806766288,1.00371404287154,1.01967757257745,1.87321789379636,7.02150911553428
"119",1,5591,934.417332397565,0.858449117646013,0.909147090342395,0.897341752588148,0.772880741259186,0.799583239205411,0.832111585009659,0.0436413432868347,0.0591112194095056,0.571011739680315,0.925992009356945,1.67372048123184,2.18295628043252,2.03323778007228,1.21799566733312,1.33140656101019,1.50035919262593,0.0436829616727507,0.0592147621605723,0.6955568279907,2.45267888370183,0.945651421474837,-1.73254684392406,-2.40484265730143,0.182291121155019,-3.11806798297389,-2.67505734699128,0.020179501604726,-3.0342421270215,-4.45064790184724,-4.49903207905745,-3.61415593257805,3.80134024929493,5.76529812227976,5.13405587031325,2.48351344564225,2.77264343070097,3.25107770689714,1.0019082011405,1.00350638805773,1.48379930096448,7.01563370655686
"120",1,5596,977.368895572136,0.844396357760473,0.878641157935392,0.899815344095524,0.862220997550393,0.80399752000652,0.819644579623005,0.312057530406398,0.234731303569745,0.71754687573073,0.903496058412716,1.57619281765903,1.84015291738171,2.06251489572481,1.70220345359271,1.35209111157019,1.43076295712227,0.328459757239636,0.241478131577271,1.03020294483324,2.10803465100433,0.949219541018641,-1.70603865826593,-2.66125868212718,0.536651020250238,-2.73084675488543,-3.16013727695472,-0.154483454249729,-2.81501342654902,-5.09667183562471,-3.9495220772064,-3.78424656286557,3.4843837984399,4.38616275934841,5.25396769508672,3.89749659742294,2.82815037398711,3.04708263947325,1.10788581212592,1.05831168803005,2.06131810754307,5.44381008983494
"121",1,5601,863.245835499595,0.840305286098821,0.818206115088285,0.922015936367584,0.861159643540318,0.77984656107573,0.786330982462908,0.337010896035198,0.253037363631777,0.43220259175774,0.916929237363236,1.55005421509004,1.42315279045075,2.38153519759605,1.69408031424067,1.24581955237334,1.27278088941047,0.357950747497794,0.261549084476242,0.479279039565997,2.29778125116543,0.943840687325985,-1.50831754978916,-1.937702053596,-0.0994278633679424,-3.28962175279681,-2.46856169400691,-0.228170723376465,-2.2432329719753,-3.75866128256436,-3.99386006213753,-3.661252004574,3.40266806971839,3.02536386496776,6.67170989738884,3.86990811109776,2.55206635707572,2.61997119244849,1.12812873763423,1.06840792359036,1.2297083977673,6.27979867820736
"122",1,5606,894.145537445194,0.875565456780969,0.86560738358532,0.932776497625939,0.844727144030685,0.825124781217337,0.836001999097218,0.408268684815614,0.11300116827722,0.480340037545473,0.935994624930269,1.81239154520629,1.72871389116925,2.58777319017771,1.57834743976843,1.46052573643515,1.52353159136469,0.44724040497335,0.113729622998426,0.547656713939079,2.65896767534159,0.954350228642849,-2.10039696094704,-3.0658487720011,-0.429392441087537,-3.51783831200314,-3.64724644416538,-0.406256335306834,-3.37926419067267,-8.94645519266355,-8.43614573329578,-3.5219223438622,4.28476311313526,3.98845171752152,7.69657008380252,3.49118064062357,3.13313542678942,3.32114850988621,1.20002397984073,1.01293442714736,1.29992787632255,8.07010909851146
"123",1,5611,907.821556303404,0.849436632444903,0.895349202044159,0.926337046596708,0.878694672328145,0.844098412114933,0.835179433764996,0.409751911780415,0.0283744544779438,0.413577586321063,0.92054466264409,1.60972466495225,2.01037261827892,2.45911212338608,1.84064465348582,1.57425748563767,1.51857002679822,0.449192346389727,0.0283858836535087,0.4542468125426,2.35651994952022,0.95338416093269,-1.69984317033474,-3.49828128156699,-0.17816076968663,-3.12048703587386,-3.74620265512033,-0.0767546957077974,-2.83702115903984,-5.4054796402136,-8.71556823664574,-3.47199169061396,3.59121349695562,5.04159806432565,7.04723243538441,4.38797274040595,3.47828663108623,3.30605492628996,1.20177376405511,1.00080575839079,1.20634016670511,6.55318627248677
"124",1,5616,895.860132105642,0.822745056306385,0.88817725690795,0.931144997348923,0.886042434332055,0.796822476010774,0.86737877746432,0.521483483671791,0.266627762322609,0.387755730612363,0.915516786173886,1.44744856011259,1.93291695814471,2.5535368113528,1.91120472326415,1.31877637449645,1.74295457625395,0.611164993712796,0.276642330004534,0.420667873229214,2.27582108759123,0.954544002630805,-2.19630966369106,-2.83367552949155,-0.456054899137357,-3.33633340389931,-3.6873653429532,0.195265434985807,-3.65622307220398,-6.91893910167291,-5.3230811363258,-3.42331961930189,3.09510733417201,4.7361679670834,7.52055024693384,4.65270349422719,2.73917112593001,4.03789065488459,1.37352264953996,1.07653097875034,1.17696145956719,6.17936162272495
"125",1,5621,883.974408144109,0.831650793349539,0.869238498595028,0.932818233239808,0.880374949324343,0.831249428617919,0.869309722561601,0.510616224100108,0.190964866989775,0.562447751379682,0.918765440361518,1.49766310098817,1.75819339890733,2.58866474467407,1.85624108390349,1.49532289434561,1.75878302172324,0.593871868880921,0.194545105421492,0.680243613596287,2.32714418244696,0.956059862256413,-1.46943354364245,-2.41367087283896,-0.114835749992058,-2.90331087641289,-4.34088614526876,-0.232048458048556,-2.34012174917703,-9.55201368326971,-6.96714614212288,-3.84334026864192,3.2429947640615,4.0912440279613,7.70118516031845,4.44563096157121,3.23599055835413,4.09331771750194,1.35268379664812,1.03784779804346,1.46273137383853,6.41560004589671
"126",1,5626,859.944133366794,0.825212455752152,0.860487222664065,0.924122100696228,0.866811023680305,0.914661816088869,0.863252915879394,0.148378243896597,0.0492548702409738,0.735940864571175,0.914519548443734,1.46101213234243,1.6889783699734,2.41855179894608,1.73836154796761,2.26278250811709,1.71018507477147,0.150039073895156,0.0493147263710696,1.0869882682199,2.26063104189995,0.956490586217564,-1.4671308412856,-2.42321680314022,0.571249666870828,-2.70152775548318,-4.57082149781518,-0.464533620819874,-3.35341384001573,-7.24487555443174,-4.91412901685194,-3.19394430267753,3.13455645085176,3.85264793423802,6.84939280418533,4.02190087145235,6.12018467904065,3.92473298997111,1.02251172369532,1.00243194223705,2.1815434952477,6.11045270760166
"127",1,5631,854.173895140297,0.836323728449715,0.814554237466136,0.860853959553652,0.775048610182215,0.903094178228322,0.911837953863701,0.106623863521839,0.0122257789501389,0.649278034047597,0.919437705273974,1.52548146110257,1.40419225505462,1.69175671767719,1.22653367390308,2.10294525904941,2.22101399464699,0.10723516534561,0.0122266927441568,0.853694118714036,2.3381339331988,0.947861552015689,-2.60650412737257,-2.09136312064221,0.359014400980861,-2.58492339842642,-3.3533216384819,-0.631484282114377,-3.67846644082806,-3.15190477731245,-4.97546842199277,-3.26585545666552,3.32709368816765,2.97175588915539,3.86204079180588,2.50438485321819,5.42237876255838,5.93290316441779,1.0114993806867,1.00014949201546,1.72879364832693,6.4668702895757
"128",1,5636,896.805507850714,0.840902106361668,0.667504119136212,0.862000277796464,0.708527707921239,0.92451044720071,0.920640819421434,0.26904476320638,0.000673112079607646,0.760368655936094,0.938857022795466,1.55380987808439,0.896452654706304,1.70050701948257,1.00403115080691,2.42553899080999,2.35813444473547,0.279344858027875,0.000673112232094465,1.17071337640903,2.72679994322036,0.952212926033282,-2.0985418485519,-2.36865421151938,0.177917998447712,-3.25766996207593,-3.87380358164359,-0.434835545369699,-2.94251411335682,-4.75831159340658,-4.67248490582187,-3.39090697387925,3.41432513723263,1.80362736212998,3.89172412330949,2.00807855179065,6.88323939593954,6.56079805944784,1.07803354970661,1.00000045308008,2.37056980970302,8.43543793034658
"129",1,5641,922.257056188461,0.838960408367449,0.56821877715186,0.889342841532794,0.731640277082934,0.916274264410422,0.905590970468976,0.039999298677249,0.087452340567145,0.752708946760892,0.940415971023584,1.54166121455149,0.690526548397725,1.94501999610952,1.07327273976521,2.28753195316418,2.13506191518652,0.0400313354420031,0.0877886849473342,1.1433204569764,2.76571638601453,0.949485309441455,-2.06475236540785,-2.17749892438438,0.201241466422715,-2.96164395319673,-4.43317750062919,-0.354184639802901,-2.61227624788938,-10.4933034813148,-3.9614576476966,-3.60345663769415,3.37671930045238,1.47682691404208,4.78310278526588,2.15191437392312,6.23280243674711,5.55848938167991,1.00160250781727,1.00770685320478,2.30718166734072,8.64918712786927
"130",1,5646,891.198707211597,0.833704302890785,0.707926151304061,0.866190231352373,0.854785076273409,0.905857719282176,0.900712646359391,0.0146452746776934,0.141121707222497,0.755875764499249,0.9411567743936,1.50975641953131,1.00232156622799,1.7333705586178,1.64704137533971,2.13856470071487,2.07339029135331,0.0146468455194507,0.142548294288995,1.1545110141162,2.78473216371557,0.952755552367921,-2.59415861597276,-2.48419664290926,0.268163017540609,-3.32119992630447,-3.76275244652821,0.0367884908901473,-4.54450003747146,-5.96988380128921,-3.84162964562372,-3.67000550231624,3.27936444631599,2.00464852212573,4.00457349348299,3.71274529208093,5.5734589791437,5.29894730027817,1.00021453008367,1.0203200162047,2.33289568171562,8.75473322363198
"131",1,5651,878.421181095864,0.722418671654403,0.666091409798868,0.898547297178423,0.831028389697329,0.880179060677558,0.932744822934329,0.268523594915424,0.288498896066007,0.829540940393393,0.940217985380932,1.04477909689917,0.89303940887995,2.0473798320535,1.49403733380545,1.85440703748407,2.58709709142686,0.278761643940921,0.30131055204688,1.48544547245165,2.76069239115725,0.956038647865788,-1.75578240794079,-1.77240071624935,0.088751581466737,-2.72282594360875,-4.05639570341668,-0.0481162159776057,-3.3165725007771,-5.03339697923059,-8.22673978424702,-3.43329501555311,2.09156336131745,1.79751938581265,5.19176417669941,3.23214755480448,4.43882546067045,7.69307136046931,1.07770805413264,1.0907880487748,3.2065482516271,8.62142247859355
"132",1,5656,836.135944193058,0.746127382021313,0.58335054970463,0.897362779994372,0.810771210261432,0.80237877784485,0.918429375722176,0.144877715693467,0.342667806051996,0.779738095573451,0.928859749404959,1.12064249299991,0.718216976396132,2.03348242696491,1.38507382646485,1.34443438238161,2.32169927141689,0.146422536719266,0.364751061612515,1.245377484471,2.50750682205528,0.945626460492039,-1.61996327338289,-1.72708944064317,0.340378298253884,-2.86994192260791,-3.18769549689087,-0.36204360836546,-3.01375538922932,-5.5504231167533,-6.55109861247795,-2.99130313329743,2.25583959711704,1.5158356251836,5.13505078077511,2.91842950475797,2.80750380852981,6.39028750689773,1.0214395592593,1.13304333694746,2.5509650788273,7.28759046265377
